; HEADER_BLOCK_START
; generated by OrcaSlicer 2.3.1-beta on 2025-09-28 at 00:35:43
; total layer number: 77
; filament_density: 1.24
; filament_diameter: 1.75
; max_z_height: 24.52
; HEADER_BLOCK_END

; THUMBNAIL_BLOCK_START

;
; THUMBNAIL_BLOCK_END

; THUMBNAIL_BLOCK_START

;
; THUMBNAIL_BLOCK_END

; external perimeters extrusion width = 0.60mm
; perimeters extrusion width = 0.66mm
; infill extrusion width = 0.66mm
; solid infill extrusion width = 0.72mm
; top infill extrusion width = 0.56mm
; first layer extrusion width = 0.72mm

; EXECUTABLE_BLOCK_START
EXCLUDE_OBJECT_DEFINE NAME=bin_without_tab_1x1x3.stl_id_0_copy_0 CENTER=20.75,20.75 POLYGON=[[0,3.75],[0.008742,3.49409],[0.009135,3.48841],[0.034928,3.23937],[0.036496,3.2281],[0.078434,2.98704],[0.081948,2.97033],[0.139061,2.73826],[0.14527,2.71636],[0.216523,2.4942],[0.226153,2.46742],[0.310458,2.256],[0.324206,2.22474],[0.420432,2.02476],[0.438946,1.98948],[0.545928,1.80156],[0.569821,1.7628],[0.686364,1.58745],[0.716187,1.5458],[0.841084,1.38342],[0.877333,1.33955],[1.00937,1.19043],[1.05248,1.14503],[1.19043,1.00937],[1.24076,0.963208],[1.38342,0.841084],[1.44127,0.794961],[1.58745,0.686364],[1.65303,0.64111],[1.80156,0.545928],[1.875,0.502406],[2.02476,0.420432],[2.10611,0.379523],[2.256,0.310458],[2.34523,0.27306],[2.4942,0.216523],[2.59119,0.183539],[2.73826,0.139061],[2.84279,0.111392],[2.98704,0.078434],[3.09882,0.056971],[3.23937,0.034928],[3.35802,0.020543],[3.49409,0.008742],[3.61913,0.002286],[3.75,0],[37.75,0],[38.0059,0.008742],[38.0116,0.009135],[38.2606,0.034928],[38.2719,0.036496],[38.513,0.078434],[38.5297,0.081948],[38.7617,0.139061],[38.7836,0.14527],[39.0058,0.216523],[39.0326,0.226153],[39.244,0.310458],[39.2753,0.324206],[39.4752,0.420432],[39.5105,0.438946],[39.6984,0.545928],[39.7372,0.569821],[39.9126,0.686364],[39.9542,0.716187],[40.1166,0.841084],[40.1605,0.877333],[40.3096,1.00937],[40.355,1.05248],[40.4906,1.19043],[40.5368,1.24076],[40.6589,1.38342],[40.705,1.44127],[40.8136,1.58745],[40.8589,1.65303],[40.9541,1.80156],[40.9976,1.875],[41.0796,2.02476],[41.1205,2.10611],[41.1895,2.256],[41.2269,2.34523],[41.2835,2.4942],[41.3165,2.59119],[41.3609,2.73826],[41.3886,2.84279],[41.4216,2.98704],[41.443,3.09882],[41.4651,3.23937],[41.4795,3.35802],[41.4913,3.49409],[41.4977,3.61913],[41.5,3.75],[41.5,37.75],[41.4913,38.0059],[41.4909,38.0116],[41.4651,38.2606],[41.4635,38.2719],[41.4216,38.513],[41.4181,38.5297],[41.3609,38.7617],[41.3547,38.7836],[41.2835,39.0058],[41.2738,39.0326],[41.1895,39.244],[41.1758,39.2753],[41.0796,39.4752],[41.0611,39.5105],[40.9541,39.6984],[40.9302,39.7372],[40.8136,39.9126],[40.7838,39.9542],[40.6589,40.1166],[40.6227,40.1605],[40.4906,40.3096],[40.4475,40.355],[40.3096,40.4906],[40.2592,40.5368],[40.1166,40.6589],[40.0587,40.705],[39.9126,40.8136],[39.847,40.8589],[39.6984,40.9541],[39.625,40.9976],[39.4752,41.0796],[39.3939,41.1205],[39.244,41.1895],[39.1548,41.2269],[39.0058,41.2835],[38.9088,41.3165],[38.7617,41.3609],[38.6572,41.3886],[38.513,41.4216],[38.4012,41.443],[38.2606,41.4651],[38.142,41.4795],[38.0059,41.4913],[37.8809,41.4977],[37.75,41.5],[3.75,41.5],[3.49409,41.4913],[3.48841,41.4909],[3.23937,41.4651],[3.2281,41.4635],[2.98704,41.4216],[2.97033,41.4181],[2.73826,41.3609],[2.71636,41.3547],[2.4942,41.2835],[2.46742,41.2738],[2.256,41.1895],[2.22474,41.1758],[2.02476,41.0796],[1.98948,41.0611],[1.80156,40.9541],[1.7628,40.9302],[1.58745,40.8136],[1.5458,40.7838],[1.38342,40.6589],[1.33955,40.6227],[1.19043,40.4906],[1.14503,40.4475],[1.00937,40.3096],[0.963208,40.2592],[0.841084,40.1166],[0.794961,40.0587],[0.686364,39.9126],[0.64111,39.847],[0.545928,39.6984],[0.502406,39.625],[0.420432,39.4752],[0.379523,39.3939],[0.310458,39.244],[0.27306,39.1548],[0.216523,39.0058],[0.183539,38.9088],[0.139061,38.7617],[0.111392,38.6572],[0.078434,38.513],[0.056971,38.4012],[0.034928,38.2606],[0.020543,38.142],[0.008742,38.0059],[0.002286,37.8809],[0,37.75],[0,3.75]]
M73 P0 R16
;TYPE:Custom
M190 S55
M109 S220
PRINT_START EXTRUDER=220 BED=55
G90
G21
M83 ; use relative distances for extrusion
; filament start gcode

;M106 P3 S255
M106 P3 S144

;Prevent PLA from jamming
M106 S0
;LAYER_CHANGE
;Z:0.2
;HEIGHT:0.2
;BEFORE_LAYER_CHANGE
;0.2
G92 E0

G1 E-.8 F1800
;AFTER_LAYER_CHANGE
;0.2
;_SET_FAN_SPEED_CHANGING_LAYER
SET_VELOCITY_LIMIT ACCEL=500 ACCEL_TO_DECEL=250
; printing object bin_without_tab_1x1x3.stl id:0 copy 0
EXCLUDE_OBJECT_START NAME=bin_without_tab_1x1x3.stl_id_0_copy_0
G1 Z.6 F21000
G1 X35.199 Y8.575
G1 Z.6
G1 Z.2
G1 E.8 F1800
;TYPE:Inner wall
;WIDTH:0.719999
G1 F3000
G1 X34.935 Y8.544 E.01468
G1 X32.245 Y8.544 E.14841
G1 X31.74 Y8.704 E.02923
G1 X31.441 Y8.883 E.01922
G1 X31.201 Y9.103 E.01799
G1 X31.02 Y9.343 E.01658
G1 X30.816 Y9.82 E.02864
G1 X30.764 Y10.237 E.02317
G1 X30.764 Y14.682 E.24525
G1 X30.797 Y15.013 E.01835
G1 X30.954 Y15.724 E.04017
G1 X31.148 Y16.115 E.0241
G1 X31.528 Y16.67 E.03711
G1 X31.895 Y17.002 E.02729
G1 X32.459 Y17.368 E.03709
G1 X32.925 Y17.535 E.02732
G1 X33.42 Y17.633 E.02784
G1 X33.916 Y17.658 E.02741
G1 X34.65 Y17.512 E.04131
G1 X35.116 Y17.319 E.02783
G1 X35.665 Y16.952 E.03643
G1 X36.022 Y16.595 E.02784
G1 X36.389 Y16.046 E.03644
;WIDTH:0.766118
G1 X36.471 Y15.886 E.01061
;WIDTH:0.812237
G1 X36.553 Y15.726 E.01129
;WIDTH:0.858356
G1 X36.635 Y15.565 E.01196
;WIDTH:0.904475
G1 X36.717 Y15.405 E.01264
;WIDTH:0.950594
G1 X36.799 Y15.245 E.01332
G1 X36.819 Y15.345 E.00756
;WIDTH:0.911629
G1 X36.838 Y15.445 E.00724
;WIDTH:0.872664
G1 X36.858 Y15.546 E.00691
;WIDTH:0.833699
G1 X36.877 Y15.646 E.00659
;WIDTH:0.794734
G1 X36.896 Y15.898 E.0155
;WIDTH:0.757367
G1 X36.914 Y16.151 E.01473
;WIDTH:0.719999
G1 X36.914 Y36.914 E1.1456
G1 X33.045 Y36.914 E.21349
;WIDTH:0.723777
G1 X32.154 Y36.912 E.04944
;WIDTH:0.764176
G1 X32.038 Y36.892 E.00693
;WIDTH:0.804574
G1 X31.922 Y36.872 E.00732
;WIDTH:0.844972
G1 X31.805 Y36.852 E.00771
;WIDTH:0.88537
G1 X31.689 Y36.832 E.00809
;WIDTH:0.925768
G1 X31.573 Y36.811 E.00848
G1 X31.671 Y36.757 E.00804
;WIDTH:0.88537
G1 X31.768 Y36.702 E.00767
;WIDTH:0.844972
G1 X31.865 Y36.647 E.0073
;WIDTH:0.804574
G1 X31.963 Y36.593 E.00693
;WIDTH:0.764176
G1 X32.06 Y36.538 E.00657
;WIDTH:0.723777
G1 X32.617 Y36.059 E.04077
;WIDTH:0.719999
G1 X32.888 Y35.517 E.03341
G1 X32.956 Y35.043 E.02642
G1 X32.956 Y32.457 E.14267
G1 X32.914 Y32.086 E.02063
G1 X32.796 Y31.74 E.02014
G1 X32.617 Y31.441 E.01922
G1 X32.397 Y31.201 E.01799
G1 X32.157 Y31.02 E.01658
G1 X31.68 Y30.816 E.02864
G1 X31.263 Y30.764 E.02317
G1 X26.818 Y30.764 E.24525
G1 X26.487 Y30.797 E.01835
G1 X25.836 Y30.935 E.03673
G1 X25.385 Y31.148 E.02751
G1 X24.83 Y31.528 E.03711
G1 X24.498 Y31.895 E.02729
G1 X24.132 Y32.459 E.03709
G1 X23.932 Y33.007 E.03217
G1 X23.859 Y33.498 E.02742
G1 X23.859 Y34.002 E.02783
G1 X23.932 Y34.494 E.0274
G1 X24.218 Y35.186 E.04131
G1 X24.498 Y35.605 E.02783
G1 X24.965 Y36.072 E.03643
G1 X25.385 Y36.352 E.02784
;WIDTH:0.753836
G1 X25.991 Y36.621 E.03842
;WIDTH:0.798748
G1 X26.11 Y36.668 E.00786
;WIDTH:0.84366
G1 X26.229 Y36.714 E.00833
;WIDTH:0.888572
G1 X26.347 Y36.761 E.00879
;WIDTH:0.933484
G1 X26.466 Y36.808 E.00926
G1 X26.34 Y36.83 E.00926
;WIDTH:0.888572
G1 X26.215 Y36.853 E.00879
;WIDTH:0.84366
G1 X26.089 Y36.875 E.00833
;WIDTH:0.798748
G1 X25.964 Y36.897 E.00786
;WIDTH:0.753836
G1 X25.214 Y36.914 E.04343
;WIDTH:0.719999
G1 X4.586 Y36.914 E1.13815
G1 X4.586 Y33.045 E.21349
;WIDTH:0.723777
G1 X4.588 Y32.154 E.04944
;WIDTH:0.764176
G1 X4.608 Y32.038 E.00693
;WIDTH:0.804574
G1 X4.628 Y31.922 E.00732
;WIDTH:0.844972
G1 X4.648 Y31.805 E.00771
;WIDTH:0.88537
G1 X4.668 Y31.689 E.00809
;WIDTH:0.925768
G1 X4.689 Y31.573 E.00848
G1 X4.743 Y31.671 E.00804
;WIDTH:0.88537
G1 X4.798 Y31.768 E.00767
;WIDTH:0.844972
G1 X4.853 Y31.865 E.0073
;WIDTH:0.804574
G1 X4.907 Y31.963 E.00693
;WIDTH:0.764176
G1 X4.962 Y32.06 E.00657
;WIDTH:0.723777
G1 X5.441 Y32.617 E.04077
;WIDTH:0.719999
G1 X5.983 Y32.888 E.03341
G1 X6.565 Y32.956 E.03232
G1 X9.255 Y32.956 E.1484
G1 X9.76 Y32.796 E.02922
G1 X10.059 Y32.617 E.01922
G1 X10.299 Y32.397 E.01799
G1 X10.48 Y32.157 E.01658
G1 X10.684 Y31.68 E.02864
G1 X10.736 Y31.263 E.02317
G1 X10.736 Y26.818 E.24525
G1 X10.703 Y26.487 E.01835
G1 X10.565 Y25.836 E.03673
G1 X10.352 Y25.385 E.02751
G1 X9.942 Y24.796 E.0396
G1 X9.605 Y24.498 E.02482
G1 X9.041 Y24.132 E.03709
G1 X8.493 Y23.932 E.03217
G1 X7.891 Y23.842 E.03358
G1 X7.405 Y23.868 E.02685
G1 X6.626 Y24.054 E.04422
G1 X6.315 Y24.218 E.0194
G1 X5.895 Y24.498 E.02785
G1 X5.428 Y24.965 E.03645
G1 X5.148 Y25.385 E.02783
;WIDTH:0.753837
G1 X4.879 Y25.991 E.03841
;WIDTH:0.79875
G1 X4.832 Y26.11 E.00786
;WIDTH:0.843662
G1 X4.786 Y26.229 E.00833
;WIDTH:0.888574
G1 X4.739 Y26.347 E.00879
;WIDTH:0.933486
G1 X4.692 Y26.466 E.00926
G1 X4.67 Y26.34 E.00926
;WIDTH:0.888574
G1 X4.647 Y26.215 E.00879
;WIDTH:0.843662
G1 X4.625 Y26.089 E.00833
;WIDTH:0.79875
G1 X4.603 Y25.964 E.00786
;WIDTH:0.753837
G1 X4.586 Y25.214 E.04342
;WIDTH:0.719999
G1 X4.586 Y4.586 E1.13816
G1 X8.455 Y4.586 E.21349
;WIDTH:0.72377
G1 X9.346 Y4.588 E.04943
;WIDTH:0.764152
G1 X9.462 Y4.608 E.00693
;WIDTH:0.804534
G1 X9.578 Y4.628 E.00732
;WIDTH:0.844915
G1 X9.695 Y4.648 E.00771
;WIDTH:0.885297
G1 X9.811 Y4.668 E.00809
;WIDTH:0.925678
G1 X9.927 Y4.689 E.00848
G1 X9.829 Y4.743 E.00804
;WIDTH:0.885297
G1 X9.732 Y4.798 E.00767
;WIDTH:0.844915
G1 X9.635 Y4.853 E.0073
;WIDTH:0.804534
G1 X9.537 Y4.907 E.00693
;WIDTH:0.764152
G1 X9.44 Y4.962 E.00657
;WIDTH:0.72377
G1 X8.883 Y5.441 E.04077
;WIDTH:0.719999
G1 X8.612 Y5.983 E.03341
G1 X8.544 Y6.565 E.03232
G1 X8.544 Y9.255 E.1484
G1 X8.704 Y9.76 E.02922
G1 X8.883 Y10.059 E.01922
G1 X9.103 Y10.299 E.01799
G1 X9.343 Y10.48 E.01658
G1 X9.82 Y10.684 E.02864
G1 X10.237 Y10.736 E.02317
G1 X13.78 Y10.736 E.19545
G1 X15.098 Y10.703 E.07278
G1 X15.58 Y10.582 E.02742
G1 X16.199 Y10.317 E.03713
G1 X16.595 Y10.022 E.02726
G1 X17.118 Y9.473 E.04182
G1 X17.319 Y9.116 E.0226
G1 X17.574 Y8.474 E.03814
G1 X17.641 Y8.002 E.02626
G1 X17.614 Y7.194 E.04462
G1 X17.512 Y6.85 E.01979
G1 X17.319 Y6.384 E.02784
G1 X16.952 Y5.835 E.03644
G1 X16.595 Y5.478 E.02784
G1 X16.046 Y5.111 E.03644
;WIDTH:0.740613
G1 X15.584 Y4.908 E.02869
;WIDTH:0.788437
G1 X15.465 Y4.854 E.00793
;WIDTH:0.836261
G1 X15.346 Y4.8 E.00844
;WIDTH:0.884085
G1 X15.227 Y4.746 E.00895
;WIDTH:0.931908
G1 X15.109 Y4.692 E.00946
G1 X15.243 Y4.668 E.00989
;WIDTH:0.884085
G1 X15.377 Y4.644 E.00936
;WIDTH:0.836261
G1 X15.512 Y4.62 E.00882
;WIDTH:0.788437
G1 X15.646 Y4.596 E.00829
;WIDTH:0.740613
G1 X16.151 Y4.586 E.02869
;WIDTH:0.719999
G1 X36.914 Y4.586 E1.14561
G1 X36.914 Y9.346 E.26262
;WIDTH:0.76469
G1 X36.892 Y9.569 E.01317
;WIDTH:0.809381
G1 X36.87 Y9.792 E.01398
;WIDTH:0.854072
G1 X36.847 Y10.014 E.0148
;WIDTH:0.898762
G1 X36.825 Y10.237 E.01561
G1 X36.753 Y10.038 E.01477
;WIDTH:0.854072
G1 X36.681 Y9.839 E.014
;WIDTH:0.809381
G1 X36.609 Y9.64 E.01323
;WIDTH:0.76469
G1 X36.536 Y9.441 E.01246
;WIDTH:0.719999
G1 X36.059 Y8.883 E.04052
G1 X35.517 Y8.612 E.03341
G1 X35.259 Y8.582 E.01432
G1 E-.56 F1800
;WIPE_START
G1 F3000
G1 X34.935 Y8.544 E-.07825
G1 X34.261 Y8.544 E-.16175
;WIPE_END
G1 Z.6 F21000
G1 X37.591 Y3.909 Z.6
G1 Z.2
G1 E.8 F1800
G1 F3000
G1 X37.591 Y37.591 E1.85837
G1 X3.909 Y37.591 E1.8584
G1 X3.909 Y3.909 E1.8584
G1 X37.531 Y3.909 E1.85509
G1 X37.856 Y3.238 F21000
;TYPE:Outer wall
G1 F3000
M73 P1 R16
G1 X38.075 Y3.341 E.01335
G1 X38.238 Y3.532 E.01384
G1 X38.29 Y3.85 E.0178
G1 X38.29 Y37.65 E1.86483
G1 X38.255 Y37.924 E.01523
G1 X38.14 Y38.114 E.01228
G1 X37.962 Y38.239 E.01196
G1 X37.715 Y38.29 E.01392
G1 X3.85 Y38.29 E1.86845
G1 X3.576 Y38.255 E.01523
G1 X3.386 Y38.14 E.01228
G1 X3.261 Y37.962 E.01196
G1 X3.21 Y37.715 E.01392
G1 X3.21 Y3.85 E1.86845
G1 X3.245 Y3.576 E.01523
G1 X3.36 Y3.386 E.01228
G1 X3.538 Y3.261 E.01196
G1 X3.785 Y3.21 E.01392
G1 X37.65 Y3.21 E1.86848
G1 X37.797 Y3.23 E.00815
G1 E-.56 F1800
;WIPE_START
G1 F3000
G1 X38.075 Y3.341 E-.07193
G1 X38.238 Y3.532 E-.06022
G1 X38.29 Y3.85 E-.07742
G1 X38.29 Y3.977 E-.03044
;WIPE_END
G1 Z.6 F21000
G1 X35.113 Y9.24 Z.6
G1 Z.2
G1 E.8 F1800
;TYPE:Inner wall
G1 F3000
G1 X35.327 Y9.262 E.01187
G1 X35.652 Y9.425 E.02005
G1 X35.939 Y9.759 E.02431
G1 X36.059 Y10.237 E.02718
G1 X36.059 Y14.682 E.24525
G1 X36.019 Y15.108 E.02359
G1 X35.764 Y15.787 E.04004
G1 X35.543 Y16.117 E.02186
G1 X35.187 Y16.473 E.02784
G1 X34.857 Y16.693 E.02186
G1 X34.391 Y16.887 E.02783
G1 X33.85 Y16.984 E.03036
G1 X33.552 Y16.969 E.01644
G1 X33.057 Y16.871 E.02784
G1 X32.691 Y16.719 E.02186
G1 X32.271 Y16.439 E.02784
G1 X32.006 Y16.18 E.02046
G1 X31.711 Y15.739 E.02927
G1 X31.57 Y15.42 E.01923
G1 X31.461 Y14.881 E.03037
G1 X31.441 Y13.959 E.05085
G1 X31.441 Y10.237 E.20536
G1 X31.52 Y9.846 E.02198
G1 X31.703 Y9.557 E.01894
G1 X32.027 Y9.317 E.02222
G1 X32.33 Y9.221 E.01754
G1 X34.935 Y9.221 E.14374
G1 X35.054 Y9.234 E.00657
G1 X35.043 Y9.92 F21000
;TYPE:Outer wall
G1 F3000
G1 X35.233 Y9.983 E.01106
G1 X35.323 Y10.088 E.00759
G1 X35.36 Y10.237 E.00849
G1 X35.36 Y14.682 E.24525
G1 X35.311 Y15.054 E.02067
G1 X35.118 Y15.52 E.02784
G1 X34.693 Y15.979 E.03456
G1 X34.124 Y16.241 E.03455
G1 X33.688 Y16.284 E.02415
G1 X33.193 Y16.186 E.02784
G1 X32.659 Y15.858 E.03456
G1 X32.292 Y15.351 E.03456
G1 X32.146 Y14.744 E.03444
G1 X32.14 Y10.237 E.24867
G1 X32.188 Y10.07 E.00961
G1 X32.323 Y9.95 E.00995
G1 X32.457 Y9.92 E.00759
G1 X34.983 Y9.92 E.13936
G1 E-.56 F1800
;WIPE_START
G1 F3000
G1 X35.233 Y9.983 E-.06196
G1 X35.323 Y10.088 E-.03302
G1 X35.36 Y10.237 E-.03691
G1 X35.36 Y10.688 E-.10811
;WIPE_END
G1 Z.6 F21000
G1 X36.825 Y10.237 Z.6
G1 Z.2
G1 E.8 F1800
;TYPE:Inner wall
;WIDTH:0.898762
G1 F3000
G1 X36.825 Y14.682 E.31
;WIDTH:0.924678
G1 X36.812 Y14.963 E.02023
;WIDTH:0.950594
G1 X36.799 Y15.245 E.02083
G1 E-.56 F1800
;WIPE_START
G1 F3000
G1 X36.812 Y14.963 E-.06758
G1 X36.825 Y14.682 E-.06758
G1 X36.825 Y14.245 E-.10484
;WIPE_END
G1 Z.6 F21000
G1 X32.279 Y32.457 Z.6
G1 Z.2
G1 E.8 F1800
;WIDTH:0.719999
G1 F3000
G1 X32.279 Y34.935 E.13672
G1 X32.238 Y35.327 E.02176
G1 X32.075 Y35.652 E.02005
G1 X31.741 Y35.939 E.02431
G1 X31.394 Y36.059 E.02024
G1 X26.818 Y36.059 E.25248
G1 X26.127 Y35.941 E.03869
G1 X25.761 Y35.789 E.02184
G1 X25.341 Y35.509 E.02784
G1 X25.061 Y35.229 E.02186
G1 X24.781 Y34.809 E.02783
G1 X24.58 Y34.297 E.03036
G1 X24.536 Y34.002 E.01644
G1 X24.536 Y33.498 E.02783
G1 X24.58 Y33.203 E.01645
G1 X24.729 Y32.777 E.0249
G1 X25.061 Y32.271 E.03339
G1 X25.32 Y32.006 E.02046
G1 X25.761 Y31.711 E.02927
G1 X26.1 Y31.565 E.02039
G1 X26.619 Y31.461 E.0292
G1 X27.72 Y31.441 E.06076
G1 X31.263 Y31.441 E.19545
G1 X31.654 Y31.52 E.02198
G1 X31.799 Y31.595 E.00906
G1 X32.075 Y31.848 E.02065
G1 X32.279 Y32.288 E.02674
G1 X32.279 Y32.397 E.00603
G1 X31.58 Y32.457 F21000
;TYPE:Outer wall
G1 F3000
G1 X31.58 Y35.043 E.14267
G1 X31.517 Y35.233 E.01106
G1 X31.31 Y35.36 E.01338
G1 X26.818 Y35.36 E.24784
G1 X26.263 Y35.256 E.03114
G1 X25.729 Y34.928 E.03455
G1 X25.362 Y34.421 E.03455
G1 X25.235 Y34.002 E.02415
G1 X25.235 Y33.498 E.02783
G1 X25.362 Y33.079 E.02415
G1 X25.642 Y32.659 E.02784
G1 X26.149 Y32.292 E.03456
G1 X26.756 Y32.146 E.03444
G1 X31.263 Y32.14 E.24867
G1 X31.43 Y32.188 E.00961
G1 X31.55 Y32.323 E.00995
G1 X31.567 Y32.399 E.00428
G1 E-.56 F1800
;WIPE_START
G1 F3000
G1 X31.572 Y33.398 E-.24
;WIPE_END
G1 Z.6 F21000
G1 X31.573 Y36.811 Z.6
G1 Z.2
G1 E.8 F1800
;TYPE:Inner wall
;WIDTH:0.925768
G1 F3000
G1 X31.263 Y36.825 E.02234
;WIDTH:0.898762
G1 X26.818 Y36.825 E.31
;WIDTH:0.933484
G1 X26.466 Y36.808 E.02556
G1 E-.56 F1800
;WIPE_START
G1 F3000
G1 X26.818 Y36.825 E-.08453
G1 X27.466 Y36.825 E-.15547
;WIPE_END
G1 Z.6 F21000
G1 X5.749 Y31.96 Z.6
G1 Z.2
G1 E.8 F1800
;WIDTH:0.719999
G1 F3000
G1 X5.561 Y31.741 E.01595
G1 X5.441 Y31.394 E.02024
G1 X5.441 Y26.818 E.25248
G1 X5.559 Y26.127 E.03869
G1 X5.711 Y25.761 E.02184
G1 X5.991 Y25.342 E.02783
G1 X6.271 Y25.061 E.02187
G1 X6.691 Y24.781 E.02785
G1 X7.055 Y24.63 E.02175
G1 X7.694 Y24.513 E.03585
G1 X8.203 Y24.556 E.02814
G1 X8.723 Y24.729 E.03025
G1 X9.229 Y25.061 E.03339
G1 X9.486 Y25.308 E.01967
G1 X9.789 Y25.761 E.03007
G1 X9.935 Y26.1 E.02039
