;FLAVOR:Marlin
;TIME:817
;Filament used: 2.02476m
;Layer height: 0.4
;MINX:88.614
;MINY:85.2
;MINZ:0.32
;MAXX:131.386
;MAXY:134.8
;MAXZ:29.92
;Generated with Cura_SteamEngine 4.11.0
M140 S55
M105
M190 S55
M104 S210
M105
M109 S210
M82 ;absolute extrusion mode
; Kalibrering
M92 E102.7
G28 ; Home all axes
G92 E0 ; Reset Extruder
G1 Z2.0 F3000 ; Move Z Axis up little to prevent scratching of Heat Bed
G1 X0.1 Y20 Z0.3 F5000.0 ; Move to start position
G1 X0.1 Y200.0 Z0.3 F1500.0 E15 ; Draw the first line
G1 X0.4 Y200.0 Z0.3 F5000.0 ; Move to side a little
G1 X0.4 Y20 Z0.3 F1500.0 E30 ; Draw the second line
G92 E0 ; Reset Extruder
G1 Z2.0 F3000 ; Move Z Axis up little to prevent scratching of Heat Bed
G92 E0
M92 E102.7
G92 E0
G1 F2700 E-5
;LAYER_COUNT:75
;LAYER:0
M107
G0 F6000 X95.479 Y92.871 Z0.32
;TYPE:SKIRT
G1 F2700 E0
G1 F1200 X95.902 Y92.441 E0.0642
G1 X96.335 Y92.018 E0.12862
G1 X96.73 Y91.65 E0.18608
G1 X97.243 Y91.197 E0.25892
G1 X97.707 Y90.809 E0.3233
G1 X98.182 Y90.429 E0.38804
G1 X98.67 Y90.058 E0.45329
G1 X99.163 Y89.703 E0.51794
G1 X99.661 Y89.363 E0.58212
G1 X100.176 Y89.028 E0.64751
G1 X100.694 Y88.71 E0.7122
G1 X101.223 Y88.403 E0.7773
G1 X101.749 Y88.116 E0.84108
G1 X102.295 Y87.832 E0.90658
G1 X102.84 Y87.567 E0.97108
G1 X103.399 Y87.312 E1.03647
G1 X103.952 Y87.076 E1.10047
G1 X104.521 Y86.849 E1.16567
G1 X105.09 Y86.639 E1.23022
G1 X105.668 Y86.441 E1.29525
G1 X106.249 Y86.257 E1.36011
G1 X106.767 Y86.107 E1.41751
G1 X107.429 Y85.933 E1.49036
G1 X108.008 Y85.798 E1.55364
G1 X108.609 Y85.67 E1.61904
G1 X109.207 Y85.56 E1.68375
G1 X109.813 Y85.463 E1.74907
G1 X110.41 Y85.383 E1.81318
G1 X111.018 Y85.316 E1.87828
G1 X111.624 Y85.265 E1.94301
G1 X112.231 Y85.229 E2.00773
G1 X112.839 Y85.207 E2.07248
G1 X113.377 Y85.2 E2.12974
G1 X128.586 Y85.2 E3.74848
G1 X129.057 Y85.24 E3.79879
G1 X129.515 Y85.359 E3.84915
G1 X129.946 Y85.553 E3.89946
G1 X130.339 Y85.816 E3.94979
G1 X130.681 Y86.142 E4.00007
G1 X130.964 Y86.521 E4.05042
G1 X131.179 Y86.943 E4.10082
G1 X131.32 Y87.394 E4.15112
G1 X131.386 Y88 E4.21599
G1 X131.386 Y89 E4.32243
G1 X131.346 Y89.471 E4.37274
G1 X131.227 Y89.929 E4.4231
G1 X131.033 Y90.36 E4.47341
G1 X130.77 Y90.753 E4.52374
G1 X130.444 Y91.095 E4.57402
G1 X130.065 Y91.378 E4.62437
G1 X129.643 Y91.593 E4.67477
G1 X129.192 Y91.734 E4.72507
G1 X128.586 Y91.8 E4.78995
G1 X113.447 Y91.8 E6.40123
G1 X112.954 Y91.806 E6.4537
G1 X112.542 Y91.821 E6.49758
G1 X112.067 Y91.85 E6.54823
G1 X111.629 Y91.888 E6.59502
G1 X111.181 Y91.938 E6.643
G1 X110.729 Y91.999 E6.69154
G1 X110.314 Y92.066 E6.73629
G1 X109.853 Y92.152 E6.7862
G1 X109.419 Y92.244 E6.83342
G1 X109.024 Y92.337 E6.87661
G1 X108.544 Y92.465 E6.92948
G1 X108.142 Y92.581 E6.97401
G1 X107.701 Y92.721 E7.02326
G1 X107.25 Y92.876 E7.07401
G1 X106.883 Y93.012 E7.11567
G1 X106.446 Y93.186 E7.16573
G1 X106.013 Y93.373 E7.21593
G1 X105.635 Y93.546 E7.26018
G1 X105.255 Y93.731 E7.30516
G1 X104.835 Y93.95 E7.35557
G1 X104.441 Y94.166 E7.40339
G1 X104.042 Y94.399 E7.45257
G1 X103.681 Y94.621 E7.49768
G1 X103.297 Y94.87 E7.54639
G1 X102.91 Y95.137 E7.59643
G1 X102.576 Y95.378 E7.64027
G1 X102.218 Y95.651 E7.68818
G1 X101.886 Y95.917 E7.73346
G1 X101.501 Y96.241 E7.78702
G1 X101.203 Y96.505 E7.82939
G1 X100.856 Y96.827 E7.87977
G1 X100.548 Y97.129 E7.92568
G1 X100.236 Y97.448 E7.97317
G1 X99.921 Y97.787 E8.02243
G1 X99.644 Y98.099 E8.06683
G1 X99.364 Y98.432 E8.11314
G1 X99.057 Y98.814 E8.1653
G1 X98.789 Y99.165 E8.2123
G1 X98.533 Y99.521 E8.25897
G1 X98.28 Y99.89 E8.30659
G1 X98.044 Y100.253 E8.35267
G1 X97.798 Y100.652 E8.40256
G1 X97.573 Y101.039 E8.45021
G1 X97.359 Y101.427 E8.49737
G1 X97.161 Y101.81 E8.54325
G1 X96.963 Y102.214 E8.59114
G1 X96.778 Y102.618 E8.63843
G1 X96.598 Y103.037 E8.68697
G1 X96.444 Y103.423 E8.7312
G1 X96.263 Y103.907 E8.7862
G1 X96.143 Y104.261 E8.82598
G1 X95.996 Y104.722 E8.87748
G1 X95.869 Y105.16 E8.92602
G1 X95.751 Y105.609 E8.97543
G1 X95.661 Y105.99 E9.0171
G1 X95.558 Y106.465 E9.06883
G1 X95.479 Y106.906 E9.11651
G1 X95.416 Y107.294 E9.15835
G1 X95.351 Y107.773 E9.20979
G1 X95.302 Y108.216 E9.25723
G1 X95.264 Y108.656 E9.30424
G1 X95.234 Y109.144 E9.35627
G1 X95.22 Y109.541 E9.39855
G1 X95.214 Y110 E9.44741
G1 X95.22 Y110.46 E9.49637
G1 X95.234 Y110.856 E9.53855
G1 X95.264 Y111.343 E9.59048
G1 X95.303 Y111.791 E9.63834
G1 X95.351 Y112.224 E9.68471
G1 X95.414 Y112.688 E9.73454
G1 X95.483 Y113.115 E9.78058
G1 X95.561 Y113.541 E9.82667
G1 X95.657 Y113.993 E9.87586
G1 X95.751 Y114.395 E9.9198
G1 X95.873 Y114.855 E9.97045
G1 X95.998 Y115.285 E10.01811
G1 X96.132 Y115.706 E10.06513
G1 X96.274 Y116.12 E10.11171
G1 X96.44 Y116.566 E10.16236
G1 X96.598 Y116.963 E10.20784
G1 X96.778 Y117.383 E10.25647
G1 X96.961 Y117.781 E10.3031
G1 X97.142 Y118.153 E10.34713
G1 X97.363 Y118.578 E10.39811
G1 X97.582 Y118.978 E10.44665
G1 X97.784 Y119.325 E10.48938
G1 X98.047 Y119.751 E10.54267
G1 X98.287 Y120.121 E10.58961
G1 X98.514 Y120.452 E10.63232
G1 X98.804 Y120.854 E10.68508
G1 X99.049 Y121.176 E10.72814
G1 X99.364 Y121.568 E10.78167
G1 X99.618 Y121.872 E10.82383
G1 X99.941 Y122.235 E10.87555
G1 X100.236 Y122.553 E10.92171
G1 X100.523 Y122.847 E10.96544
G1 X100.882 Y123.198 E11.01888
G1 X101.182 Y123.478 E11.06255
G1 X101.538 Y123.791 E11.11301
G1 X101.861 Y124.064 E11.15802
G1 X102.209 Y124.341 E11.20536
G1 X102.561 Y124.609 E11.25244
G1 X102.946 Y124.888 E11.30305
G1 X103.315 Y125.141 E11.35067
G1 X103.666 Y125.369 E11.39522
G1 X104.065 Y125.615 E11.4451
G1 X104.45 Y125.839 E11.49251
G1 X104.805 Y126.035 E11.53567
G1 X105.26 Y126.271 E11.59023
G1 X105.622 Y126.449 E11.63316
G1 X106.013 Y126.627 E11.67888
G1 X106.45 Y126.816 E11.72956
G1 X106.889 Y126.993 E11.77994
G1 X107.272 Y127.132 E11.8233
G1 X107.687 Y127.275 E11.87002
G1 X108.131 Y127.415 E11.91957
G1 X108.569 Y127.542 E11.96811
G1 X109.006 Y127.658 E12.01623
G1 X109.459 Y127.768 E12.06584
G1 X109.853 Y127.849 E12.10866
G1 X110.312 Y127.934 E12.15834
G1 X110.719 Y127.999 E12.20221
G1 X111.186 Y128.063 E12.25237
G1 X111.632 Y128.112 E12.30013
G1 X112.064 Y128.149 E12.34628
G1 X112.542 Y128.179 E12.39725
G1 X112.954 Y128.194 E12.44113
G1 X113.447 Y128.2 E12.4936
G1 X128.586 Y128.2 E14.10489
G1 X129.057 Y128.24 E14.1552
G1 X129.515 Y128.359 E14.20556
G1 X129.946 Y128.553 E14.25587
G1 X130.339 Y128.816 E14.3062
G1 X130.681 Y129.142 E14.35648
G1 X130.964 Y129.521 E14.40683
G1 X131.179 Y129.943 E14.45723
G1 X131.32 Y130.394 E14.50753
G1 X131.386 Y131 E14.5724
G1 X131.386 Y132 E14.67884
G1 X131.346 Y132.471 E14.72915
G1 X131.227 Y132.929 E14.77951
G1 X131.033 Y133.36 E14.82982
G1 X130.77 Y133.753 E14.88015
G1 X130.444 Y134.095 E14.93043
G1 X130.065 Y134.378 E14.98078
G1 X129.643 Y134.593 E15.03119
G1 X129.192 Y134.734 E15.08148
G1 X128.586 Y134.8 E15.14636
G1 X113.378 Y134.8 E16.76498
G1 X112.77 Y134.791 E16.8297
G1 X112.163 Y134.768 E16.89435
G1 X111.556 Y134.73 E16.95908
G1 X110.946 Y134.677 E17.02425
G1 X110.348 Y134.609 E17.08831
G1 X109.739 Y134.526 E17.15372
G1 X109.142 Y134.429 E17.2181
G1 X108.541 Y134.316 E17.28318
G1 X107.956 Y134.191 E17.34685
G1 X107.348 Y134.048 E17.41333
G1 X106.767 Y133.893 E17.47733
G1 X106.182 Y133.722 E17.5422
G1 X105.604 Y133.538 E17.60676
G1 X105.027 Y133.339 E17.67172
G1 X104.453 Y133.125 E17.73692
G1 X103.952 Y132.924 E17.79437
G1 X103.329 Y132.657 E17.86651
G1 X102.782 Y132.405 E17.93061
G1 X102.297 Y132.169 E17.98802
G1 X101.694 Y131.856 E18.06033
G1 X101.161 Y131.562 E18.12511
G1 X100.633 Y131.253 E18.19023
G1 X100.118 Y130.935 E18.25465
G1 X99.605 Y130.6 E18.31986
G1 X99.11 Y130.259 E18.38383
G1 X98.605 Y129.894 E18.45015
G1 X98.13 Y129.529 E18.51391
G1 X97.656 Y129.149 E18.57857
G1 X97.19 Y128.756 E18.64345
G1 X96.731 Y128.349 E18.70874
G1 X96.291 Y127.939 E18.77275
G1 X95.904 Y127.562 E18.83025
G1 X95.426 Y127.072 E18.90311
G1 X95.019 Y126.631 E18.96698
G1 X94.611 Y126.17 E19.0325
G1 X94.222 Y125.706 E19.09694
G1 X93.843 Y125.231 E19.16162
G1 X93.474 Y124.745 E19.22657
G1 X93.117 Y124.249 E19.29161
G1 X92.779 Y123.755 E19.35532
G1 X92.441 Y123.235 E19.42133
G1 X92.127 Y122.723 E19.48525
G1 X91.82 Y122.197 E19.55007
G1 X91.523 Y121.656 E19.61576
G1 X91.247 Y121.12 E19.67992
G1 X91.01 Y120.635 E19.73738
G1 X90.728 Y120.02 E19.80939
G1 X90.515 Y119.524 E19.86684
G1 X90.263 Y118.893 E19.93916
G1 X90.053 Y118.324 E20.00371
G1 X89.855 Y117.746 E20.06874
G1 X89.671 Y117.165 E20.1336
G1 X89.521 Y116.647 E20.191
G1 X89.348 Y115.99 E20.26331
G1 X89.21 Y115.401 E20.32769
G1 X89.084 Y114.805 E20.39253
G1 X88.985 Y114.274 E20.45002
G1 X88.878 Y113.606 E20.52202
G1 X88.796 Y112.999 E20.58721
G1 X88.731 Y112.399 E20.65145
G1 X88.678 Y111.788 E20.71672
G1 X88.642 Y111.183 E20.78123
G1 X88.62 Y110.571 E20.8464
G1 X88.614 Y109.969 E20.91048
G1 X88.622 Y109.356 E20.97573
G1 X88.645 Y108.75 E21.04027
G1 X88.684 Y108.138 E21.10554
G1 X88.737 Y107.538 E21.16965
G1 X88.805 Y106.93 E21.23476
G1 X88.888 Y106.326 E21.29965
G1 X88.986 Y105.725 E21.36446
G1 X89.097 Y105.134 E21.42847
G1 X89.224 Y104.534 E21.49374
G1 X89.366 Y103.936 E21.55916
G1 X89.521 Y103.353 E21.62336
G1 X89.692 Y102.768 E21.68823
G1 X89.876 Y102.19 E21.75279
G1 X90.075 Y101.613 E21.81775
G1 X90.288 Y101.044 E21.88242
G1 X90.515 Y100.476 E21.94752
G1 X90.728 Y99.98 E22.00497
G1 X91.01 Y99.365 E22.07698
G1 X91.275 Y98.824 E22.1411
G1 X91.557 Y98.28 E22.20631
G1 X91.855 Y97.741 E22.27186
G1 X92.159 Y97.223 E22.33579
G1 X92.482 Y96.7 E22.40121
G1 X92.811 Y96.197 E22.46518
G1 X93.158 Y95.691 E22.53049
G1 X93.514 Y95.2 E22.59503
G1 X93.841 Y94.77 E22.65253
G1 X94.264 Y94.242 E22.72454
G1 X94.659 Y93.773 E22.7898
G1 X95.059 Y93.323 E22.85388
G1 X95.479 Y92.871 E22.91955
G0 F6000 X96.051 Y93.431
G1 F1200 X96.461 Y93.013 E22.98187
G1 X96.881 Y92.604 E23.04426
G1 X97.314 Y92.201 E23.10722
G1 X97.757 Y91.81 E23.17011
G1 X98.207 Y91.433 E23.23259
G1 X98.667 Y91.065 E23.29529
G1 X99.138 Y90.707 E23.35825
G1 X99.615 Y90.363 E23.42085
G1 X100.098 Y90.033 E23.48311
G1 X100.595 Y89.71 E23.54619
G1 X101.096 Y89.402 E23.60879
G1 X101.608 Y89.105 E23.67178
G1 X102.118 Y88.825 E23.73371
G1 X102.645 Y88.551 E23.79693
G1 X103.173 Y88.294 E23.85943
G1 X103.713 Y88.047 E23.92263
G1 X104.25 Y87.819 E23.98472
G1 X104.799 Y87.599 E24.04767
G1 X105.351 Y87.395 E24.1103
G1 X105.909 Y87.203 E24.17311
G1 X106.472 Y87.026 E24.23592
G1 X107.036 Y86.863 E24.29841
G1 X107.612 Y86.712 E24.36178
G1 X108.175 Y86.58 E24.42333
G1 X108.755 Y86.457 E24.48643
G1 X109.334 Y86.35 E24.5491
G1 X109.919 Y86.256 E24.61216
G1 X110.499 Y86.178 E24.67445
G1 X111.087 Y86.113 E24.73741
G1 X111.673 Y86.064 E24.8
G1 X112.261 Y86.028 E24.8627
G1 X112.849 Y86.007 E24.92532
G1 X113.387 Y86 E24.98259
G1 X128.586 Y86 E26.60025
G1 X128.984 Y86.04 E26.64283
G1 X129.365 Y86.158 E26.68528
G1 X129.716 Y86.35 E26.72786
G1 X130.021 Y86.607 E26.77031
G1 X130.269 Y86.92 E26.81281
G1 X130.45 Y87.276 E26.85532
G1 X130.557 Y87.661 E26.89785
G1 X130.586 Y88 E26.93406
G1 X130.586 Y89 E27.04049
G1 X130.546 Y89.398 E27.08306
G1 X130.428 Y89.779 E27.12552
G1 X130.236 Y90.13 E27.1681
G1 X129.979 Y90.435 E27.21055
G1 X129.666 Y90.683 E27.25305
G1 X129.31 Y90.864 E27.29556
G1 X128.925 Y90.971 E27.33809
G1 X128.586 Y91 E27.3743
G1 X113.437 Y91 E28.98664
G1 X112.956 Y91.006 E29.03784
G1 X112.461 Y91.024 E29.09056
G1 X112.037 Y91.05 E29.13577
G1 X111.553 Y91.092 E29.18748
G1 X111.066 Y91.146 E29.23963
G1 X110.614 Y91.207 E29.28817
G1 X110.165 Y91.279 E29.33657
G1 X109.733 Y91.36 E29.38335
G1 X109.228 Y91.467 E29.43829
G1 X108.819 Y91.564 E29.48303
G1 X108.327 Y91.695 E29.53722
G1 X107.899 Y91.818 E29.58462
G1 X107.452 Y91.96 E29.63454
G1 X107.002 Y92.115 E29.68519
G1 X106.597 Y92.265 E29.73116
G1 X106.118 Y92.456 E29.78604
G1 X105.734 Y92.622 E29.83057
G1 X105.265 Y92.836 E29.88544
G1 X104.894 Y93.017 E29.92937
G1 X104.478 Y93.233 E29.97926
G1 X104.027 Y93.481 E30.03404
G1 X103.652 Y93.7 E30.08026
G1 X103.268 Y93.936 E30.12823
G1 X102.835 Y94.217 E30.18317
G1 X102.456 Y94.478 E30.23215
G1 X102.116 Y94.723 E30.27675
G1 X101.707 Y95.035 E30.3315
G1 X101.38 Y95.296 E30.37603
G1 X101.003 Y95.614 E30.42852
G1 X100.673 Y95.906 E30.47542
G1 X100.319 Y96.235 E30.52686
G1 X99.982 Y96.565 E30.57706
G1 X99.637 Y96.918 E30.62959
G1 X99.342 Y97.235 E30.67568
G1 X99.009 Y97.611 E30.72914
G1 X98.74 Y97.931 E30.77363
G1 X98.432 Y98.314 E30.82594
G1 X98.167 Y98.662 E30.8725
G1 X97.866 Y99.079 E30.92723
G1 X97.615 Y99.445 E30.97447
G1 X97.375 Y99.814 E31.02132
G1 X97.115 Y100.236 E31.07407
G1 X96.871 Y100.656 E31.12577
G1 X96.657 Y101.046 E31.17312
G1 X96.431 Y101.48 E31.2252
G1 X96.248 Y101.854 E31.26951
G1 X96.033 Y102.323 E31.32442
G1 X95.869 Y102.706 E31.36877
G1 X95.694 Y103.143 E31.41887
G1 X95.523 Y103.599 E31.4707
G1 X95.38 Y104.019 E31.51792
G1 X95.224 Y104.51 E31.57276
G1 X95.103 Y104.928 E31.61907
G1 X94.983 Y105.382 E31.66905
G1 X94.879 Y105.821 E31.71707
G1 X94.771 Y106.323 E31.77172
G1 X94.698 Y106.728 E31.81552
G1 X94.616 Y107.237 E31.87039
G1 X94.56 Y107.651 E31.91486
G1 X94.506 Y108.135 E31.96669
G1 X94.464 Y108.626 E32.01914
G1 X94.438 Y109.045 E32.06382
G1 X94.419 Y109.559 E32.11856
G1 X94.414 Y110 E32.1655
G1 X94.419 Y110.442 E32.21255
G1 X94.438 Y110.952 E32.26687
G1 X94.464 Y111.374 E32.31187
G1 X94.507 Y111.869 E32.36475
G1 X94.558 Y112.33 E32.41411
G1 X94.622 Y112.804 E32.46502
G1 X94.69 Y113.225 E32.51041
G1 X94.784 Y113.733 E32.5654
G1 X94.871 Y114.145 E32.61021
G1 X94.97 Y114.568 E32.65645
G1 X95.105 Y115.079 E32.7127
G1 X95.238 Y115.535 E32.76326
G1 X95.366 Y115.939 E32.80836
G1 X95.526 Y116.406 E32.8609
G1 X95.687 Y116.838 E32.90997
G1 X95.865 Y117.285 E32.96118
G1 X96.032 Y117.675 E33.00634
G1 X96.228 Y118.102 E33.05634
G1 X96.449 Y118.555 E33.10999
G1 X96.646 Y118.935 E33.15554
G1 X96.893 Y119.384 E33.21008
G1 X97.103 Y119.745 E33.25453
G1 X97.349 Y120.144 E33.30442
G1 X97.63 Y120.576 E33.35927
G1 X97.883 Y120.946 E33.40698
G1 X98.138 Y121.299 E33.45333
G1 X98.437 Y121.691 E33.5058
G1 X98.714 Y122.037 E33.55297
G1 X99.039 Y122.425 E33.60684
G1 X99.318 Y122.74 E33.65163
G1 X99.637 Y123.083 E33.70148
G1 X99.982 Y123.436 E33.75402
G1 X100.322 Y123.769 E33.80467
G1 X100.655 Y124.08 E33.85316
G1 X101.014 Y124.396 E33.90407
G1 X101.351 Y124.68 E33.95097
G1 X101.725 Y124.978 E34.00187
G1 X102.106 Y125.269 E34.0529
G1 X102.454 Y125.52 E34.09856
G1 X102.87 Y125.805 E34.15223
G1 X103.227 Y126.038 E34.19761
G1 X103.649 Y126.298 E34.25036
G1 X104.053 Y126.533 E34.3001
G1 X104.462 Y126.759 E34.34984
G1 X104.88 Y126.976 E34.39997
G1 X105.295 Y127.179 E34.44914
G1 X105.712 Y127.369 E34.49791
G1 X106.125 Y127.547 E34.54577
G1 X106.613 Y127.744 E34.60179
G1 X106.991 Y127.881 E34.64458
G1 X107.461 Y128.043 E34.69749
G1 X107.907 Y128.184 E34.74727
G1 X108.355 Y128.314 E34.79692
G1 X108.797 Y128.431 E34.84559
G1 X109.261 Y128.543 E34.89639
G1 X109.721 Y128.638 E34.94638
G1 X110.142 Y128.716 E34.99195
G1 X110.642 Y128.797 E35.04586
G1 X111.079 Y128.856 E35.09279
G1 X111.551 Y128.908 E35.14333
G1 X112.032 Y128.949 E35.19471
G1 X112.464 Y128.976 E35.24078
G1 X112.956 Y128.994 E35.29318
G1 X113.437 Y129 E35.34438
G1 X128.586 Y129 E36.95672
G1 X128.984 Y129.04 E36.9993
G1 X129.365 Y129.158 E37.04175
G1 X129.716 Y129.35 E37.08433
G1 X130.021 Y129.607 E37.12678
G1 X130.269 Y129.92 E37.16928
G1 X130.45 Y130.276 E37.21179
G1 X130.557 Y130.661 E37.25432
G1 X130.586 Y131 E37.29053
G1 X130.586 Y132 E37.39696
G1 X130.546 Y132.398 E37.43954
G1 X130.428 Y132.779 E37.48199
G1 X130.236 Y133.13 E37.52457
G1 X129.979 Y133.435 E37.56702
G1 X129.666 Y133.683 E37.60952
G1 X129.31 Y133.864 E37.65203
G1 X128.925 Y133.971 E37.69456
G1 X128.586 Y134 E37.73077
G1 X113.388 Y134 E39.34833
G1 X112.8 Y133.992 E39.41092
G1 X112.212 Y133.969 E39.47355
G1 X111.625 Y133.933 E39.53614
G1 X111.035 Y133.882 E39.59917
G1 X110.454 Y133.816 E39.66141
G1 X109.867 Y133.736 E39.72446
G1 X109.288 Y133.642 E39.78689
G1 X108.707 Y133.533 E39.84981
G1 X108.139 Y133.412 E39.91162
G1 X107.553 Y133.275 E39.97567
G1 X106.99 Y133.124 E40.03771
G1 X106.423 Y132.959 E40.10056
G1 X105.864 Y132.781 E40.163
G1 X105.305 Y132.589 E40.2259
G1 X104.751 Y132.382 E40.28885
G1 X104.208 Y132.164 E40.35113
