; HEADER_BLOCK_START
; BambuStudio 01.03.00.25
; total estimated time: 1h 53m 50s
; HEADER_BLOCK_END

; CONFIG_BLOCK_START
; adaptive_layer_height = 0
; additional_cooling_fan_speed = 0,0,0,0
; auxiliary_fan = 1
; bed_exclude_area = 0x0,18x0,18x28,0x28
; bed_temperature_difference = 10,10,10,10
; before_layer_change_gcode = 
; bottom_shell_layers = 3
; bottom_shell_thickness = 0
; bottom_surface_pattern = monotonic
; bridge_flow = 1
; bridge_no_support = 0
; bridge_speed = 50
; brim_object_gap = 0.1
; brim_type = auto_brim
; brim_width = 5
; change_filament_gcode = M620 S[next_extruder]A
M204 S9000
{if toolchange_count > 1}
G17
G2 Z{max_layer_z + 0.4} I0.86 J0.86 P1 F10000 ; spiral lift a little from second lift
{endif}
G1 Z{max_layer_z + 3.0} F1200

G1 X70 F12000
G1 Y245
G1 Y265 F3000
M400
M106 P1 S0
{if old_filament_temp > 0 && next_extruder < 255}M109 S[old_filament_temp]{endif}
G1 X90 F3000
G1 Y250 F4000
G1 X100 F5000
G1 X120 F12000

G1 X20 Y50 F12000
G1 Y-3

T[next_extruder]

; always use highest temperature to flush
M400
M109 S[nozzle_temperature_range_high]

{if next_extruder < 255}
G1 X54  F12000
G1 Y265

M400

G92 E0
{if flush_length_1 > 1}
; FLUSH_START
{if flush_length_1 > 23.7}
G1 E23.7 F{old_filament_e_feedrate} ; do not need pulsatile flushing for start part
G1 E{(flush_length_1 - 23.7) * 0.02} F50
G1 E{(flush_length_1 - 23.7) * 0.23} F{old_filament_e_feedrate}
G1 E{(flush_length_1 - 23.7) * 0.02} F50
G1 E{(flush_length_1 - 23.7) * 0.23} F{new_filament_e_feedrate}
G1 E{(flush_length_1 - 23.7) * 0.02} F50
G1 E{(flush_length_1 - 23.7) * 0.23} F{new_filament_e_feedrate}
G1 E{(flush_length_1 - 23.7) * 0.02} F50
G1 E{(flush_length_1 - 23.7) * 0.23} F{new_filament_e_feedrate}
{else}
G1 E{flush_length_1} F{old_filament_e_feedrate}
{endif}
; FLUSH_END
G1 E-[old_retract_length_toolchange] F1800
G1 E[old_retract_length_toolchange] F300
{endif}

{if flush_length_2 > 1}
; FLUSH_START
G1 E{flush_length_2 * 0.18} F{new_filament_e_feedrate}
G1 E{flush_length_2 * 0.02} F50
G1 E{flush_length_2 * 0.18} F{new_filament_e_feedrate}
G1 E{flush_length_2 * 0.02} F50
G1 E{flush_length_2 * 0.18} F{new_filament_e_feedrate}
G1 E{flush_length_2 * 0.02} F50
G1 E{flush_length_2 * 0.18} F{new_filament_e_feedrate}
G1 E{flush_length_2 * 0.02} F50
G1 E{flush_length_2 * 0.18} F{new_filament_e_feedrate}
G1 E{flush_length_2 * 0.02} F50
; FLUSH_END
G1 E-[new_retract_length_toolchange] F1800
G1 E[new_retract_length_toolchange] F300
{endif}

{if flush_length_3 > 1}
; FLUSH_START
G1 E{flush_length_3 * 0.18} F{new_filament_e_feedrate}
G1 E{flush_length_3 * 0.02} F50
G1 E{flush_length_3 * 0.18} F{new_filament_e_feedrate}
G1 E{flush_length_3 * 0.02} F50
G1 E{flush_length_3 * 0.18} F{new_filament_e_feedrate}
G1 E{flush_length_3 * 0.02} F50
G1 E{flush_length_3 * 0.18} F{new_filament_e_feedrate}
G1 E{flush_length_3 * 0.02} F50
G1 E{flush_length_3 * 0.18} F{new_filament_e_feedrate}
G1 E{flush_length_3 * 0.02} F50
; FLUSH_END
G1 E-[new_retract_length_toolchange] F1800
G1 E[new_retract_length_toolchange] F300
{endif}

{if flush_length_4 > 1}
; FLUSH_START
G1 E{flush_length_4 * 0.18} F{new_filament_e_feedrate}
G1 E{flush_length_4 * 0.02} F50
G1 E{flush_length_4 * 0.18} F{new_filament_e_feedrate}
G1 E{flush_length_4 * 0.02} F50
G1 E{flush_length_4 * 0.18} F{new_filament_e_feedrate}
G1 E{flush_length_4 * 0.02} F50
G1 E{flush_length_4 * 0.18} F{new_filament_e_feedrate}
G1 E{flush_length_4 * 0.02} F50
G1 E{flush_length_4 * 0.18} F{new_filament_e_feedrate}
G1 E{flush_length_4 * 0.02} F50
; FLUSH_END
{endif}

M400
M109 S[new_filament_temp]

M400
M106 P1 S255
M400 S3
G1 X80 F15000
G1 X60 F15000
G1 X80 F15000
G1 X60 F15000; shake to put down garbage

G92 E0
G1 E-[new_retract_length_toolchange] F1800

G1 X70 F5000
G1 X90 F3000
G1 Y255 F4000
G1 X100 F5000
G1 Y265 F5000
G1 X70 F10000
G1 X100 F5000
G1 X70 F10000
G1 X100 F5000
G1 X165 F15000; wipe and shake
G1 Y256 ; move Y to aside, prevent collision
M400
G1 Z[z_after_toolchange] F3000
{if layer_z <= (initial_layer_print_height + 0.001)}
M204 S[initial_layer_acceleration]
{else}
M204 S[default_acceleration]
{endif}
{else}
G1 X[x_after_toolchange] Y[y_after_toolchange] Z[z_after_toolchange] F12000
{endif}
M621 S[next_extruder]A
; close_fan_the_first_x_layers = 3,3,3,3
; cool_plate_temp = 60,60,60,60
; cool_plate_temp_initial_layer = 60,60,60,60
; curr_bed_type = Cool Plate
; default_acceleration = 10000
; default_filament_profile = "Bambu PLA Basic @BBL X1C"
; default_print_profile = 0.20mm Standard @BBL X1C
; deretraction_speed = 30
; detect_narrow_internal_solid_infill = 1
; detect_overhang_wall = 1
; detect_thin_wall = 0
; different_settings_to_system = sparse_infill_pattern;;;;;
; draft_shield = disabled
; elefant_foot_compensation = 0
; enable_arc_fitting = 1
; enable_overhang_bridge_fan = 1,1,1,1
; enable_overhang_speed = 1
; enable_prime_tower = 1
; enable_support = 0
; enforce_support_layers = 0
; eng_plate_temp = 0,0,0,0
; eng_plate_temp_initial_layer = 0,0,0,0
; extruder_clearance_height_to_lid = 90
; extruder_clearance_height_to_rod = 36
; extruder_clearance_max_radius = 68
; extruder_clearance_radius = 57
; extruder_colour = #018001
; extruder_offset = 0x2
; fan_cooling_layer_time = 30,30,30,30
; fan_max_speed = 90,90,90,90
; fan_min_speed = 40,40,40,40
; filament_colour = #009D1E;#777974;#000000;#FF0000
; filament_cost = 30,30,30,30
; filament_density = 1.27,1.27,1.27,1.27
; filament_diameter = 1.75,1.75,1.75,1.75
; filament_end_gcode = "; filament end gcode 
;M106 P3 S0
";"; filament end gcode 
;M106 P3 S0
";"; filament end gcode 
;M106 P3 S0
";"; filament end gcode 
;M106 P3 S0
"
; filament_flow_ratio = 0.95,0.95,0.95,0.95
; filament_ids = GFG99;GFG99;GFG99;GFG99
; filament_is_support = 0,0,0,0
; filament_max_volumetric_speed = 10,10,10,10
; filament_minimal_purge_on_wipe_tower = 15,15,15,15
; filament_settings_id = "Generic PETG";"Generic PETG";"Generic PETG";"Generic PETG"
; filament_soluble = 0,0,0,0
; filament_start_gcode = " ; filament start gcode
{if (bed_temperature[current_extruder] >60)||(bed_temperature_initial_layer[current_extruder] >60)}M106 P3 S255
{elsif (bed_temperature[current_extruder] >45)||(bed_temperature_initial_layer[current_extruder] >45)}M106 P3 S180
{endif}";" ; filament start gcode
{if (bed_temperature[current_extruder] >60)||(bed_temperature_initial_layer[current_extruder] >60)}M106 P3 S255
{elsif (bed_temperature[current_extruder] >45)||(bed_temperature_initial_layer[current_extruder] >45)}M106 P3 S180
{endif}";" ; filament start gcode
{if (bed_temperature[current_extruder] >60)||(bed_temperature_initial_layer[current_extruder] >60)}M106 P3 S255
{elsif (bed_temperature[current_extruder] >45)||(bed_temperature_initial_layer[current_extruder] >45)}M106 P3 S180
{endif}";" ; filament start gcode
{if (bed_temperature[current_extruder] >60)||(bed_temperature_initial_layer[current_extruder] >60)}M106 P3 S255
{elsif (bed_temperature[current_extruder] >45)||(bed_temperature_initial_layer[current_extruder] >45)}M106 P3 S180
{endif}"
; filament_type = PETG;PETG;PETG;PETG
; filament_vendor = Generic;Generic;Generic;Generic
; filename_format = {input_filename_base}_{filament_type[0]}_{print_time}.gcode
; flush_into_infill = 0
; flush_into_objects = 0
; flush_into_support = 1
; flush_multiplier = 1
; flush_volumes_matrix = 0,280,280,280,280,0,280,280,280,280,0,280,280,280,280,0
; flush_volumes_vector = 140,140,140,140,140,140,140,140
; full_fan_speed_layer = 0,0,0,0
; fuzzy_skin = none
; fuzzy_skin_point_distance = 0.8
; fuzzy_skin_thickness = 0.3
; gap_infill_speed = 250
; gcode_add_line_number = 0
; gcode_flavor = marlin
; host_type = octoprint
; hot_plate_temp = 70,70,70,70
; hot_plate_temp_initial_layer = 70,70,70,70
; independent_support_layer_height = 0
; infill_combination = 0
; infill_direction = 45
; infill_wall_overlap = 25%
; initial_layer_acceleration = 500
; initial_layer_infill_speed = 105
; initial_layer_line_width = 0.5
; initial_layer_print_height = 0.2
; initial_layer_speed = 50
; inner_wall_line_width = 0.45
; inner_wall_speed = 300
; interface_shells = 0
; internal_solid_infill_line_width = 0.42
; internal_solid_infill_speed = 250
; ironing_flow = 10%
; ironing_spacing = 0.15
; ironing_speed = 30
; ironing_type = no ironing
; layer_change_gcode = {if timelapse_type == 1} ; timelapse with wipe tower
G92 E0
G1 E-[retraction_length] F1800
G1 X65 Y245 F12000 ; move to safe pos
G1 Y265 F3000
M400 P100
M971 S11 C10 O0
G92 E0
G1 E[retraction_length] F300
G1 X100 F5000
G1 Y255
{elsif timelapse_type == 2} ; timelapse without wipe tower
M971 S11 C10 O0
{endif}
; layer_height = 0.2
; line_width = 0.42
; machine_end_gcode = ;===== date: 202200913 =====================
M400 ; wait for buffer to clear
G92 E0 ; zero the extruder
G1 E-0.8 F1800 ; retract
G1 Z{max_layer_z + 0.5} F900 ; lower z a little
G1 X65 Y245 F12000 ; move to safe pos 
G1 Y265 F3000

G1 X65 Y245 F12000
G1 Y265 F3000
M140 S0 ; turn off bed
M106 S0 ; turn off fan
M106 P2 S0 ; turn off remote part cooling fan
M106 P3 S0 ; turn off chamber cooling fan

G1 X100 F12000 ; wipe
; pull back filament to AMS
M620 S255
G1 X20 Y50 F12000
G1 Y-3
T255
G1 X65 F12000
G1 Y265
G1 X100 F12000 ; wipe
M621 S255
M104 S0 ; turn off hotend

M400 ; wait all motion done
M17 S
M17 Z0.4 ; lower z motor current to reduce impact if there is something in the bottom
{if (max_layer_z + 100.0) < 250}
    G1 Z{max_layer_z + 100.0} F600
    G1 Z{max_layer_z +98.0}
{else}
    G1 Z250 F600
    G1 Z248
{endif}
M400 P100
M17 R ; restore z current

G90
G1 X128 Y250 F3600

M220 S100  ; Reset feedrate magnitude
M201.2 K1.0 ; Reset acc magnitude
M73.2   R1.0 ;Reset left time magnitude
M1002 set_gcode_claim_speed_level : 0

M17 X0.8 Y0.8 Z0.5 ; lower motor current to 45% power


; machine_load_filament_time = 17
; machine_max_acceleration_e = 5000,5000
; machine_max_acceleration_extruding = 20000,20000
; machine_max_acceleration_retracting = 5000,5000
; machine_max_acceleration_travel = 9000,9000
; machine_max_acceleration_x = 20000,20000
; machine_max_acceleration_y = 20000,20000
; machine_max_acceleration_z = 500,200
; machine_max_jerk_e = 2.5,2.5
; machine_max_jerk_x = 9,9
; machine_max_jerk_y = 9,9
; machine_max_jerk_z = 0.2,0.4
; machine_max_speed_e = 30,30
; machine_max_speed_x = 500,200
; machine_max_speed_y = 500,200
; machine_max_speed_z = 20,20
; machine_min_extruding_rate = 0,0
; machine_min_travel_rate = 0,0
; machine_pause_gcode = M400 U1

; machine_start_gcode = ;===== machine: X1 =========================
;===== date: 202200929 =====================
;===== reset machine status =================
G91
M17 Z0.4 ; lower the z-motor current
G0 Z12 F300 ; lower the hotbed , to prevent the nozzle is below the hotbed
G0 Z-6;
G90
M17 X1.2 Y1.2 Z0.75 ; reset motor current to default
M960 S5 P1 ; turn on logo lamp
G90
M220 S100 ;Reset Feedrate
M221 S100 ;Reset Flowrate
M73.2   R1.0 ;Reset left time magnitude
M1002 set_gcode_claim_speed_level : 5
M221 X0 Y0 Z0 ; turn off soft endstop to prevent protential logic problem

;===== heatbed preheat ====================
M1002 gcode_claim_action : 2
{if bbl_bed_temperature_gcode}
M1002 set_heatbed_surface_temp:[bed_temperature_initial_layer_vector] ;config bed temps
M140 A S[bed_temperature_initial_layer_single] ;set bed temp
M190 A S[bed_temperature_initial_layer_single] ;wait for bed temp
{else}
M140 S[bed_temperature_initial_layer_single] ;set bed temp
M190 S[bed_temperature_initial_layer_single] ;wait for bed temp
{endif}

{if scan_first_layer}
;=========register first layer scan=====
M977 S1 P60
{endif}

=============turn on fans to prevent PLA jamming=================
{if filament_type[initial_tool]=="PLA"}
    {if (bed_temperature[current_extruder] >45)||(bed_temperature_initial_layer[current_extruder] >45)}
    M106 P3 S180
    {elsif (bed_temperature[current_extruder] >50)||(bed_temperature_initial_layer[current_extruder] >50)}
    M106 P3 S255
    {endif};Prevent PLA from jamming
{endif}
M106 P2 S100 ; turn on big fan ,to cool down toolhead

;===== prepare print temperature and material ==========
M104 S[nozzle_temperature_initial_layer] ;set extruder temp
G91
G0 Z10 F1200
G90
G28 X
M975 S1 ; turn on 
G1 X60 F12000
G1 Y245
G1 Y265 F3000
M620 M
M620 S[initial_tool]A   ; switch material if AMS exist
    M109 S[nozzle_temperature_initial_layer]
    G1 X120 F12000

    G1 X20 Y50 F12000
    G1 Y-3
    T[initial_tool]
    G1 X54 F12000
    G1 Y265
    M400
M621 S[initial_tool]A

M412 S1 ; ===turn on filament runout detection===

M109 S250 ;set nozzle to common flush temp
M106 P1 S0
G92 E0
G1 E50 F200
M400
M104 S[nozzle_temperature_initial_layer]
G92 E0
G1 E50 F200
M400
M106 P1 S255
G92 E0
G1 E5 F300
M109 S{nozzle_temperature_initial_layer[initial_extruder]-20} ; drop nozzle temp, make filament shink a bit
G92 E0
G1 E-0.5 F300

G1 X70 F9000
G1 X76 F15000
G1 X65 F15000
G1 X76 F15000
G1 X65 F15000; shake to put down garbage
G1 X80 F6000
G1 X95 F15000
G1 X80 F15000
G1 X165 F15000; wipe and shake
M400
M106 P1 S0
;===== prepare print temperature and material end =====


;===== wipe nozzle ===============================
M1002 gcode_claim_action : 14
M975 S1
M106 S255
G1 X65 Y230 F18000
G1 Y264 F6000
M109 S{nozzle_temperature_initial_layer[initial_extruder]-20}
G1 X100 F18000 ; first wipe mouth

G0 X135 Y253 F20000  ; move to exposed steel surface edge
G28 Z P0 T300; home z with low precision,permit 300deg temperature
G29.2 S0 ; turn off ABL
G0 Z5 F20000

G1 X60 Y265
G92 E0
G1 E-0.5 F300 ; retrack more
G1 X100 F5000; second wipe mouth
G1 X70 F15000
G1 X100 F5000
G1 X70 F15000
G1 X100 F5000
G1 X70 F15000
G1 X100 F5000
G1 X70 F15000
G1 X90 F5000
G0 X128 Y261 Z-1.5 F20000  ; move to exposed steel surface and stop the nozzle
M104 S140 ; set temp down to heatbed acceptable
M106 S255 ; turn on fan (G28 has turn off fan)

M221 S; push soft endstop status
M221 Z0 ;turn off Z axis endstop
G0 Z0.5 F20000
G0 X125 Y259.5 Z-1.01
G0 X131 F211
G0 X124
G0 Z0.5 F20000
G0 X125 Y262.5
G0 Z-1.01
G0 X131 F211
G0 X124
G0 Z0.5 F20000
G0 X125 Y260.0
G0 Z-1.01
G0 X131 F211
G0 X124
G0 Z0.5 F20000
G0 X125 Y262.0
G0 Z-1.01
G0 X131 F211
G0 X124
G0 Z0.5 F20000
G0 X125 Y260.5
G0 Z-1.01
G0 X131 F211
G0 X124
G0 Z0.5 F20000
G0 X125 Y261.5
G0 Z-1.01
G0 X131 F211
G0 X124
G0 Z0.5 F20000
G0 X125 Y261.0
G0 Z-1.01
G0 X131 F211
G0 X124
G0 X128
G2 I0.5 J0 F300
G2 I0.5 J0 F300
G2 I0.5 J0 F300
G2 I0.5 J0 F300

M109 S140 ; wait nozzle temp down to heatbed acceptable
G2 I0.5 J0 F3000
G2 I0.5 J0 F3000
G2 I0.5 J0 F3000
G2 I0.5 J0 F3000

M221 R; pop softend status
G1 Z10 F1200
M400
G1 Z10
G1 F30000
G1 X230 Y15
G29.2 S1 ; turn on ABL
;G28 ; home again after hard wipe mouth
M106 S0 ; turn off fan , too noisy
;===== wipe nozzle end ================================


;===== bed leveling ==================================
M1002 judge_flag g29_before_print_flag
M622 J1

    M1002 gcode_claim_action : 1
    G29 A X{first_layer_print_min[0]} Y{first_layer_print_min[1]} I{first_layer_print_size[0]} J{first_layer_print_size[1]}
    M400
    M500 ; save cali data

M623
;===== bed leveling end ================================

;===== home after wipe mouth============================
M1002 judge_flag g29_before_print_flag
M622 J0

    M1002 gcode_claim_action : 13
    G28

M623
;===== home after wipe mouth end =======================

M975 S1 ; turn on vibration supression

;===== check scanner clarity ===========================
M972 S5 P0  
M400 S1
;===== check scanner clarity end =======================

=============turn on fans to prevent PLA jamming=================
{if filament_type[initial_tool]=="PLA"}
    {if (bed_temperature[current_extruder] >45)||(bed_temperature_initial_layer[current_extruder] >45)}
    M106 P3 S180
    {elsif (bed_temperature[current_extruder] >50)||(bed_temperature_initial_layer[current_extruder] >50)}
    M106 P3 S255
    {endif};Prevent PLA from jamming
{endif}
M106 P2 S100 ; turn on big fan ,to cool down toolhead

{if scan_first_layer}
;start heatbed  scan====================================
M976 S2 P1 
{endif}

