; generated by PrusaSlicer 2.3.0-rc2+ on 2020-12-25 at 15:58:42 UTC

; 

; external perimeters extrusion width = 0.90mm
; perimeters extrusion width = 0.90mm
; infill extrusion width = 0.90mm
; solid infill extrusion width = 0.90mm
; top infill extrusion width = 0.80mm
; first layer extrusion width = 0.80mm

M201 X500 Y500 Z100 E5000 ; sets maximum accelerations, mm/sec^2
M203 X500 Y500 Z10 E60 ; sets maximum feedrates, mm/sec
M204 P500 R1000 T500 ; sets acceleration (P, T) and retract acceleration (R), mm/sec^2
M205 X8.00 Y8.00 Z0.40 E5.00 ; sets the jerk limits, mm/sec
M205 S0 T0 ; sets the minimum extruding and travel feed rate, mm/sec
M107 ; disable fan
;TYPE:Custom
G90 ; use absolute coordinates
M83 ; extruder relative mode
M104 S215 ; set extruder temp
M140 S60 ; set bed temp
M190 S60 ; wait for bed temp
M109 S215 ; wait for extruder temp
G28 ; home all
G29 ; Autolevel
G1 Z2 F240
G1 X2 Y10 F3000
G1 Z0.28 F240
G92 E0
G1 Y190 E15 F1500 ; intro line
G1 X2.3 F5000
G92 E0
G1 Y10 E15 F1200 ; intro line
G92 E0
G21 ; set units to millimeters
G90 ; use absolute coordinates
M83 ; use relative distances for extrusion
; Filament gcode
;LAYER_CHANGE
;Z:0.4
;HEIGHT:0.4
;BEFORE_LAYER_CHANGE
G92 E0
;0.4


G1 E-5.00000 F3600.000 ; retract
G1 Z0.400 F12000.000 ; move to next layer (0)
;AFTER_LAYER_CHANGE
;0.4
G1 X95.877 Y121.323 ; move to first perimeter point
G1 E5.00000 F2400.000 ; unretract
;TYPE:Perimeter
;WIDTH:0.8
G1 F1800.000
G1 X96.538 Y120.970 E0.08895 ; perimeter
G1 X97.255 Y120.753 E0.08895 ; perimeter
G1 X98.000 Y120.679 E0.08895 ; perimeter
G1 X98.745 Y120.753 E0.08895 ; perimeter
G1 X99.462 Y120.970 E0.08895 ; perimeter
G1 X100.123 Y121.323 E0.08895 ; perimeter
G1 X100.702 Y121.798 E0.08895 ; perimeter
G1 X101.177 Y122.377 E0.08895 ; perimeter
G1 X101.530 Y123.038 E0.08895 ; perimeter
G1 X101.747 Y123.755 E0.08895 ; perimeter
G1 X101.821 Y124.500 E0.08895 ; perimeter
G1 X101.747 Y125.245 E0.08895 ; perimeter
G1 X101.530 Y125.962 E0.08895 ; perimeter
G1 X101.177 Y126.623 E0.08895 ; perimeter
G1 X100.702 Y127.202 E0.08895 ; perimeter
G1 X100.123 Y127.677 E0.08895 ; perimeter
G1 X99.462 Y128.030 E0.08895 ; perimeter
G1 X98.745 Y128.247 E0.08895 ; perimeter
G1 X98.000 Y128.321 E0.08895 ; perimeter
G1 X97.255 Y128.247 E0.08895 ; perimeter
G1 X96.538 Y128.030 E0.08895 ; perimeter
G1 X95.877 Y127.677 E0.08895 ; perimeter
G1 X95.298 Y127.202 E0.08895 ; perimeter
G1 X94.823 Y126.623 E0.08895 ; perimeter
G1 X94.470 Y125.962 E0.08895 ; perimeter
G1 X94.253 Y125.245 E0.08895 ; perimeter
G1 X94.179 Y124.500 E0.08895 ; perimeter
G1 X94.253 Y123.755 E0.08895 ; perimeter
G1 X94.470 Y123.038 E0.08895 ; perimeter
G1 X94.823 Y122.377 E0.08895 ; perimeter
G1 X95.298 Y121.798 E0.08895 ; perimeter
G1 X95.785 Y121.399 E0.07470 ; perimeter
G1 X96.238 Y121.952 F12000.000 ; move to first perimeter point
;TYPE:External perimeter
G1 F1800.000
G1 X96.813 Y121.633 E0.07804 ; perimeter
G1 X97.395 Y121.457 E0.07224 ; perimeter
G1 X98.000 Y121.397 E0.07224 ; perimeter
G1 X98.605 Y121.457 E0.07224 ; perimeter
G1 X99.187 Y121.633 E0.07224 ; perimeter
G1 X99.724 Y121.920 E0.07224 ; perimeter
G1 X100.194 Y122.306 E0.07224 ; perimeter
G1 X100.580 Y122.776 E0.07224 ; perimeter
G1 X100.867 Y123.313 E0.07224 ; perimeter
G1 X101.043 Y123.895 E0.07224 ; perimeter
G1 X101.103 Y124.500 E0.07224 ; perimeter
G1 X101.043 Y125.105 E0.07224 ; perimeter
G1 X100.867 Y125.687 E0.07224 ; perimeter
G1 X100.580 Y126.224 E0.07224 ; perimeter
G1 X100.194 Y126.694 E0.07224 ; perimeter
G1 X99.724 Y127.080 E0.07224 ; perimeter
G1 X99.187 Y127.367 E0.07224 ; perimeter
G1 X98.605 Y127.543 E0.07224 ; perimeter
G1 X98.000 Y127.603 E0.07224 ; perimeter
G1 X97.395 Y127.543 E0.07224 ; perimeter
G1 X96.813 Y127.367 E0.07224 ; perimeter
G1 X96.276 Y127.080 E0.07224 ; perimeter
G1 X95.806 Y126.694 E0.07224 ; perimeter
G1 X95.420 Y126.224 E0.07224 ; perimeter
G1 X95.133 Y125.687 E0.07224 ; perimeter
G1 X94.957 Y125.105 E0.07224 ; perimeter
G1 X94.897 Y124.500 E0.07224 ; perimeter
G1 X94.957 Y123.895 E0.07224 ; perimeter
G1 X95.133 Y123.313 E0.07224 ; perimeter
G1 X95.420 Y122.776 E0.07224 ; perimeter
G1 X95.806 Y122.306 E0.07224 ; perimeter
G1 X96.145 Y122.028 E0.05209 ; perimeter
G1 X96.187 Y121.296 F12000.000 ; move inwards before travel
G1 E-3.50000 F3600.000 ; retract
;WIPE_START
G1 F9600.000
G1 X96.813 Y121.633 E-0.27623 ; wipe and retract
G1 X97.395 Y121.457 E-0.21670 ; wipe and retract
G1 X98.000 Y121.397 E-0.21670 ; wipe and retract
G1 X98.605 Y121.457 E-0.21670 ; wipe and retract
G1 X99.187 Y121.633 E-0.21670 ; wipe and retract
G1 X99.724 Y121.920 E-0.21670 ; wipe and retract
G1 X99.866 Y122.036 E-0.06528 ; wipe and retract
;WIPE_END
G1 E-0.07500 F3600.000 ; retract
G1 X94.028 Y122.220 F12000.000 ; move to first perimeter point
G1 E5.00000 F2400.000 ; unretract
;TYPE:Perimeter
G1 F1800.000
G1 X94.028 Y104.600 E2.09274 ; perimeter
G1 X94.076 Y104.117 E0.05757 ; perimeter
G1 X94.187 Y103.749 E0.04568 ; perimeter
G1 X94.369 Y103.410 E0.04568 ; perimeter
G1 X94.613 Y103.113 E0.04568 ; perimeter
G1 X94.910 Y102.869 E0.04568 ; perimeter
G1 X95.249 Y102.687 E0.04568 ; perimeter
G1 X95.617 Y102.576 E0.04568 ; perimeter
G1 X96.100 Y102.528 E0.05757 ; perimeter
G1 X134.900 Y102.528 E4.60817 ; perimeter
G1 X135.383 Y102.576 E0.05757 ; perimeter
G1 X135.751 Y102.687 E0.04568 ; perimeter
G1 X136.090 Y102.869 E0.04568 ; perimeter
G1 X136.387 Y103.113 E0.04568 ; perimeter
G1 X136.631 Y103.410 E0.04568 ; perimeter
G1 X136.813 Y103.749 E0.04568 ; perimeter
G1 X136.924 Y104.117 E0.04568 ; perimeter
G1 X136.972 Y104.600 E0.05757 ; perimeter
G1 X136.972 Y126.400 E2.58917 ; perimeter
G1 X136.924 Y126.883 E0.05757 ; perimeter
G1 X136.813 Y127.251 E0.04568 ; perimeter
G1 X136.631 Y127.590 E0.04568 ; perimeter
G1 X136.387 Y127.887 E0.04568 ; perimeter
G1 X136.090 Y128.131 E0.04568 ; perimeter
G1 X135.751 Y128.313 E0.04568 ; perimeter
G1 X135.383 Y128.424 E0.04568 ; perimeter
G1 X134.900 Y128.472 E0.05757 ; perimeter
G1 X100.280 Y128.472 E4.11175 ; perimeter
G1 X101.209 Y127.709 E0.14279 ; perimeter
G1 X101.773 Y127.021 E0.10566 ; perimeter
G1 X102.193 Y126.237 E0.10566 ; perimeter
G1 X102.451 Y125.385 E0.10566 ; perimeter
G1 X102.538 Y124.500 E0.10566 ; perimeter
G1 X102.451 Y123.615 E0.10566 ; perimeter
G1 X102.193 Y122.763 E0.10566 ; perimeter
G1 X101.773 Y121.979 E0.10566 ; perimeter
G1 X101.209 Y121.291 E0.10566 ; perimeter
G1 X100.521 Y120.727 E0.10566 ; perimeter
G1 X99.737 Y120.307 E0.10566 ; perimeter
G1 X98.885 Y120.049 E0.10566 ; perimeter
G1 X98.000 Y119.962 E0.10566 ; perimeter
G1 X97.115 Y120.049 E0.10566 ; perimeter
G1 X96.263 Y120.307 E0.10566 ; perimeter
G1 X95.479 Y120.727 E0.10566 ; perimeter
G1 X94.791 Y121.291 E0.10566 ; perimeter
G1 X94.104 Y122.128 E0.12854 ; perimeter
G1 E-3.50000 F3600.000 ; retract
;WIPE_START
G1 F9600.000
G1 X94.087 Y118.128 E-1.42500 ; wipe and retract
;WIPE_END
G1 E-0.07500 F3600.000 ; retract
G1 X93.372 Y127.023 F12000.000 ; move to first perimeter point
G1 E5.00000 F2400.000 ; unretract
G1 F1800.000
G1 X93.314 Y126.435 E0.07009 ; perimeter
G1 X93.314 Y104.565 E2.59750 ; perimeter
G1 X93.372 Y103.977 E0.07009 ; perimeter
G1 X93.524 Y103.475 E0.06238 ; perimeter
G1 X93.772 Y103.011 E0.06238 ; perimeter
G1 X94.105 Y102.605 E0.06238 ; perimeter
G1 X94.511 Y102.272 E0.06238 ; perimeter
G1 X94.975 Y102.024 E0.06238 ; perimeter
G1 X95.477 Y101.872 E0.06238 ; perimeter
G1 X96.065 Y101.814 E0.07009 ; perimeter
G1 X134.935 Y101.814 E4.61651 ; perimeter
G1 X135.523 Y101.872 E0.07009 ; perimeter
G1 X136.025 Y102.024 E0.06238 ; perimeter
G1 X136.489 Y102.272 E0.06238 ; perimeter
G1 X136.895 Y102.605 E0.06238 ; perimeter
G1 X137.228 Y103.011 E0.06238 ; perimeter
G1 X137.476 Y103.475 E0.06238 ; perimeter
G1 X137.628 Y103.977 E0.06238 ; perimeter
G1 X137.686 Y104.565 E0.07009 ; perimeter
G1 X137.686 Y126.435 E2.59750 ; perimeter
G1 X137.628 Y127.023 E0.07009 ; perimeter
G1 X137.476 Y127.525 E0.06238 ; perimeter
G1 X137.228 Y127.989 E0.06238 ; perimeter
G1 X136.895 Y128.395 E0.06238 ; perimeter
G1 X136.489 Y128.728 E0.06238 ; perimeter
G1 X136.025 Y128.976 E0.06238 ; perimeter
G1 X135.523 Y129.128 E0.06238 ; perimeter
G1 X134.935 Y129.186 E0.07009 ; perimeter
G1 X96.065 Y129.186 E4.61651 ; perimeter
G1 X95.477 Y129.128 E0.07009 ; perimeter
G1 X94.975 Y128.976 E0.06238 ; perimeter
G1 X94.511 Y128.728 E0.06238 ; perimeter
G1 X94.105 Y128.395 E0.06238 ; perimeter
G1 X93.772 Y127.989 E0.06238 ; perimeter
G1 X93.524 Y127.525 E0.06238 ; perimeter
G1 X93.407 Y127.138 E0.04813 ; perimeter
G1 X92.668 Y127.163 F12000.000 ; move to first perimeter point
;TYPE:External perimeter
G1 F1800.000
G1 X92.600 Y126.471 E0.08261 ; perimeter
G1 X92.600 Y104.529 E2.60583 ; perimeter
G1 X92.668 Y103.837 E0.08261 ; perimeter
G1 X92.861 Y103.200 E0.07909 ; perimeter
G1 X93.175 Y102.613 E0.07909 ; perimeter
G1 X93.598 Y102.098 E0.07909 ; perimeter
G1 X94.113 Y101.675 E0.07909 ; perimeter
G1 X94.700 Y101.361 E0.07909 ; perimeter
G1 X95.337 Y101.168 E0.07909 ; perimeter
G1 X96.029 Y101.100 E0.08261 ; perimeter
G1 X134.971 Y101.100 E4.62484 ; perimeter
G1 X135.663 Y101.168 E0.08261 ; perimeter
G1 X136.300 Y101.361 E0.07909 ; perimeter
G1 X136.887 Y101.675 E0.07909 ; perimeter
G1 X137.402 Y102.098 E0.07909 ; perimeter
G1 X137.825 Y102.613 E0.07909 ; perimeter
G1 X138.139 Y103.200 E0.07909 ; perimeter
G1 X138.332 Y103.837 E0.07909 ; perimeter
G1 X138.400 Y104.529 E0.08261 ; perimeter
G1 X138.400 Y126.471 E2.60583 ; perimeter
G1 X138.332 Y127.163 E0.08261 ; perimeter
G1 X138.139 Y127.800 E0.07909 ; perimeter
G1 X137.825 Y128.387 E0.07909 ; perimeter
G1 X137.402 Y128.902 E0.07909 ; perimeter
G1 X136.887 Y129.325 E0.07909 ; perimeter
G1 X136.300 Y129.639 E0.07909 ; perimeter
G1 X135.663 Y129.832 E0.07909 ; perimeter
G1 X134.971 Y129.900 E0.08261 ; perimeter
G1 X96.029 Y129.900 E4.62484 ; perimeter
G1 X95.337 Y129.832 E0.08261 ; perimeter
G1 X94.700 Y129.639 E0.07909 ; perimeter
G1 X94.113 Y129.325 E0.07909 ; perimeter
G1 X93.598 Y128.902 E0.07909 ; perimeter
G1 X93.175 Y128.387 E0.07909 ; perimeter
G1 X92.861 Y127.800 E0.07909 ; perimeter
G1 X92.703 Y127.278 E0.06484 ; perimeter
G1 X93.191 Y126.704 F12000.000 ; move inwards before travel
G1 X94.110 Y126.876 ; move to first infill point
;TYPE:Gap fill
;WIDTH:0.898231
G1 F1800.000
G1 X94.167 Y127.013 E0.02009 ; infill
;WIDTH:0.922261
G1 X94.202 Y127.087 E0.01136 ; infill
;WIDTH:0.950812
G1 X94.236 Y127.152 E0.01053 ; infill
;WIDTH:0.979362
G1 X94.271 Y127.216 E0.01087 ; infill
;WIDTH:1.01516
G1 X94.372 Y127.368 E0.02822 ; infill
;WIDTH:1.05095
G1 X94.474 Y127.520 E0.02930 ; infill
;WIDTH:1.05095
G1 X94.672 Y127.761 E0.05013 ; infill
;WIDTH:1.05328
G1 X94.703 Y127.797 E0.00763 ; infill
G1 X94.739 Y127.828 E0.00763 ; infill
;WIDTH:1.05095
G1 X94.980 Y128.026 E0.05013 ; infill
;WIDTH:1.05095
G1 X95.580 Y128.428 E0.11590 ; infill
;WIDTH:1.01516
G1 X96.181 Y128.829 E0.11160 ; infill
G1 X96.284 Y128.580 F12000.000 ; move to first infill point
;WIDTH:0.582743
G1 F1800.000
G1 X96.331 Y128.590 E0.00402 ; infill
;WIDTH:0.563696
G1 X96.495 Y128.614 E0.01316 ; infill
;WIDTH:0.417859
G1 X96.987 Y128.687 E0.02744 ; infill
;WIDTH:0.235635
G1 X97.173 Y128.714 E0.00470 ; infill
G1 X98.007 Y128.754 E0.02080 ; infill
;WIDTH:0.275884
G1 X98.417 Y128.734 E0.01296 ; infill
;WIDTH:0.316135
G1 X98.827 Y128.714 E0.01571 ; infill
;WIDTH:0.320635
G1 X98.849 Y128.711 E0.00089 ; infill
;WIDTH:0.35727
G1 X98.973 Y128.693 E0.00564 ; infill
;WIDTH:0.393904
G1 X99.096 Y128.675 E0.00640 ; infill
;WIDTH:0.430539
G1 X99.220 Y128.656 E0.00716 ; infill
;WIDTH:0.430541
G1 X99.321 Y128.602 E0.00656 ; infill
;WIDTH:0.251987
G1 X99.637 Y128.432 E0.00993 ; infill
;WIDTH:0.247213
G1 X99.796 Y128.326 E0.00512 ; infill
;WIDTH:0.214527
G1 X99.955 Y128.220 E0.00408 ; infill
G1 E-3.50000 F3600.000 ; retract
;WIPE_START
G1 F9600.000
G1 X99.796 Y128.326 E-0.06795 ; wipe and retract
;WIPE_END
G1 E-1.43205 F3600.000 ; retract
G1 X94.110 Y126.876 F12000.000 ; move to first infill point
G1 E5.00000 F2400.000 ; unretract
;WIDTH:0.869074
G1 F1800.000
G1 X94.000 Y126.514 E0.04920 ; infill
;WIDTH:0.820902
G1 X93.891 Y126.153 E0.04618 ; infill
;WIDTH:0.772731
G1 X93.781 Y125.791 E0.04315 ; infill
;WIDTH:0.724559
G1 X93.671 Y125.430 E0.04012 ; infill
G1 X93.813 Y125.513 F12000.000 ; move to first infill point
;WIDTH:0.417862
G1 F1800.000
G1 X93.886 Y126.005 E0.02744 ; infill
;WIDTH:0.563697
G1 X93.910 Y126.169 E0.01316 ; infill
;WIDTH:0.582747
G1 X93.920 Y126.216 E0.00402 ; infill
G1 X93.813 Y125.513 F12000.000 ; move to first infill point
;WIDTH:0.23564
G1 F1800.000
G1 X93.786 Y125.327 E0.00470 ; infill
G1 X93.746 Y124.493 E0.02080 ; infill
;WIDTH:0.275889
G1 X93.766 Y124.083 E0.01296 ; infill
;WIDTH:0.31614
G1 X93.786 Y123.673 E0.01571 ; infill
;WIDTH:0.320639
G1 X93.789 Y123.651 E0.00089 ; infill
;WIDTH:0.357276
G1 X93.823 Y123.417 E0.01068 ; infill
;WIDTH:0.393911
G1 X93.858 Y123.183 E0.01212 ; infill
;WIDTH:0.430546
G1 X93.893 Y122.948 E0.01356 ; infill
G1 E-3.50000 F3600.000 ; retract
;WIPE_START
G1 F9600.000
G1 X93.858 Y123.183 E-0.08428 ; wipe and retract
;WIPE_END
G1 E-1.41572 F3600.000 ; retract
G1 X135.290 Y102.782 F12000.000 ; move to first infill point
G1 E5.00000 F2400.000 ; unretract
;TYPE:Solid infill
;WIDTH:0.811349
G1 F1800.000
G1 X136.033 Y103.525 E0.12676 ; infill
G1 X136.184 Y103.709 E0.02875 ; infill
G1 X136.315 Y103.955 E0.03367 ; infill
G1 X136.396 Y104.222 E0.03367 ; infill
G1 X136.436 Y104.626 E0.04894 ; infill
G1 X136.436 Y104.954 E0.03963 ; infill
G1 X134.546 Y103.064 E0.32257 ; infill
G1 X133.520 Y103.064 E0.12379 ; infill
G1 X136.436 Y105.980 E0.49763 ; infill
G1 X136.436 Y107.006 E0.12379 ; infill
G1 X132.494 Y103.064 E0.67270 ; infill
G1 X131.468 Y103.064 E0.12379 ; infill
G1 X136.436 Y108.032 E0.84777 ; infill
G1 X136.436 Y109.058 E0.12379 ; infill
G1 X130.442 Y103.064 E1.02284 ; infill
G1 X129.415 Y103.064 E0.12379 ; infill
G1 X136.436 Y110.084 E1.19791 ; infill
G1 X136.436 Y111.111 E0.12379 ; infill
G1 X128.389 Y103.064 E1.37298 ; infill
G1 X127.363 Y103.064 E0.12379 ; infill
G1 X136.436 Y112.137 E1.54805 ; infill
G1 X136.436 Y113.163 E0.12379 ; infill
G1 X126.337 Y103.064 E1.72311 ; infill
G1 X125.311 Y103.064 E0.12379 ; infill
G1 X136.436 Y114.189 E1.89818 ; infill
G1 X136.436 Y115.215 E0.12379 ; infill
G1 X124.285 Y103.064 E2.07325 ; infill
G1 X123.259 Y103.064 E0.12379 ; infill
G1 X136.436 Y116.241 E2.24832 ; infill
G1 X136.436 Y117.267 E0.12379 ; infill
G1 X122.233 Y103.064 E2.42339 ; infill
G1 X121.207 Y103.064 E0.12379 ; infill
G1 X136.436 Y118.293 E2.59846 ; infill
G1 X136.436 Y119.319 E0.12379 ; infill
G1 X120.181 Y103.064 E2.77353 ; infill
G1 X119.155 Y103.064 E0.12379 ; infill
G1 X136.436 Y120.345 E2.94860 ; infill
G1 X136.436 Y121.371 E0.12379 ; infill
G1 X118.129 Y103.064 E3.12366 ; infill
G1 X117.103 Y103.064 E0.12379 ; infill
G1 X136.436 Y122.397 E3.29873 ; infill
G1 X136.436 Y123.423 E0.12379 ; infill
G1 X116.077 Y103.064 E3.47380 ; infill
G1 X115.051 Y103.064 E0.12379 ; infill
G1 X136.436 Y124.449 E3.64887 ; infill
G1 X136.436 Y125.475 E0.12379 ; infill
G1 X114.025 Y103.064 E3.82394 ; infill
G1 X112.999 Y103.064 E0.12379 ; infill
G1 X136.425 Y126.489 E3.99707 ; infill
G1 X136.396 Y126.778 E0.03495 ; infill
G1 X136.315 Y127.045 E0.03367 ; infill
G1 X136.189 Y127.280 E0.03221 ; infill
G1 X111.973 Y103.064 E4.13200 ; infill
G1 X110.947 Y103.064 E0.12379 ; infill
G1 X135.645 Y127.762 E4.21416 ; infill
G1 X135.545 Y127.815 E0.01370 ; infill
G1 X135.278 Y127.896 E0.03367 ; infill
G1 X134.793 Y127.936 E0.05866 ; infill
G1 X109.921 Y103.064 E4.24389 ; infill
G1 X108.895 Y103.064 E0.12379 ; infill
G1 X133.767 Y127.936 E4.24389 ; infill
G1 X132.741 Y127.936 E0.12379 ; infill
G1 X107.869 Y103.064 E4.24389 ; infill
G1 X106.843 Y103.064 E0.12379 ; infill
G1 X131.715 Y127.936 E4.24389 ; infill
G1 X130.689 Y127.936 E0.12379 ; infill
G1 X105.817 Y103.064 E4.24389 ; infill
G1 X104.791 Y103.064 E0.12379 ; infill
G1 X129.663 Y127.936 E4.24389 ; infill
G1 X128.637 Y127.936 E0.12379 ; infill
G1 X103.765 Y103.064 E4.24389 ; infill
