; generated by PrusaSlicer 2.3.0-rc2+ on 2020-12-25 at 15:54:14 UTC

; 

; external perimeters extrusion width = 0.90mm
; perimeters extrusion width = 0.90mm
; infill extrusion width = 0.90mm
; solid infill extrusion width = 0.90mm
; top infill extrusion width = 0.80mm
; first layer extrusion width = 0.60mm

M201 X500 Y500 Z100 E5000 ; sets maximum accelerations, mm/sec^2
M203 X500 Y500 Z10 E60 ; sets maximum feedrates, mm/sec
M204 P500 R1000 T500 ; sets acceleration (P, T) and retract acceleration (R), mm/sec^2
M205 X8.00 Y8.00 Z0.40 E5.00 ; sets the jerk limits, mm/sec
M205 S0 T0 ; sets the minimum extruding and travel feed rate, mm/sec
M107 ; disable fan
;TYPE:Custom
G90 ; use absolute coordinates
M83 ; extruder relative mode
M104 S215 ; set extruder temp
M140 S60 ; set bed temp
M190 S60 ; wait for bed temp
M109 S215 ; wait for extruder temp
G28 ; home all
G29 ; Autolevel
G1 Z2 F240
G1 X2 Y10 F3000
G1 Z0.28 F240
G92 E0
G1 Y190 E15 F1500 ; intro line
G1 X2.3 F5000
G92 E0
G1 Y10 E15 F1200 ; intro line
G92 E0
G21 ; set units to millimeters
G90 ; use absolute coordinates
M83 ; use relative distances for extrusion
; Filament gcode
;LAYER_CHANGE
;Z:0.3
;HEIGHT:0.3
;BEFORE_LAYER_CHANGE
G92 E0
;0.3


G1 E-5.00000 F3600.000 ; retract
G1 Z0.300 F12000.000 ; move to next layer (0)
;AFTER_LAYER_CHANGE
;0.3
G1 X95.734 Y121.109 ; move to first perimeter point
G1 E5.00000 F2400.000 ; unretract
;TYPE:Perimeter
;WIDTH:0.6
G1 F2100.000
G1 X96.439 Y120.732 E0.05342 ; perimeter
G1 X97.204 Y120.500 E0.05342 ; perimeter
G1 X98.000 Y120.421 E0.05342 ; perimeter
G1 X98.796 Y120.500 E0.05342 ; perimeter
G1 X99.561 Y120.732 E0.05342 ; perimeter
G1 X100.266 Y121.109 E0.05342 ; perimeter
G1 X100.884 Y121.616 E0.05342 ; perimeter
G1 X101.391 Y122.234 E0.05342 ; perimeter
G1 X101.768 Y122.939 E0.05342 ; perimeter
G1 X102.000 Y123.704 E0.05342 ; perimeter
G1 X102.079 Y124.500 E0.05342 ; perimeter
G1 X102.000 Y125.296 E0.05342 ; perimeter
G1 X101.768 Y126.061 E0.05342 ; perimeter
G1 X101.391 Y126.766 E0.05342 ; perimeter
G1 X100.884 Y127.384 E0.05342 ; perimeter
G1 X100.266 Y127.891 E0.05342 ; perimeter
G1 X99.561 Y128.268 E0.05342 ; perimeter
G1 X98.796 Y128.500 E0.05342 ; perimeter
G1 X98.000 Y128.579 E0.05342 ; perimeter
G1 X97.204 Y128.500 E0.05342 ; perimeter
G1 X96.439 Y128.268 E0.05342 ; perimeter
G1 X95.734 Y127.891 E0.05342 ; perimeter
G1 X95.116 Y127.384 E0.05342 ; perimeter
G1 X94.609 Y126.766 E0.05342 ; perimeter
G1 X94.232 Y126.061 E0.05342 ; perimeter
G1 X94.000 Y125.296 E0.05342 ; perimeter
G1 X93.921 Y124.500 E0.05342 ; perimeter
G1 X94.000 Y123.704 E0.05342 ; perimeter
G1 X94.232 Y122.939 E0.05342 ; perimeter
G1 X94.609 Y122.234 E0.05342 ; perimeter
G1 X95.116 Y121.616 E0.05342 ; perimeter
G1 X95.641 Y121.185 E0.04540 ; perimeter
G1 X95.981 Y121.599 F12000.000 ; move to first perimeter point
G1 F2100.000
G1 X96.645 Y121.229 E0.05078 ; perimeter
G1 X97.309 Y121.027 E0.04637 ; perimeter
G1 X98.000 Y120.959 E0.04637 ; perimeter
G1 X98.691 Y121.027 E0.04637 ; perimeter
G1 X99.355 Y121.229 E0.04637 ; perimeter
G1 X99.967 Y121.556 E0.04637 ; perimeter
G1 X100.504 Y121.996 E0.04637 ; perimeter
G1 X100.944 Y122.533 E0.04637 ; perimeter
G1 X101.271 Y123.145 E0.04637 ; perimeter
G1 X101.473 Y123.809 E0.04637 ; perimeter
G1 X101.541 Y124.500 E0.04637 ; perimeter
G1 X101.473 Y125.191 E0.04637 ; perimeter
G1 X101.271 Y125.855 E0.04637 ; perimeter
G1 X100.944 Y126.467 E0.04637 ; perimeter
G1 X100.504 Y127.004 E0.04637 ; perimeter
G1 X99.967 Y127.444 E0.04637 ; perimeter
G1 X99.355 Y127.771 E0.04637 ; perimeter
G1 X98.691 Y127.973 E0.04637 ; perimeter
G1 X98.000 Y128.041 E0.04637 ; perimeter
G1 X97.309 Y127.973 E0.04637 ; perimeter
G1 X96.645 Y127.771 E0.04637 ; perimeter
G1 X96.033 Y127.444 E0.04637 ; perimeter
G1 X95.496 Y127.004 E0.04637 ; perimeter
G1 X95.056 Y126.467 E0.04637 ; perimeter
G1 X94.729 Y125.855 E0.04637 ; perimeter
G1 X94.527 Y125.191 E0.04637 ; perimeter
G1 X94.459 Y124.500 E0.04637 ; perimeter
G1 X94.527 Y123.809 E0.04637 ; perimeter
G1 X94.729 Y123.145 E0.04637 ; perimeter
G1 X95.056 Y122.533 E0.04637 ; perimeter
G1 X95.496 Y121.996 E0.04637 ; perimeter
G1 X95.888 Y121.675 E0.03386 ; perimeter
G1 X96.332 Y122.004 F12000.000 ; move to first perimeter point
;TYPE:External perimeter
G1 F2100.000
G1 X96.851 Y121.726 E0.03932 ; perimeter
G1 X97.414 Y121.555 E0.03932 ; perimeter
G1 X98.000 Y121.498 E0.03932 ; perimeter
G1 X98.586 Y121.555 E0.03932 ; perimeter
G1 X99.149 Y121.726 E0.03932 ; perimeter
G1 X99.668 Y122.004 E0.03932 ; perimeter
G1 X100.123 Y122.377 E0.03932 ; perimeter
G1 X100.496 Y122.832 E0.03932 ; perimeter
G1 X100.774 Y123.351 E0.03932 ; perimeter
G1 X100.945 Y123.914 E0.03932 ; perimeter
G1 X101.002 Y124.500 E0.03932 ; perimeter
G1 X100.945 Y125.086 E0.03932 ; perimeter
G1 X100.774 Y125.649 E0.03932 ; perimeter
G1 X100.496 Y126.168 E0.03932 ; perimeter
G1 X100.123 Y126.623 E0.03932 ; perimeter
G1 X99.668 Y126.996 E0.03932 ; perimeter
G1 X99.149 Y127.274 E0.03932 ; perimeter
G1 X98.586 Y127.445 E0.03932 ; perimeter
G1 X98.000 Y127.502 E0.03932 ; perimeter
G1 X97.414 Y127.445 E0.03932 ; perimeter
G1 X96.851 Y127.274 E0.03932 ; perimeter
G1 X96.332 Y126.996 E0.03932 ; perimeter
G1 X95.877 Y126.623 E0.03932 ; perimeter
G1 X95.504 Y126.168 E0.03932 ; perimeter
G1 X95.226 Y125.649 E0.03932 ; perimeter
G1 X95.055 Y125.086 E0.03932 ; perimeter
G1 X94.998 Y124.500 E0.03932 ; perimeter
G1 X95.055 Y123.914 E0.03932 ; perimeter
G1 X95.226 Y123.351 E0.03932 ; perimeter
G1 X95.504 Y122.832 E0.03932 ; perimeter
G1 X95.877 Y122.377 E0.03932 ; perimeter
G1 X96.239 Y122.080 E0.03130 ; perimeter
G1 X96.293 Y121.416 F12000.000 ; move inwards before travel
G1 E-3.50000 F3600.000 ; retract
;WIPE_START
G1 F9600.000
G1 X96.851 Y121.726 E-0.25175 ; wipe and retract
G1 X97.414 Y121.555 E-0.20968 ; wipe and retract
G1 X98.000 Y121.498 E-0.20968 ; wipe and retract
G1 X98.586 Y121.555 E-0.20968 ; wipe and retract
G1 X99.149 Y121.726 E-0.20968 ; wipe and retract
G1 X99.668 Y122.004 E-0.20968 ; wipe and retract
G1 X99.939 Y122.226 E-0.12485 ; wipe and retract
;WIPE_END
G1 E-0.07500 F3600.000 ; retract
G1 X93.625 Y126.972 F12000.000 ; move to first perimeter point
G1 E5.00000 F2400.000 ; unretract
;TYPE:Perimeter
G1 F2100.000
G1 X93.571 Y126.423 E0.03689 ; perimeter
G1 X93.571 Y104.577 E1.45941 ; perimeter
G1 X93.625 Y104.028 E0.03689 ; perimeter
G1 X93.763 Y103.573 E0.03171 ; perimeter
G1 X93.987 Y103.155 E0.03171 ; perimeter
G1 X94.288 Y102.788 E0.03171 ; perimeter
G1 X94.655 Y102.487 E0.03171 ; perimeter
G1 X95.073 Y102.263 E0.03171 ; perimeter
G1 X95.528 Y102.125 E0.03171 ; perimeter
G1 X96.077 Y102.071 E0.03689 ; perimeter
G1 X134.923 Y102.071 E2.59510 ; perimeter
G1 X135.472 Y102.125 E0.03689 ; perimeter
G1 X135.927 Y102.263 E0.03171 ; perimeter
G1 X136.345 Y102.487 E0.03171 ; perimeter
G1 X136.712 Y102.788 E0.03171 ; perimeter
G1 X137.013 Y103.155 E0.03171 ; perimeter
G1 X137.237 Y103.573 E0.03171 ; perimeter
G1 X137.375 Y104.028 E0.03171 ; perimeter
G1 X137.429 Y104.577 E0.03689 ; perimeter
G1 X137.429 Y126.423 E1.45941 ; perimeter
G1 X137.375 Y126.972 E0.03689 ; perimeter
G1 X137.237 Y127.427 E0.03171 ; perimeter
G1 X137.013 Y127.845 E0.03171 ; perimeter
G1 X136.712 Y128.212 E0.03171 ; perimeter
G1 X136.345 Y128.513 E0.03171 ; perimeter
G1 X135.927 Y128.737 E0.03171 ; perimeter
G1 X135.472 Y128.875 E0.03171 ; perimeter
G1 X134.923 Y128.929 E0.03689 ; perimeter
G1 X96.077 Y128.929 E2.59510 ; perimeter
G1 X95.528 Y128.875 E0.03689 ; perimeter
G1 X95.073 Y128.737 E0.03171 ; perimeter
G1 X94.655 Y128.513 E0.03171 ; perimeter
G1 X94.288 Y128.212 E0.03171 ; perimeter
G1 X93.987 Y127.845 E0.03171 ; perimeter
G1 X93.763 Y127.427 E0.03171 ; perimeter
G1 X93.660 Y127.087 E0.02369 ; perimeter
G1 X93.097 Y127.077 F12000.000 ; move to first perimeter point
G1 F2100.000
G1 X93.036 Y126.449 E0.04217 ; perimeter
G1 X93.036 Y104.551 E1.46292 ; perimeter
G1 X93.097 Y103.923 E0.04217 ; perimeter
G1 X93.266 Y103.367 E0.03876 ; perimeter
G1 X93.539 Y102.856 E0.03876 ; perimeter
G1 X93.907 Y102.407 E0.03876 ; perimeter
G1 X94.356 Y102.039 E0.03876 ; perimeter
G1 X94.867 Y101.766 E0.03876 ; perimeter
G1 X95.423 Y101.597 E0.03876 ; perimeter
G1 X96.051 Y101.536 E0.04217 ; perimeter
G1 X134.949 Y101.536 E2.59861 ; perimeter
G1 X135.577 Y101.597 E0.04217 ; perimeter
G1 X136.133 Y101.766 E0.03876 ; perimeter
G1 X136.644 Y102.039 E0.03876 ; perimeter
G1 X137.093 Y102.407 E0.03876 ; perimeter
G1 X137.461 Y102.856 E0.03876 ; perimeter
G1 X137.734 Y103.367 E0.03876 ; perimeter
G1 X137.903 Y103.923 E0.03876 ; perimeter
G1 X137.964 Y104.551 E0.04217 ; perimeter
G1 X137.964 Y126.449 E1.46292 ; perimeter
G1 X137.903 Y127.077 E0.04217 ; perimeter
G1 X137.734 Y127.633 E0.03876 ; perimeter
G1 X137.461 Y128.144 E0.03876 ; perimeter
G1 X137.093 Y128.593 E0.03876 ; perimeter
G1 X136.644 Y128.961 E0.03876 ; perimeter
G1 X136.132 Y129.234 E0.03876 ; perimeter
G1 X135.577 Y129.403 E0.03876 ; perimeter
G1 X134.949 Y129.464 E0.04217 ; perimeter
G1 X96.051 Y129.464 E2.59861 ; perimeter
G1 X95.423 Y129.403 E0.04217 ; perimeter
G1 X94.867 Y129.234 E0.03876 ; perimeter
G1 X94.356 Y128.961 E0.03876 ; perimeter
G1 X93.907 Y128.593 E0.03876 ; perimeter
G1 X93.539 Y128.144 E0.03876 ; perimeter
G1 X93.266 Y127.633 E0.03876 ; perimeter
G1 X93.132 Y127.192 E0.03074 ; perimeter
G1 X92.570 Y127.182 F12000.000 ; move to first perimeter point
;TYPE:External perimeter
G1 F2100.000
G1 X92.500 Y126.475 E0.04745 ; perimeter
G1 X92.500 Y104.525 E1.46644 ; perimeter
G1 X92.570 Y103.818 E0.04745 ; perimeter
G1 X92.769 Y103.162 E0.04580 ; perimeter
G1 X93.092 Y102.557 E0.04580 ; perimeter
G1 X93.527 Y102.027 E0.04580 ; perimeter
G1 X94.057 Y101.592 E0.04580 ; perimeter
G1 X94.662 Y101.269 E0.04580 ; perimeter
G1 X95.318 Y101.070 E0.04580 ; perimeter
G1 X96.025 Y101.000 E0.04745 ; perimeter
G1 X134.975 Y101.000 E2.60213 ; perimeter
G1 X135.682 Y101.070 E0.04745 ; perimeter
G1 X136.338 Y101.269 E0.04580 ; perimeter
G1 X136.943 Y101.592 E0.04580 ; perimeter
G1 X137.473 Y102.027 E0.04580 ; perimeter
G1 X137.908 Y102.557 E0.04580 ; perimeter
G1 X138.231 Y103.162 E0.04580 ; perimeter
G1 X138.430 Y103.818 E0.04580 ; perimeter
G1 X138.500 Y104.525 E0.04745 ; perimeter
G1 X138.500 Y126.475 E1.46644 ; perimeter
G1 X138.430 Y127.182 E0.04745 ; perimeter
G1 X138.231 Y127.838 E0.04580 ; perimeter
G1 X137.908 Y128.443 E0.04580 ; perimeter
G1 X137.473 Y128.973 E0.04580 ; perimeter
G1 X136.943 Y129.408 E0.04580 ; perimeter
G1 X136.338 Y129.731 E0.04581 ; perimeter
G1 X135.682 Y129.930 E0.04580 ; perimeter
G1 X134.975 Y130.000 E0.04745 ; perimeter
G1 X96.025 Y130.000 E2.60213 ; perimeter
G1 X95.318 Y129.930 E0.04745 ; perimeter
G1 X94.662 Y129.731 E0.04580 ; perimeter
G1 X94.057 Y129.408 E0.04580 ; perimeter
G1 X93.527 Y128.973 E0.04580 ; perimeter
G1 X93.092 Y128.443 E0.04580 ; perimeter
G1 X92.769 Y127.838 E0.04580 ; perimeter
G1 X92.604 Y127.297 E0.03779 ; perimeter
G1 X93.104 Y126.714 F12000.000 ; move inwards before travel
G1 X94.110 Y126.876 ; move to first infill point
;TYPE:Gap fill
;WIDTH:0.511994
G1 F2100.000
G1 X94.042 Y126.653 E0.01302 ; infill
;WIDTH:0.463823
G1 X93.974 Y126.430 E0.01162 ; infill
;WIDTH:0.415652
G1 X93.907 Y126.206 E0.01022 ; infill
;WIDTH:0.367481
G1 X93.839 Y125.983 E0.00882 ; infill
G1 X94.110 Y126.876 F12000.000 ; move to first infill point
;WIDTH:0.544408
G1 F2100.000
G1 X94.173 Y127.029 E0.00990 ; infill
;WIDTH:0.558606
G1 X94.194 Y127.072 E0.00298 ; infill
;WIDTH:0.590446
G1 X94.232 Y127.144 E0.00535 ; infill
;WIDTH:0.622285
G1 X94.271 Y127.216 E0.00568 ; infill
;WIDTH:0.658076
G1 X94.372 Y127.368 E0.01352 ; infill
;WIDTH:0.658079
G1 X94.474 Y127.520 E0.01352 ; infill
G1 X94.726 Y127.818 E0.02890 ; infill
G1 X94.980 Y128.026 E0.02435 ; infill
G1 X95.902 Y128.642 E0.08210 ; infill
G1 E-3.50000 F3600.000 ; retract
;WIPE_START
G1 F9600.000
G1 X94.980 Y128.026 E-0.39500 ; wipe and retract
G1 X94.726 Y127.818 E-0.11716 ; wipe and retract
G1 X94.474 Y127.520 E-0.13905 ; wipe and retract
G1 X94.372 Y127.368 E-0.06504 ; wipe and retract
;WIPE_END
G1 E-0.78374 F3600.000 ; retract
G1 X99.396 Y128.630 F12000.000 ; move to first infill point
G1 E5.00000 F2400.000 ; unretract
;WIDTH:0.17395
G1 F2100.000
G1 X99.541 Y128.609 E0.00200 ; infill
;WIDTH:0.182225
G1 X99.721 Y128.579 E0.00269 ; infill
G1 X100.140 Y128.299 E0.00740 ; infill
G1 E-3.50000 F3600.000 ; retract
;WIPE_START
G1 F9600.000
G1 X99.721 Y128.579 E-0.17945 ; wipe and retract
G1 X99.541 Y128.609 E-0.06516 ; wipe and retract
;WIPE_END
G1 E-1.25539 F3600.000 ; retract
G1 X93.870 Y123.104 F12000.000 ; move to first infill point
G1 E5.00000 F2400.000 ; unretract
;WIDTH:0.173952
G1 F2100.000
G1 X93.891 Y122.959 E0.00200 ; infill
;WIDTH:0.182226
G1 X93.921 Y122.779 E0.00269 ; infill
G1 X94.201 Y122.360 E0.00740 ; infill
G1 E-3.50000 F3600.000 ; retract
;WIPE_START
G1 F9600.000
G1 X93.921 Y122.779 E-0.17945 ; wipe and retract
G1 X93.891 Y122.959 E-0.06516 ; wipe and retract
;WIPE_END
G1 E-1.25539 F3600.000 ; retract
G1 X137.268 Y104.674 F12000.000 ; move to first infill point
G1 E5.00000 F2400.000 ; unretract
;TYPE:Solid infill
;WIDTH:0.601736
G1 F2100.000
G1 X135.085 Y102.491 E0.20696 ; infill
G1 X134.903 Y102.473 E0.01223 ; infill
G1 X134.307 Y102.473 E0.03996 ; infill
G1 X137.027 Y105.193 E0.25784 ; infill
G1 X137.027 Y105.953 E0.05093 ; infill
G1 X133.547 Y102.473 E0.32986 ; infill
G1 X132.787 Y102.473 E0.05093 ; infill
G1 X137.027 Y106.713 E0.40189 ; infill
G1 X137.027 Y107.473 E0.05093 ; infill
G1 X132.027 Y102.473 E0.47392 ; infill
G1 X131.267 Y102.473 E0.05093 ; infill
G1 X137.027 Y108.233 E0.54595 ; infill
G1 X137.027 Y108.993 E0.05093 ; infill
G1 X130.507 Y102.473 E0.61798 ; infill
G1 X129.747 Y102.473 E0.05093 ; infill
G1 X137.027 Y109.753 E0.69001 ; infill
G1 X137.027 Y110.513 E0.05093 ; infill
G1 X128.987 Y102.473 E0.76204 ; infill
G1 X128.227 Y102.473 E0.05093 ; infill
G1 X137.027 Y111.273 E0.83407 ; infill
G1 X137.027 Y112.033 E0.05093 ; infill
G1 X127.467 Y102.473 E0.90610 ; infill
G1 X126.707 Y102.473 E0.05093 ; infill
G1 X137.027 Y112.793 E0.97813 ; infill
G1 X137.027 Y113.552 E0.05093 ; infill
G1 X125.948 Y102.473 E1.05016 ; infill
G1 X125.188 Y102.473 E0.05093 ; infill
G1 X137.027 Y114.312 E1.12218 ; infill
G1 X137.027 Y115.072 E0.05093 ; infill
G1 X124.428 Y102.473 E1.19421 ; infill
G1 X123.668 Y102.473 E0.05093 ; infill
G1 X137.027 Y115.832 E1.26624 ; infill
G1 X137.027 Y116.592 E0.05093 ; infill
G1 X122.908 Y102.473 E1.33827 ; infill
G1 X122.148 Y102.473 E0.05093 ; infill
G1 X137.027 Y117.352 E1.41030 ; infill
G1 X137.027 Y118.112 E0.05093 ; infill
G1 X121.388 Y102.473 E1.48233 ; infill
G1 X120.628 Y102.473 E0.05093 ; infill
G1 X137.027 Y118.872 E1.55436 ; infill
G1 X137.027 Y119.632 E0.05093 ; infill
G1 X119.868 Y102.473 E1.62639 ; infill
G1 X119.108 Y102.473 E0.05093 ; infill
G1 X137.027 Y120.392 E1.69842 ; infill
G1 X137.027 Y121.152 E0.05093 ; infill
G1 X118.348 Y102.473 E1.77045 ; infill
G1 X117.588 Y102.473 E0.05093 ; infill
G1 X137.027 Y121.912 E1.84248 ; infill
G1 X137.027 Y122.672 E0.05093 ; infill
G1 X116.828 Y102.473 E1.91450 ; infill
G1 X116.068 Y102.473 E0.05093 ; infill
G1 X137.027 Y123.432 E1.98653 ; infill
G1 X137.027 Y124.192 E0.05093 ; infill
G1 X115.308 Y102.473 E2.05856 ; infill
G1 X114.548 Y102.473 E0.05093 ; infill
G1 X137.027 Y124.951 E2.13059 ; infill
G1 X137.027 Y125.711 E0.05093 ; infill
G1 X113.789 Y102.473 E2.20262 ; infill
G1 X113.029 Y102.473 E0.05093 ; infill
G1 X137.021 Y126.465 E2.27407 ; infill
G1 X136.979 Y126.894 E0.02885 ; infill
G1 X136.911 Y127.116 E0.01555 ; infill
G1 X112.269 Y102.473 E2.33572 ; infill
G1 X111.509 Y102.473 E0.05093 ; infill
G1 X136.668 Y127.632 E2.38469 ; infill
G1 X136.427 Y127.927 E0.02552 ; infill
G1 X136.304 Y128.028 E0.01067 ; infill
G1 X110.749 Y102.473 E2.42216 ; infill
G1 X109.989 Y102.473 E0.05093 ; infill
G1 X135.842 Y128.326 E2.45047 ; infill
G1 X135.772 Y128.364 E0.00534 ; infill
G1 X135.394 Y128.479 E0.02651 ; infill
G1 X135.249 Y128.493 E0.00974 ; infill
G1 X109.229 Y102.473 E2.46627 ; infill
