; generated by PrusaSlicer 2.2.0-rc+ on 2020-03-10 at 09:55:27 UTC

; 

; external perimeters extrusion width = 0.45mm
; perimeters extrusion width = 0.45mm
; infill extrusion width = 0.45mm
; solid infill extrusion width = 0.45mm
; top infill extrusion width = 0.40mm
; first layer extrusion width = 0.42mm

; external perimeters extrusion width = 0.45mm
; perimeters extrusion width = 0.45mm
; infill extrusion width = 0.45mm
; solid infill extrusion width = 0.45mm
; top infill extrusion width = 0.40mm
; first layer extrusion width = 0.42mm

; external perimeters extrusion width = 0.45mm
; perimeters extrusion width = 0.45mm
; infill extrusion width = 0.45mm
; solid infill extrusion width = 0.45mm
; top infill extrusion width = 0.40mm
; first layer extrusion width = 0.42mm

; external perimeters extrusion width = 0.45mm
; perimeters extrusion width = 0.45mm
; infill extrusion width = 0.45mm
; solid infill extrusion width = 0.45mm
; top infill extrusion width = 0.40mm
; first layer extrusion width = 0.42mm

M73 P0 R50
M73 Q0 S50
M201 X1000 Y1000 Z1000 E8000 ; sets maximum accelerations, mm/sec^2
M203 X200 Y200 Z12 E120 ; sets maximum feedrates, mm/sec
M204 P1250 R1250 T1250 ; sets acceleration (P, T) and retract acceleration (R), mm/sec^2
M205 X8.00 Y8.00 Z0.40 E4.50 ; sets the jerk limits, mm/sec
M205 S0 T0 ; sets the minimum extruding and travel feed rate, mm/sec
M107
M862.3 P "MK3SMMU2S" ; printer model check
M862.1 P0.4 ; nozzle diameter check
M115 U3.8.1 ; tell printer latest fw version
G90 ; use absolute coordinates
M83 ; extruder relative mode
M104 S215 ; set extruder temp
M140 S60 ; set bed temp
M190 S60 ; wait for bed temp
M109 S215 ; wait for extruder temp
G28 W ; home all without mesh bed level
G80 ; mesh bed leveling

; Send the filament type to the MMU2.0 unit.
; E stands for extruder number, F stands for filament type (0: default; 1:flex; 2: PVA)
M403 E0 F0
M403 E1 F0
M403 E2 F0
M403 E3 F0
M403 E4 F0


;go outside print area
G1 Y-3.0 F1000.0
G1 Z0.4 F1000.0
; select extruder
T0
; initial load
G1 X55.0 E29.0 F1073.0
M73 Q0 S50
M73 P0 R50
G1 X5.0 E29.0 F1800.0
G1 X55.0 E8.0 F2000.0
G1 Z0.3 F1000.0
G92 E0.0
G1 X240.0 E25.0 F2200.0
G1 Y-2.0 F1000.0
G1 X55.0 E25 F1400.0
G1 Z0.20 F1000.0
G1 X5.0 E4.0 F1000.0
G92 E0.0


M221 S95
G92 E0.0
G21 ; set units to millimeters
G90 ; use absolute coordinates
M83 ; use relative distances for extrusion
T0
M104 S215 ; set temperature
M900 K30; Filament gcode
;BEFORE_LAYER_CHANGE
G92 E0.0
;0.2


G1 E-0.80000 F2100.00000
G1 Z0.600 F10800.000
;AFTER_LAYER_CHANGE
;0.2
G1 X13.983 Y128.132
G1 Z0.200
G1 E0.80000 F2100.00000
M204 S1000
G1 F1200.000
G1 X14.765 Y127.556 E0.02891
G1 X15.489 Y127.265 E0.02325
G1 X16.402 Y127.138 E0.02746
G1 X87.421 Y127.138 E2.11541
G1 X88.029 Y127.192 E0.01817
G1 X88.660 Y127.370 E0.01954
G1 X89.345 Y127.722 E0.02294
G1 X89.854 Y128.135 E0.01953
G1 X90.255 Y128.605 E0.01839
G1 X90.577 Y129.167 E0.01930
G1 X90.819 Y129.903 E0.02308
G1 X90.893 Y130.523 E0.01861
G1 X90.892 Y166.725 E1.07832
G1 X90.731 Y167.668 E0.02848
G1 X90.330 Y168.510 E0.02779
G1 X89.807 Y169.139 E0.02436
G1 X89.070 Y169.674 E0.02713
G1 X88.345 Y169.964 E0.02325
G1 X87.429 Y170.092 E0.02757
G1 X16.372 Y170.091 E2.11655
G1 X15.449 Y169.953 E0.02780
G1 X14.686 Y169.628 E0.02471
G1 X13.937 Y169.052 E0.02813
G1 X13.359 Y168.267 E0.02904
G1 X13.069 Y167.547 E0.02313
G1 X12.940 Y166.641 E0.02724
G1 X12.942 Y130.535 E1.07549
G1 X13.084 Y129.628 E0.02735
G1 X13.410 Y128.873 E0.02448
G1 X13.947 Y128.179 E0.02613
G1 F8640.000
G1 X14.765 Y127.556 E-0.23746
G1 X15.489 Y127.265 E-0.18025
G1 X16.402 Y127.138 E-0.21289
G1 X16.963 Y127.138 E-0.12940
G1 E-0.04000 F2100.00000
G1 Z0.800 F10800.000
G1 X41.669 Y147.195
G1 Z0.200
G1 E0.80000 F2100.00000
G1 F1200.000
G1 X41.801 Y147.142 E0.00424
G1 X42.055 Y147.086 E0.00775
G1 X42.465 Y147.044 E0.01228
G1 X42.924 Y147.034 E0.01367
G1 X43.425 Y147.055 E0.01494
G1 X43.979 Y147.112 E0.01658
G1 X44.614 Y147.216 E0.01917
G1 X45.135 Y147.335 E0.01592
G1 X45.529 Y147.461 E0.01231
G1 X45.733 Y147.550 E0.00664
G1 X45.737 Y147.754 E0.00608
G1 X44.799 Y147.563 E0.02853
G1 X44.187 Y147.481 E0.01838
G1 X42.193 Y147.294 E0.05966
G1 X41.727 Y147.207 E0.01411
G1 F8640.000
G1 X41.801 Y147.142 E-0.02267
G1 X42.055 Y147.086 E-0.06004
G1 X42.465 Y147.044 E-0.09516
G1 X42.924 Y147.034 E-0.10599
G1 X43.425 Y147.055 E-0.11584
G1 X43.979 Y147.112 E-0.12856
G1 X44.614 Y147.216 E-0.14858
G1 X44.965 Y147.296 E-0.08317
G1 E-0.04000 F2100.00000
G1 Z0.800 F10800.000
G1 X40.260 Y150.072
G1 Z0.200
G1 E0.80000 F2100.00000
G1 F1200.000
G1 X40.835 Y150.227 E0.01775
G1 X41.431 Y150.343 E0.01808
G1 X44.091 Y150.636 E0.07973
G1 X44.644 Y150.729 E0.01671
G1 X44.827 Y150.779 E0.00563
G1 X44.685 Y150.906 E0.00567
G1 X44.492 Y150.996 E0.00634
G1 X44.205 Y151.076 E0.00889
G1 X43.759 Y151.141 E0.01343
G1 X43.199 Y151.170 E0.01670
G1 X42.665 Y151.158 E0.01590
G1 X42.171 Y151.106 E0.01481
G1 X41.646 Y151.006 E0.01590
G1 X41.110 Y150.861 E0.01655
G1 X40.658 Y150.695 E0.01432
G1 X40.290 Y150.513 E0.01223
G1 X40.150 Y150.418 E0.00505
G1 X40.183 Y150.043 E0.01123
G1 X40.204 Y150.051 E0.00067
G1 F8640.000
G1 X40.835 Y150.227 E-0.15134
G1 X41.431 Y150.343 E-0.14015
G1 X43.448 Y150.565 E-0.46851
G1 E-0.04000 F2100.00000
G1 Z0.800 F10800.000
G1 X65.917 Y147.587
G1 Z0.200
G1 E0.80000 F2100.00000
G1 F1200.000
G1 X65.917 Y147.418 E0.00503
G1 X68.434 Y147.419 E0.07498
G1 X68.376 Y147.583 E0.00519
G1 X65.977 Y147.587 E0.07146
G1 F8640.000
G1 X65.917 Y147.418 E-0.04134
G1 X68.434 Y147.419 E-0.58122
G1 X68.376 Y147.583 E-0.04025
G1 X67.955 Y147.584 E-0.09719
G1 E-0.04000 F2100.00000
G1 Z0.800 F10800.000
G1 X65.972 Y150.619
G1 Z0.200
G1 E0.80000 F2100.00000
G1 F1200.000
G1 X68.376 Y150.622 E0.07160
G1 X68.502 Y150.979 E0.01126
G1 X65.917 Y150.980 E0.07701
G1 X65.917 Y150.623 E0.01061
G1 F8640.000
G1 X68.376 Y150.622 E-0.56782
G1 X68.502 Y150.979 E-0.08731
G1 X68.048 Y150.979 E-0.10487
G1 E-0.04000 F2100.00000
G1 Z0.800 F10800.000
G1 X74.526 Y150.418
G1 Z0.200
G1 E0.80000 F2100.00000
G1 F1200.000
G1 X74.558 Y150.044 E0.01117
G1 X75.211 Y150.227 E0.02020
G1 X75.807 Y150.343 E0.01808
G1 X78.467 Y150.636 E0.07973
G1 X79.020 Y150.729 E0.01670
G1 X79.203 Y150.779 E0.00563
G1 X79.061 Y150.906 E0.00567
G1 X78.868 Y150.996 E0.00634
G1 X78.581 Y151.076 E0.00889
G1 X78.135 Y151.141 E0.01343
G1 X77.575 Y151.170 E0.01670
G1 X77.041 Y151.158 E0.01590
G1 X76.546 Y151.106 E0.01481
G1 X76.022 Y151.006 E0.01590
G1 X75.486 Y150.861 E0.01655
G1 X75.034 Y150.695 E0.01432
G1 X74.576 Y150.452 E0.01548
G1 F8640.000
G1 X74.558 Y150.044 E-0.09414
G1 X75.211 Y150.227 E-0.15661
G1 X75.807 Y150.343 E-0.14015
G1 X77.396 Y150.518 E-0.36910
G1 E-0.04000 F2100.00000
G1 Z0.800 F10800.000
G1 X76.044 Y147.195
G1 Z0.200
G1 E0.80000 F2100.00000
G1 F1200.000
G1 X76.177 Y147.142 E0.00425
G1 X76.431 Y147.086 E0.00774
G1 X76.841 Y147.044 E0.01227
G1 X77.300 Y147.034 E0.01367
G1 X77.801 Y147.055 E0.01494
G1 X78.355 Y147.112 E0.01659
G1 X78.990 Y147.216 E0.01916
G1 X79.511 Y147.335 E0.01593
G1 X79.905 Y147.461 E0.01231
G1 X80.109 Y147.550 E0.00664
G1 X80.113 Y147.754 E0.00608
G1 X79.175 Y147.563 E0.02853
G1 X78.563 Y147.481 E0.01838
G1 X76.569 Y147.294 E0.05966
G1 X76.103 Y147.207 E0.01412
G1 F8640.000
G1 X76.177 Y147.142 E-0.02272
G1 X76.431 Y147.086 E-0.06002
G1 X76.841 Y147.044 E-0.09515
G1 X77.300 Y147.034 E-0.10599
G1 X77.801 Y147.055 E-0.11584
G1 X78.355 Y147.112 E-0.12858
G1 X78.990 Y147.216 E-0.14856
G1 X79.341 Y147.296 E-0.08314
G1 E-0.04000 F2100.00000
G1 Z0.800 F10800.000
G1 X60.542 Y145.547
G1 Z0.200
G1 E0.80000 F2100.00000
G1 F1200.000
G1 X60.076 Y145.621 E0.01405
G1 X60.076 Y152.840 E0.21502
G1 X60.542 Y152.915 E0.01406
G1 X60.542 Y154.202 E0.03834
G1 X55.940 Y154.202 E0.13708
G1 X55.940 Y152.915 E0.03834
G1 X56.404 Y152.840 E0.01399
G1 X56.405 Y150.618 E0.06620
G1 X53.254 Y150.618 E0.09385
G1 X53.256 Y152.840 E0.06620
G1 X53.720 Y152.915 E0.01399
G1 X53.720 Y154.202 E0.03834
G1 X49.118 Y154.202 E0.13708
G1 X49.118 Y152.915 E0.03834
G1 X49.583 Y152.840 E0.01405
G1 X49.584 Y145.622 E0.21502
G1 X49.118 Y145.547 E0.01406
G1 X49.118 Y144.260 E0.03834
G1 X53.720 Y144.260 E0.13708
G1 X53.720 Y145.549 E0.03840
G1 X53.257 Y145.620 E0.01395
G1 X53.255 Y147.396 E0.05288
G1 X56.405 Y147.396 E0.09384
G1 X56.403 Y145.620 E0.05288
G1 X55.940 Y145.549 E0.01395
G1 X55.940 Y144.260 E0.03840
G1 X60.542 Y144.260 E0.13708
G1 X60.542 Y145.487 E0.03656
G1 X60.165 Y145.225 F10800.000
G1 F1200.000
G1 X59.783 Y145.286 E0.01151
G1 X59.714 Y145.312 E0.00220
G1 X59.699 Y145.359 E0.00147
G1 X59.699 Y153.092 E0.23034
G1 X59.715 Y153.150 E0.00180
G1 X59.783 Y153.175 E0.00216
G1 X60.165 Y153.236 E0.01151
G1 X60.165 Y153.825 E0.01753
G1 X56.317 Y153.825 E0.11462
G1 X56.317 Y153.236 E0.01753
G1 X56.699 Y153.175 E0.01154
G1 X56.768 Y153.150 E0.00217
G1 X56.780 Y153.120 E0.00097
G1 X56.783 Y150.241 E0.08577
G1 X52.877 Y150.241 E0.11633
G1 X52.879 Y153.120 E0.08577
G1 X52.892 Y153.150 E0.00097
G1 X52.960 Y153.175 E0.00217
G1 X53.343 Y153.236 E0.01154
G1 X53.343 Y153.825 E0.01753
G1 X49.495 Y153.825 E0.11462
G1 X49.495 Y153.236 E0.01753
G1 X49.876 Y153.175 E0.01151
G1 X49.946 Y153.150 E0.00220
G1 X49.961 Y153.102 E0.00147
G1 X49.961 Y145.364 E0.23051
G1 X49.944 Y145.311 E0.00163
G1 X49.876 Y145.286 E0.00216
G1 X49.495 Y145.225 E0.01151
G1 X49.495 Y144.637 E0.01753
G1 X53.343 Y144.637 E0.11462
G1 X53.343 Y145.226 E0.01754
G1 X52.972 Y145.283 E0.01118
G1 X52.891 Y145.311 E0.00255
G1 X52.880 Y145.335 E0.00077
G1 X52.877 Y147.773 E0.07263
G1 X56.782 Y147.773 E0.11633
G1 X56.779 Y145.335 E0.07263
G1 X56.769 Y145.311 E0.00077
G1 X56.688 Y145.283 E0.00256
G1 X56.317 Y145.226 E0.01118
G1 X56.317 Y144.637 E0.01754
G1 X60.165 Y144.637 E0.11462
G1 X60.165 Y145.165 E0.01575
G1 X60.376 Y145.549 F10800.000
G1 F8640.000
G1 X59.783 Y145.286 E-0.09241
G1 X59.714 Y145.312 E-0.01708
G1 X59.699 Y145.359 E-0.01142
G1 X59.699 Y148.127 E-0.63910
G1 E-0.04000 F2100.00000
G1 Z0.800 F10800.000
G1 X48.487 Y144.975
G1 Z0.200
G1 E0.80000 F2100.00000
G1 F1200.000
G1 X46.887 Y148.189 E0.10694
G1 X47.234 Y148.401 E0.01211
G1 X47.613 Y148.727 E0.01488
G1 X47.955 Y149.148 E0.01614
G1 X48.187 Y149.582 E0.01468
G1 X48.324 Y150.039 E0.01420
G1 X48.388 Y150.617 E0.01733
G1 X48.359 Y151.165 E0.01633
G1 X48.233 Y151.718 E0.01692
G1 X48.023 Y152.230 E0.01648
G1 X47.775 Y152.617 E0.01368
G1 X47.465 Y152.965 E0.01391
G1 X47.090 Y153.282 E0.01460
G1 X46.649 Y153.558 E0.01551
G1 X46.194 Y153.770 E0.01495
G1 X45.638 Y153.962 E0.01751
G1 X45.137 Y154.088 E0.01541
G1 X44.521 Y154.187 E0.01858
G1 X43.922 Y154.242 E0.01792
G1 X43.277 Y154.265 E0.01921
G1 X42.480 Y154.256 E0.02376
G1 X41.788 Y154.216 E0.02065
G1 X40.987 Y154.119 E0.02402
G1 X40.185 Y153.964 E0.02431
G1 X39.534 Y153.783 E0.02015
G1 X38.814 Y153.530 E0.02273
G1 X38.539 Y153.772 E0.01092
G1 X37.377 Y153.482 E0.03566
G1 X39.045 Y149.488 E0.12891
G1 X38.800 Y149.297 E0.00926
G1 X38.566 Y149.072 E0.00968
G1 X38.365 Y148.805 E0.00994
G1 X38.226 Y148.545 E0.00878
G1 X38.099 Y148.173 E0.01172
G1 X38.032 Y147.719 E0.01365
G1 X38.039 Y147.259 E0.01371
G1 X38.112 Y146.810 E0.01355
G1 X38.253 Y146.384 E0.01336
G1 X38.438 Y146.021 E0.01215
G1 X38.692 Y145.660 E0.01315
G1 X38.996 Y145.334 E0.01326
G1 X39.346 Y145.048 E0.01348
G1 X39.738 Y144.801 E0.01379
G1 X40.127 Y144.610 E0.01292
G1 X40.591 Y144.436 E0.01475
G1 X41.093 Y144.297 E0.01551
G1 X41.574 Y144.207 E0.01458
G1 X42.076 Y144.152 E0.01503
G1 X42.602 Y144.131 E0.01570
G1 X43.599 Y144.168 E0.02971
G1 X44.555 Y144.295 E0.02872
G1 X45.536 Y144.497 E0.02981
G1 X47.002 Y144.892 E0.04524
G1 X47.329 Y144.558 E0.01392
G1 X48.430 Y144.955 E0.03486
G1 X47.960 Y145.186 F10800.000
G1 F1200.000
G1 X46.614 Y147.893 E0.09005
G1 X46.112 Y147.642 E0.01670
G1 X46.106 Y147.358 E0.00845
G1 X46.083 Y147.324 E0.00122
G1 X45.932 Y147.225 E0.00538
G1 X45.662 Y147.107 E0.00879
G1 X45.234 Y146.971 E0.01335
G1 X44.686 Y146.845 E0.01674
G1 X44.029 Y146.738 E0.01986
G1 X43.452 Y146.678 E0.01727
G1 X42.927 Y146.657 E0.01565
G1 X42.442 Y146.668 E0.01447
G1 X41.995 Y146.713 E0.01337
G1 X41.690 Y146.780 E0.00931
G1 X41.469 Y146.868 E0.00707
G1 X41.262 Y147.009 E0.00746
G1 X41.156 Y147.131 E0.00482
G1 X41.127 Y147.225 E0.00291
G1 X41.143 Y147.319 E0.00284
G1 X41.193 Y147.389 E0.00258
G1 X41.306 Y147.464 E0.00402
G1 X41.576 Y147.562 E0.00858
G1 X42.141 Y147.668 E0.01710
G1 X44.145 Y147.855 E0.05995
G1 X44.740 Y147.936 E0.01789
G1 X45.287 Y148.035 E0.01656
G1 X45.825 Y148.162 E0.01646
G1 X46.229 Y148.295 E0.01267
G1 X46.637 Y148.479 E0.01333
G1 X47.012 Y148.707 E0.01308
G1 X47.342 Y148.991 E0.01295
G1 X47.639 Y149.357 E0.01406
G1 X47.837 Y149.727 E0.01248
G1 X47.953 Y150.114 E0.01205
G1 X48.010 Y150.628 E0.01539
G1 X47.984 Y151.112 E0.01445
G1 X47.872 Y151.604 E0.01503
G1 X47.687 Y152.056 E0.01453
G1 X47.474 Y152.388 E0.01177
G1 X47.201 Y152.695 E0.01222
G1 X46.868 Y152.977 E0.01301
G1 X46.469 Y153.226 E0.01401
G1 X46.052 Y153.420 E0.01368
G1 X45.531 Y153.600 E0.01644
G1 X45.061 Y153.718 E0.01444
G1 X44.474 Y153.813 E0.01771
G1 X43.898 Y153.865 E0.01722
G1 X43.273 Y153.888 E0.01864
G1 X42.493 Y153.879 E0.02324
G1 X41.821 Y153.840 E0.02003
G1 X41.046 Y153.746 E0.02328
G1 X40.272 Y153.597 E0.02347
G1 X39.647 Y153.424 E0.01930
G1 X38.939 Y153.173 E0.02239
G1 X38.755 Y153.125 E0.00566
G1 X38.702 Y153.126 E0.00158
G1 X38.438 Y153.358 E0.01046
G1 X37.894 Y153.222 E0.01670
G1 X39.307 Y149.839 E0.10920
G1 X39.801 Y150.086 E0.01643
G1 X39.761 Y150.542 E0.01363
G1 X39.777 Y150.584 E0.00135
G1 X39.875 Y150.687 E0.00424
G1 X40.100 Y150.840 E0.00810
G1 X40.509 Y151.042 E0.01360
G1 X40.995 Y151.221 E0.01542
G1 X41.562 Y151.373 E0.01747
G1 X42.115 Y151.479 E0.01679
G1 X42.641 Y151.535 E0.01575
G1 X43.204 Y151.548 E0.01678
G1 X43.796 Y151.517 E0.01765
G1 X44.283 Y151.446 E0.01467
G1 X44.624 Y151.351 E0.01053
G1 X44.881 Y151.231 E0.00845
G1 X45.062 Y151.094 E0.00677
G1 X45.192 Y150.920 E0.00648
G1 X45.248 Y150.751 E0.00530
G1 X45.249 Y150.584 E0.00496
G1 X45.218 Y150.539 E0.00163
G1 X45.074 Y150.455 E0.00497
G1 X44.725 Y150.360 E0.01076
G1 X44.143 Y150.262 E0.01758
G1 X41.488 Y149.970 E0.07958
G1 X40.920 Y149.859 E0.01722
G1 X40.377 Y149.713 E0.01676
G1 X39.782 Y149.484 E0.01900
G1 X39.266 Y149.182 E0.01781
G1 X39.047 Y149.012 E0.00825
G1 X38.849 Y148.821 E0.00819
G1 X38.684 Y148.601 E0.00818
G1 X38.573 Y148.394 E0.00701
G1 X38.467 Y148.083 E0.00978
G1 X38.409 Y147.694 E0.01171
G1 X38.415 Y147.293 E0.01197
G1 X38.479 Y146.900 E0.01184
G1 X38.602 Y146.530 E0.01161
G1 X38.762 Y146.216 E0.01051
G1 X38.985 Y145.898 E0.01158
G1 X39.254 Y145.610 E0.01172
G1 X39.567 Y145.354 E0.01204
G1 X39.922 Y145.131 E0.01250
G1 X40.277 Y144.957 E0.01179
G1 X40.708 Y144.795 E0.01371
G1 X41.178 Y144.664 E0.01453
G1 X41.629 Y144.580 E0.01367
G1 X42.104 Y144.528 E0.01422
G1 X42.603 Y144.509 E0.01488
G1 X43.567 Y144.545 E0.02875
G1 X44.492 Y144.667 E0.02779
G1 X45.447 Y144.863 E0.02903
G1 X46.728 Y145.220 E0.03960
G1 X46.977 Y145.272 E0.00759
G1 X47.152 Y145.254 E0.00524
G1 X47.224 Y145.204 E0.00262
G1 X47.429 Y144.995 E0.00873
G1 X47.904 Y145.166 E0.01503
G1 X48.343 Y145.304 F10800.000
G1 F8640.000
G1 X46.614 Y147.893 E-0.69657
G1 X46.368 Y147.770 E-0.06343
G1 E-0.04000 F2100.00000
G1 Z0.800 F10800.000
G1 X32.113 Y144.260
G1 Z0.200
G1 E0.80000 F2100.00000
G1 F1200.000
G1 X36.715 Y144.260 E0.13709
G1 X36.715 Y145.547 E0.03834
G1 X36.250 Y145.621 E0.01405
G1 X36.249 Y152.840 E0.21502
G1 X36.715 Y152.915 E0.01406
G1 X36.715 Y154.202 E0.03834
G1 X32.113 Y154.202 E0.13709
G1 X32.113 Y152.915 E0.03834
G1 X32.579 Y152.840 E0.01405
G1 X32.579 Y145.622 E0.21502
G1 X32.113 Y145.547 E0.01406
G1 X32.113 Y144.320 E0.03656
G1 X32.490 Y144.637 F10800.000
G1 F1200.000
G1 X36.338 Y144.637 E0.11462
G1 X36.338 Y145.225 E0.01753
G1 X35.957 Y145.286 E0.01151
G1 X35.887 Y145.312 E0.00220
G1 X35.873 Y145.359 E0.00147
G1 X35.872 Y153.092 E0.23034
G1 X35.889 Y153.150 E0.00180
G1 X35.957 Y153.175 E0.00216
G1 X36.338 Y153.236 E0.01151
G1 X36.338 Y153.825 E0.01753
G1 X32.490 Y153.825 E0.11462
G1 X32.490 Y153.236 E0.01753
G1 X32.872 Y153.175 E0.01151
G1 X32.941 Y153.150 E0.00220
