;FLAVOR:RepRap
;TIME:479
;Filament used: 0.24639m
;Layer height: 0.1
;Generated with Cura_SteamEngine 2.6.0
M190 S60
M104 S200
M109 S200
G21 ;metric values
G90 ;absolute positioning
M82 ;set extruder to absolute mode
M107 ;start with the fan off
G28 X0 Y0 ;move X/Y to min endstops
G28 Z0 ;move Z to min endstops
G1 Z15.0 F9000 ;move the platform down 15mm
G92 E0 ;zero the extruded length
G1 F200 E3 ;extrude 3mm of feed stock
G92 E0 ;zero the extruded length again
G1 F9000
;Put printing message on LCD screen
M117 Printing...
;LAYER_COUNT:17
;LAYER:0
M107
G0 F3600 X90.441 Y83.492 Z0.3
;TYPE:WALL-INNER
G1 F1800 X91.27 Y82.742 E0.05577
G1 X92.17 Y82.075 E0.11166
G1 X93.124 Y81.503 E0.16716
G1 X94.143 Y81.021 E0.22339
G1 X95.193 Y80.645 E0.27904
G1 X96.274 Y80.375 E0.33462
G1 X97.382 Y80.21 E0.39051
G1 X98.513 Y80.154 E0.44701
G1 X99.613 Y80.209 E0.50196
G1 X100.731 Y80.375 E0.55834
G1 X101.812 Y80.645 E0.61393
G1 X102.862 Y81.021 E0.66957
G1 X103.881 Y81.503 E0.72581
G1 X104.835 Y82.075 E0.78131
G1 X105.735 Y82.742 E0.8372
G1 X106.564 Y83.492 E0.89297
G1 X107.314 Y84.321 E0.94874
G1 X107.983 Y85.224 E1.00481
G1 X108.553 Y86.175 E1.06012
G1 X109.035 Y87.194 E1.11636
G1 X109.41 Y88.24 E1.1718
G1 X109.681 Y89.325 E1.22759
G1 X109.847 Y90.443 E1.28398
G1 X109.902 Y91.543 E1.33893
G1 X109.846 Y92.674 E1.39543
G1 X109.681 Y93.782 E1.45131
G1 X109.411 Y94.863 E1.5069
G1 X109.035 Y95.913 E1.56254
G1 X108.553 Y96.932 E1.61878
G1 X107.983 Y97.883 E1.6741
G1 X107.314 Y98.786 E1.73017
G1 X106.564 Y99.615 E1.78594
G1 X105.735 Y100.365 E1.84171
G1 X104.835 Y101.032 E1.8976
G1 X103.881 Y101.604 E1.95309
G1 X102.862 Y102.086 E2.00933
G1 X101.812 Y102.462 E2.06498
G1 X100.731 Y102.732 E2.12056
G1 X99.623 Y102.897 E2.17645
G1 X99.155 Y102.92 E2.19983
G1 X98.987 Y102.927 E2.20822
G1 X98.676 Y102.943 E2.22375
G1 X98.503 Y102.952 E2.2324
G1 X98.345 Y102.945 E2.24029
G1 X98.173 Y102.937 E2.24888
G1 X98.02 Y102.929 E2.25652
G1 X97.857 Y102.921 E2.26466
G1 X97.846 Y102.921 E2.26521
G1 X97.382 Y102.897 E2.28839
G1 X96.274 Y102.732 E2.34428
G1 X95.193 Y102.462 E2.39987
G1 X94.143 Y102.086 E2.45551
G1 X93.124 Y101.604 E2.51175
G1 X92.17 Y101.032 E2.56724
G1 X91.27 Y100.365 E2.62313
G1 X90.441 Y99.615 E2.6789
G1 X89.691 Y98.786 E2.73468
G1 X89.022 Y97.883 E2.79074
G1 X88.452 Y96.932 E2.84606
G1 X87.97 Y95.913 E2.9023
G1 X87.594 Y94.863 E2.95794
G1 X87.324 Y93.782 E3.01353
G1 X87.159 Y92.674 E3.06942
G1 X87.104 Y91.553 E3.12541
G1 X87.159 Y90.433 E3.18135
G1 X87.324 Y89.325 E3.23724
G1 X87.595 Y88.24 E3.29304
G1 X87.97 Y87.194 E3.34847
G1 X88.452 Y86.175 E3.40471
G1 X89.022 Y85.224 E3.46003
G1 X89.691 Y84.321 E3.5161
G1 X90.441 Y83.492 E3.57187
G0 F3600 X90.511 Y83.562
G0 X97.81 Y99.499
G0 X97.85 Y99.59
G1 F1800 X97.59 Y99.738 E3.58679
G1 X97.45 Y99.848 E3.59568
G1 X97.299 Y99.999 E3.60633
G1 X97.195 Y100.13 E3.61468
G1 X97.112 Y100.265 E3.62258
G1 X97.042 Y100.402 E3.63026
G1 X96.986 Y100.547 E3.63801
G1 X96.944 Y100.697 E3.64578
G1 X96.915 Y100.858 E3.65395
G1 X96.904 Y101.059 E3.66399
G1 X96.909 Y101.221 E3.67207
G1 X96.97 Y101.52 E3.6873
G1 X97.089 Y101.808 E3.70285
G1 X97.254 Y102.057 E3.71775
G1 X97.381 Y102.197 E3.72718
G1 X97.614 Y102.387 E3.74218
G1 X97.867 Y102.521 E3.75646
G1 X97.876 Y102.526 E3.75697
G1 X98.037 Y102.585 E3.76477
G1 X98.188 Y102.623 E3.76825
G1 X98.358 Y102.649 E3.77303
G1 X98.503 Y102.649 E3.77471
G1 X98.661 Y102.649 E3.77968
G1 X98.97 Y102.586 E3.79246
G1 X99.125 Y102.522 E3.80021
G1 X99.244 Y102.472 E3.80665
G1 X99.403 Y102.377 E3.81589
G1 X99.624 Y102.197 E3.83011
G1 X99.751 Y102.057 E3.83954
G1 X99.908 Y101.82 E3.85373
G1 X99.981 Y101.667 E3.86218
G1 X100.034 Y101.518 E3.87007
G1 X100.072 Y101.368 E3.87779
G1 X100.098 Y101.2 E3.88627
G1 X100.1 Y100.949 E3.8988
G1 X100.079 Y100.769 E3.90784
G1 X99.999 Y100.481 E3.92275
G1 X99.858 Y100.201 E3.93839
G1 X99.67 Y99.955 E3.95384
G1 X99.489 Y99.794 E3.96592
G1 X99.345 Y99.693 E3.9747
G1 X99.088 Y99.564 E3.98905
G1 X98.927 Y99.512 E3.99749
G1 X98.777 Y99.478 E4.00516
G1 X98.62 Y99.458 E4.01306
G1 X98.447 Y99.453 E4.02169
G1 X98.148 Y99.491 E4.03673
G1 X97.85 Y99.59 E4.05239
G0 F3600 X98.014 Y99.957
;TYPE:WALL-OUTER
G1 F1800 X97.814 Y100.071 E4.06388
G1 X97.716 Y100.148 E4.0701
G1 X97.598 Y100.266 E4.07842
G1 X97.523 Y100.36 E4.08442
G1 X97.461 Y100.461 E4.09033
G1 X97.408 Y100.565 E4.09616
G1 X97.366 Y100.674 E4.10199
G1 X97.334 Y100.787 E4.10784
G1 X97.313 Y100.905 E4.11382
G1 X97.304 Y101.063 E4.12172
G1 X97.308 Y101.174 E4.12726
G1 X97.354 Y101.403 E4.13891
G1 X97.444 Y101.619 E4.15059
G1 X97.571 Y101.811 E4.16207
G1 X97.657 Y101.906 E4.16847
G1 X97.836 Y102.052 E4.17999
G1 X98.039 Y102.16 E4.19146
G1 X98.154 Y102.202 E4.19757
G1 X98.267 Y102.23 E4.20338
G1 X98.389 Y102.249 E4.20954
G1 X98.621 Y102.249 E4.22111
G1 X98.852 Y102.202 E4.23287
G1 X99.064 Y102.114 E4.24433
G1 X99.173 Y102.049 E4.25066
G1 X99.348 Y101.906 E4.26193
G1 X99.434 Y101.811 E4.26833
G1 X99.559 Y101.623 E4.27959
G1 X99.611 Y101.513 E4.28566
G1 X99.651 Y101.402 E4.29155
G1 X99.679 Y101.289 E4.29735
G1 X99.698 Y101.167 E4.30351
G1 X99.7 Y100.971 E4.31329
G1 X99.685 Y100.846 E4.31957
G1 X99.624 Y100.625 E4.33101
G1 X99.518 Y100.414 E4.34279
G1 X99.376 Y100.229 E4.35443
G1 X99.24 Y100.108 E4.36351
G1 X99.139 Y100.037 E4.36967
G1 X98.936 Y99.935 E4.381
G1 X98.821 Y99.898 E4.38703
G1 X98.707 Y99.872 E4.39286
G1 X98.59 Y99.857 E4.39875
G1 X98.467 Y99.854 E4.40489
G1 X98.237 Y99.883 E4.41645
G1 X98.014 Y99.957 E4.42817
G0 F3600 X97.841 Y100.056
G0 X97.595 Y99.621
G0 X97.078 Y100.246
G0 X96.876 Y100.854
G0 X96.932 Y101.531
G0 X97.391 Y102.798
G0 X97.344 Y103.296
G1 F1800 X96.2 Y103.126 E4.48587
G1 X95.072 Y102.844 E4.54388
G1 X93.99 Y102.457 E4.60121
G1 X92.937 Y101.959 E4.65933
G1 X91.952 Y101.368 E4.71664
G1 X91.013 Y100.672 E4.77495
G1 X90.158 Y99.898 E4.83249
G1 X89.384 Y99.043 E4.89002
G1 X88.686 Y98.101 E4.94852
G1 X88.097 Y97.119 E5.00565
G1 X87.599 Y96.066 E5.06376
G1 X87.212 Y94.984 E5.12109
G1 X86.93 Y93.856 E5.1791
G1 X86.76 Y92.712 E5.2368
G1 X86.703 Y91.553 E5.29469
G1 X86.76 Y90.395 E5.35253
G1 X86.93 Y89.251 E5.41024
G1 X87.213 Y88.119 E5.46845
G1 X87.599 Y87.041 E5.52557
G1 X88.097 Y85.988 E5.58369
G1 X88.686 Y85.006 E5.64082
G1 X89.384 Y84.064 E5.69931
G1 X90.158 Y83.209 E5.75685
G1 X91.013 Y82.435 E5.81439
G1 X91.952 Y81.739 E5.8727
G1 X92.937 Y81.148 E5.93001
G1 X93.99 Y80.65 E5.98812
G1 X95.072 Y80.263 E6.04545
G1 X96.2 Y79.981 E6.10346
G1 X97.344 Y79.811 E6.16116
G1 X98.503 Y79.753 E6.21905
G1 X99.661 Y79.811 E6.2769
G1 X100.805 Y79.981 E6.3346
G1 X101.933 Y80.263 E6.39261
G1 X103.015 Y80.65 E6.44994
G1 X104.068 Y81.148 E6.50805
G1 X105.053 Y81.739 E6.56536
G1 X105.992 Y82.435 E6.62367
G1 X106.847 Y83.209 E6.68121
G1 X107.621 Y84.064 E6.73875
G1 X108.319 Y85.006 E6.79724
G1 X108.908 Y85.988 E6.85437
G1 X109.406 Y87.041 E6.91249
G1 X109.792 Y88.119 E6.96961
G1 X110.075 Y89.251 E7.02782
G1 X110.245 Y90.395 E7.08553
G1 X110.303 Y91.553 E7.14337
G1 X110.245 Y92.712 E7.20127
G1 X110.075 Y93.856 E7.25897
G1 X109.793 Y94.984 E7.31698
G1 X109.406 Y96.066 E7.37431
G1 X108.908 Y97.119 E7.43242
G1 X108.319 Y98.101 E7.48955
G1 X107.621 Y99.043 E7.54804
G1 X106.847 Y99.898 E7.60558
G1 X105.992 Y100.672 E7.66312
G1 X105.053 Y101.368 E7.72143
G1 X104.068 Y101.959 E7.77874
G1 X103.015 Y102.457 E7.83685
G1 X101.933 Y102.844 E7.89418
G1 X100.805 Y103.126 E7.95219
G1 X99.661 Y103.296 E8.00989
G1 X98.503 Y103.353 E8.06773
G1 X97.344 Y103.296 E8.12563
G0 F3600 X97.147 Y103.267
G0 X97 Y102.657
;TYPE:SKIN
G1 F1800 X87.397 Y93.054 E8.80317
G1 X87.327 Y92.984
G0 F3600 X87.326 Y92.418
G1 F1800 X97.636 Y102.727 E9.53056
G1 X97.706 Y102.797
G0 F3600 X96.335 Y102.558
G1 F1800 X87.495 Y93.718 E10.15427
G1 X87.425 Y93.648
G0 F3600 X87.681 Y94.469
G1 F1800 X95.585 Y102.373 E10.71194
G1 X95.655 Y102.443
G0 F3600 X94.761 Y102.115
G1 F1800 X87.938 Y95.292 E11.19334
G1 X87.868 Y95.222
G0 F3600 X88.327 Y96.247
G1 F1800 X93.806 Y101.725 E11.57988
G1 X93.876 Y101.795
G0 F3600 X92.584 Y101.069
G1 F1800 X88.984 Y97.469 E11.83388
G1 X88.914 Y97.399
G0 F3600 X87.297 Y91.822
G1 F1800 X96.733 Y101.259 E12.49967
G1 X96.803 Y101.329
G0 F3600 X96.758 Y100.718
G1 F1800 X87.297 Y91.257 E13.1672
G1 X87.227 Y91.187
G0 F3600 X87.324 Y90.718
G1 F1800 X96.896 Y100.291 E13.84259
G1 X96.966 Y100.361
G0 F3600 X97.114 Y99.942
G1 F1800 X87.375 Y90.203 E14.52973
G1 X87.305 Y90.133
G0 F3600 X87.447 Y89.71
G1 F1800 X97.396 Y99.659 E15.23168
G1 X97.466 Y99.729
G0 F3600 X97.744 Y99.441
G1 F1800 X87.532 Y89.229 E15.9522
G1 X87.462 Y89.159
G0 F3600 X87.645 Y88.777
G1 F1800 X98.173 Y99.305 E16.695
G1 X98.243 Y99.375
G0 F3600 X98.723 Y99.289
G1 F1800 X87.759 Y88.324 E17.46861
G1 X87.689 Y88.254
G0 F3600 X87.905 Y87.905
G1 F1800 X102.149 Y102.149 E18.4736
G1 X102.219 Y102.219
G0 F3600 X102.565 Y102
G1 F1800 X88.054 Y87.488 E19.49746
G1 X87.984 Y87.418
G0 F3600 X88.219 Y87.087
G1 F1800 X102.966 Y101.835 E20.53798
G1 X103.036 Y101.905
G0 F3600 X103.351 Y101.654
G1 F1800 X88.401 Y86.704 E21.59278
G1 X88.331 Y86.634
G0 F3600 X88.582 Y86.319
G1 F1800 X103.735 Y101.472 E22.66191
G1 X103.805 Y101.542
G0 F3600 X104.093 Y101.264
G1 F1800 X88.789 Y85.96 E23.74169
G1 X88.719 Y85.89
G0 F3600 X89.001 Y85.607
G1 F1800 X104.447 Y101.053 E24.83149
G1 X104.517 Y101.123
G0 F3600 X104.796 Y100.836
G1 F1800 X89.218 Y85.258 E25.9306
G1 X89.148 Y85.188
G0 F3600 X89.459 Y84.934
G1 F1800 X105.12 Y100.595 E27.03557
G1 X105.19 Y100.665
G0 F3600 X105.445 Y100.354
G1 F1800 X89.7 Y84.608 E28.1465
G1 X89.63 Y84.538
G0 F3600 X89.953 Y84.296
G1 F1800 X105.757 Y100.1 E29.26156
G1 X105.827 Y100.17
G0 F3600 X106.054 Y99.832
G1 F1800 X90.221 Y83.999 E30.37866
G1 X90.151 Y83.929
G0 F3600 X90.49 Y83.702
G1 F1800 X106.351 Y99.563 E31.49774
G1 X106.421 Y99.633
G0 F3600 X106.628 Y99.274
G1 F1800 X90.78 Y83.426 E32.6159
G1 X90.71 Y83.356
G0 F3600 X91.077 Y83.157
G1 F1800 X106.898 Y98.978 E33.73216
G1 X106.968 Y99.048
G0 F3600 X107.166 Y98.681
G1 F1800 X91.374 Y82.889 E34.84637
G1 X91.304 Y82.819
G0 F3600 X91.699 Y82.648
G1 F1800 X107.408 Y98.357 E35.95472
G1 X107.478 Y98.427
G0 F3600 X107.649 Y98.032
G1 F1800 X92.023 Y82.406 E37.05722
G1 X91.953 Y82.336
G0 F3600 X92.355 Y82.173
G1 F1800 X107.882 Y97.7 E38.15274
G1 X107.952 Y97.77
G0 F3600 X108.094 Y97.346
G1 F1800 X92.709 Y81.961 E39.23823
G1 X92.639 Y81.891
G0 F3600 X93.063 Y81.75
G1 F1800 X108.306 Y96.992 E40.31367
G1 X108.376 Y97.062
G0 F3600 X108.499 Y96.62
G1 F1800 X93.435 Y81.556 E41.37652
G1 X93.365 Y81.486
G0 F3600 X93.819 Y81.374
G1 F1800 X108.681 Y96.236 E42.42511
G1 X108.751 Y96.306
G0 F3600 X108.863 Y95.852
G1 F1800 X94.203 Y81.192 E43.45945
G1 X94.133 Y81.122
G0 F3600 X94.618 Y81.042
G1 F1800 X109.013 Y95.437 E44.4751
G1 X109.083 Y95.507
G0 F3600 X109.163 Y95.021
G1 F1800 X95.035 Y80.893 E45.47191
G1 X94.965 Y80.823
G0 F3600 X95.469 Y80.761
G1 F1800 X109.294 Y94.586 E46.44733
G1 X109.364 Y94.656
G0 F3600 X109.407 Y94.134
G1 F1800 X95.921 Y80.648 E47.39884
G1 X95.851 Y80.578
G0 F3600 X96.38 Y80.541
G1 F1800 X109.514 Y93.675 E48.32552
G1 X109.584 Y93.745
G0 F3600 X109.588 Y93.183
G1 F1800 X96.872 Y80.468 E49.22267
G1 X96.802 Y80.398
G0 F3600 X97.365 Y80.395
G1 F1800 X109.66 Y92.69 E50.09014
G1 X109.73 Y92.76
G0 F3600 X109.69 Y92.154
G1 F1800 X97.901 Y80.364 E50.92196
G1 X97.831 Y80.294
G0 F3600 X98.439 Y80.337
G1 F1800 X109.717 Y91.615 E51.71768
G1 X109.787 Y91.685
G0 F3600 X109.695 Y91.027
G1 F1800 X99.028 Y80.36 E52.4703
G1 X98.958 Y80.29
G0 F3600 X99.627 Y80.393
G1 F1800 X109.662 Y90.429 E53.17835
G1 X109.732 Y90.499
G0 F3600 X109.564 Y89.765
G1 F1800 X100.29 Y80.491 E53.83269
G1 X100.22 Y80.421
G0 F3600 X100.988 Y80.624
G1 F1800 X109.431 Y89.066 E54.42835
G1 X109.501 Y89.136
G0 F3600 X109.242 Y88.311
G1 F1800 X101.744 Y80.813 E54.95737
G1 X101.674 Y80.743
G0 F3600 X102.623 Y81.127
G1 F1800 X108.929 Y87.433 E55.4023
G1 X108.999 Y87.503
G0 F3600 X108.456 Y86.395
G1 F1800 X103.66 Y81.598 E55.74072
G1 X103.59 Y81.528
G0 F3600 X105.189 Y82.561
G1 F1800 X107.492 Y84.865 E55.90324
G1 X107.562 Y84.935
G0 F3600 X100.267 Y100.832
G1 F1800 X101.73 Y102.295 E56.00646
G1 X101.8 Y102.365
G0 F3600 X101.277 Y102.408
G1 F1800 X100.25 Y101.382 E56.07889
G1 X100.18 Y101.312
G0 F3600 X100.111 Y101.808
G1 F1800 X100.825 Y102.522 E56.12926
G1 X100.895 Y102.592
G0 F3600 X100.12 Y102.382
G1 F1800 X99.73 Y102.559 E56.15352
G1 X99.299 Y102.693 E56.16444
G0 F3600 X99.333 Y102.511
G0 X99.343 Y102.529
G0 X99.942 Y101.839
G0 X100.137 Y101.203
G0 X100.118 Y100.762
G0 X99.891 Y100.18
G0 X90.511 Y83.562
G0 X90.441 Y83.492
;TIME_ELAPSED:42.215909
;LAYER:1
M140 S60
M106 S255
G0 F5400 X90.441 Y83.492 Z0.4
;TYPE:WALL-INNER
G1 F2700 X91.27 Y82.742 E56.18303
G1 X92.17 Y82.075 E56.20166
G1 X93.124 Y81.503 E56.22016
G1 X94.143 Y81.021 E56.2389
G1 X95.193 Y80.645 E56.25745
G1 X96.274 Y80.375 E56.27598
G1 X97.382 Y80.21 E56.29461
G1 X98.513 Y80.154 E56.31344
G1 X99.613 Y80.209 E56.33176
G1 X100.731 Y80.375 E56.35055
G1 X101.812 Y80.645 E56.36908
G1 X102.862 Y81.021 E56.38763
G1 X103.881 Y81.503 E56.40637
G1 X104.835 Y82.075 E56.42487
G1 X105.735 Y82.742 E56.4435
G1 X106.564 Y83.492 E56.46209
G1 X107.314 Y84.321 E56.48068
G1 X107.983 Y85.224 E56.49937
G1 X108.553 Y86.175 E56.51781
G1 X109.035 Y87.194 E56.53656
G1 X109.41 Y88.24 E56.55504
G1 X109.681 Y89.325 E56.57364
G1 X109.847 Y90.443 E56.59243
G1 X109.902 Y91.543 E56.61075
G1 X109.846 Y92.674 E56.62958
G1 X109.681 Y93.782 E56.64821
G1 X109.411 Y94.863 E56.66674
G1 X109.035 Y95.913 E56.68528
G1 X108.553 Y96.932 E56.70403
G1 X107.983 Y97.883 E56.72247
G1 X107.314 Y98.786 E56.74116
G1 X106.564 Y99.615 E56.75975
G1 X105.735 Y100.365 E56.77834
G1 X104.835 Y101.032 E56.79697
G1 X103.881 Y101.604 E56.81547
G1 X102.862 Y102.086 E56.83421
G1 X101.812 Y102.462 E56.85276
G1 X100.731 Y102.732 E56.87129
G1 X99.623 Y102.897 E56.88992
G1 X99.155 Y102.92 E56.89771
G1 X98.987 Y102.927 E56.90051
G1 X98.676 Y102.943 E56.90569
G1 X98.503 Y102.952 E56.90857
G1 X98.345 Y102.945 E56.9112
G1 X98.173 Y102.937 E56.91406
G1 X98.02 Y102.929 E56.91661
G1 X97.857 Y102.921 E56.91932
G1 X97.846 Y102.921 E56.91951
G1 X97.382 Y102.897 E56.92723
G1 X96.274 Y102.732 E56.94586
G1 X95.193 Y102.462 E56.96439
G1 X94.143 Y102.086 E56.98294
G1 X93.124 Y101.604 E57.00169
G1 X92.17 Y101.032 E57.02018
G1 X91.27 Y100.365 E57.03881
G1 X90.441 Y99.615 E57.0574
G1 X89.691 Y98.786 E57.076
G1 X89.022 Y97.883 E57.09469
G1 X88.452 Y96.932 E57.11312
G1 X87.97 Y95.913 E57.13187
G1 X87.594 Y94.863 E57.15042
G1 X87.324 Y93.782 E57.16895
G1 X87.159 Y92.674 E57.18758
G1 X87.104 Y91.553 E57.20624
G1 X87.159 Y90.433 E57.22489
G1 X87.324 Y89.325 E57.24352
G1 X87.595 Y88.24 E57.26212
G1 X87.97 Y87.194 E57.28059
G1 X88.452 Y86.175 E57.29934
G1 X89.022 Y85.224 E57.31778
G1 X89.691 Y84.321 E57.33647
G1 X90.441 Y83.492 E57.35506
G0 F5400 X90.511 Y83.562
G0 X97.949 Y99.445
G0 X97.981 Y99.539
G1 F2700 X97.697 Y99.67 E57.36026
G1 X97.451 Y99.846 E57.36529
G1 X97.296 Y100.001 E57.36894
G1 X97.12 Y100.247 E57.37397
G1 X96.995 Y100.518 E57.37893
G1 X96.947 Y100.683 E57.38179
G1 X96.917 Y100.843 E57.38449
G1 X96.904 Y101.062 E57.38814
G1 X96.909 Y101.222 E57.39081
G1 X96.97 Y101.521 E57.39588
G1 X97.089 Y101.808 E57.40105
G1 X97.254 Y102.057 E57.40601
G1 X97.381 Y102.197 E57.40916
G1 X97.614 Y102.387 E57.41416
G1 X97.867 Y102.521 E57.41892
G1 X97.876 Y102.526 E57.41909
G1 X98.037 Y102.585 E57.42169
G1 X98.188 Y102.623 E57.42285
G1 X98.358 Y102.649 E57.42444
G1 X98.503 Y102.649 E57.425
G1 X98.661 Y102.649 E57.42666
G1 X98.97 Y102.586 E57.43092
G1 X99.125 Y102.522 E57.4335
G1 X99.244 Y102.472 E57.43565
G1 X99.403 Y102.377 E57.43873
G1 X99.624 Y102.197 E57.44347
G1 X99.751 Y102.057 E57.44661
G1 X99.908 Y101.82 E57.45134
G1 X99.981 Y101.667 E57.45416
G1 X100.034 Y101.518 E57.45679
G1 X100.072 Y101.367 E57.45938
G1 X100.096 Y101.208 E57.46205
G1 X100.101 Y101.064 E57.46445
G1 X100.085 Y100.797 E57.4689
G1 X100.008 Y100.51 E57.47384
G1 X99.941 Y100.354 E57.47666
G1 X99.867 Y100.218 E57.47924
G1 X99.772 Y100.077 E57.48206
G1 X99.6 Y99.888 E57.48631
G1 X99.46 Y99.77 E57.48936
G1 X99.217 Y99.622 E57.49409
G1 X99.06 Y99.555 E57.49693
G1 X98.914 Y99.509 E57.49948
