; generated by PrusaSlicer 2.5.0+MacOS-x64 on 2022-10-12 at 15:22:56 UTC


;
;
; 

; external perimeters extrusion width = 0.45mm
; perimeters extrusion width = 0.45mm
; infill extrusion width = 0.45mm
; solid infill extrusion width = 0.45mm
; top infill extrusion width = 0.40mm
; support material extrusion width = 0.40mm
; first layer extrusion width = 0.40mm

M73 P0 R27
M73 Q0 S27
M201 X1000 Y1000 Z200 E5000 ; sets maximum accelerations, mm/sec^2
M203 X200 Y200 Z12 E120 ; sets maximum feedrates, mm / sec
M204 P1250 R1250 T1250 ; sets acceleration (P, T) and retract acceleration (R), mm/sec^2
M205 X8.00 Y8.00 Z0.40 E4.50 ; sets the jerk limits, mm/sec
M205 S0 T0 ; sets the minimum extruding and travel feed rate, mm/sec
M107 ; disable fan
;TYPE:Custom
M862.3 P "MK3S" ; printer model check
M862.1 P0.4 ; nozzle diameter check
M115 U3.11.0 ; tell printer latest fw version
G90 ; use absolute coordinates
M83 ; extruder relative mode
M104 S215 ; set extruder temp
M140 S60 ; set bed temp
M190 S60 ; wait for bed temp
M109 S215 ; wait for extruder temp
G28 W ; home all without mesh bed level
G80 ; mesh bed leveling

G1 Z0.2 F720
G1 Y-3 F1000 ; go outside print area
G92 E0
G1 X60 E9 F1000 ; intro line
G1 X100 E12.5 F1000 ; intro line

G92 E0
M221 S95

; Don't change E values below. Excessive value can damage the printer.

G21 ; set units to millimeters
G90 ; use absolute coordinates
M83 ; use relative distances for extrusion
M900 K0.05 ; Filament gcode LA 1.5
M900 K30 ; Filament gcode LA 1.0
M107 ; disable fan
;LAYER_CHANGE
;Z:0.2
;HEIGHT:0.2
;BEFORE_LAYER_CHANGE
G92 E0.0
;0.2


G1 E-.8 F2100 ; retract
G1 Z.4 F12000 ; lift Z
;AFTER_LAYER_CHANGE
;0.2
G1 X116.158 Y104.131 ; move to first perimeter point
G1 Z.2 ; restore layer Z
G1 E.8 F2100 ;  ; unretract
;TYPE:Perimeter
;WIDTH:0.399999
G1 F2400
G1 X119.927 Y79.241 E.74741 ; perimeter
G1 X120.025 Y78.754 E.01477 ; perimeter
G1 X120.171 Y78.272 E.01494 ; perimeter
G1 X120.364 Y77.807 E.01495 ; perimeter
G1 X120.601 Y77.363 E.01495 ; perimeter
G1 X120.881 Y76.945 E.01493 ; perimeter
G1 X121.2 Y76.556 E.01495 ; perimeter
G1 X121.556 Y76.2 E.01494 ; perimeter
G1 X121.945 Y75.881 E.01494 ; perimeter
G1 X122.364 Y75.601 E.01494 ; perimeter
G1 X122.808 Y75.364 E.01497 ; perimeter
G1 X123.273 Y75.171 E.01493 ; perimeter
G1 X123.753 Y75.025 E.01491 ; perimeter
G1 X124.245 Y74.928 E.01488 ; perimeter
G1 X124.754 Y74.878 E.01519 ; perimeter
G1 X125.254 Y74.878 E.01485 ; perimeter
G1 X125.753 Y74.927 E.01489 ; perimeter
G1 X126.246 Y75.025 E.01491 ; perimeter
G1 X126.728 Y75.172 E.01496 ; perimeter
G1 X127.193 Y75.364 E.01492 ; perimeter
G1 X127.636 Y75.601 E.01494 ; perimeter
G1 X128.055 Y75.881 E.01495 ; perimeter
G1 X128.444 Y76.201 E.01495 ; perimeter
G1 X128.8 Y76.556 E.01493 ; perimeter
G1 X129.12 Y76.946 E.01497 ; perimeter
G1 X129.4 Y77.366 E.015 ; perimeter
G1 X129.739 Y78.026 E.02204 ; perimeter
G1 X129.914 Y78.51 E.01527 ; perimeter
G1 X130.036 Y79 E.01499 ; perimeter
G1 X133.842 Y104.131 E.75466 ; perimeter
G1 X133.884 Y105 E.02585 ; perimeter
G1 X133.842 Y105.869 E.02585 ; perimeter
G1 X130.073 Y130.759 E.74741 ; perimeter
G1 X129.975 Y131.246 E.01477 ; perimeter
G1 X129.829 Y131.728 E.01494 ; perimeter
G1 X129.636 Y132.193 E.01495 ; perimeter
G1 X129.399 Y132.637 E.01495 ; perimeter
G1 X129.119 Y133.055 E.01493 ; perimeter
G1 X128.8 Y133.444 E.01495 ; perimeter
G1 X128.444 Y133.8 E.01494 ; perimeter
G1 X128.055 Y134.119 E.01494 ; perimeter
G1 X127.636 Y134.399 E.01494 ; perimeter
G1 X127.192 Y134.636 E.01496 ; perimeter
G1 X126.728 Y134.829 E.01492 ; perimeter
G1 X126.245 Y134.975 E.01497 ; perimeter
G1 X125.753 Y135.073 E.01489 ; perimeter
G1 X125.254 Y135.122 E.01489 ; perimeter
G1 X124.732 Y135.121 E.01552 ; perimeter
G1 X123.998 Y135.036 E.02192 ; perimeter
G1 X123.51 Y134.913 E.01496 ; perimeter
G1 X123.035 Y134.744 E.01496 ; perimeter
G1 X122.58 Y134.528 E.01496 ; perimeter
G1 X122.147 Y134.269 E.01496 ; perimeter
G1 X121.743 Y133.969 E.01496 ; perimeter
G1 X121.369 Y133.631 E.01496 ; perimeter
G1 X121.031 Y133.257 E.01496 ; perimeter
G1 X120.731 Y132.853 E.01496 ; perimeter
G1 X120.472 Y132.42 E.01496 ; perimeter
G1 X120.256 Y131.965 E.01496 ; perimeter
G1 X120.087 Y131.49 E.01496 ; perimeter
G1 X119.964 Y131 E.01501 ; perimeter
G1 X116.158 Y105.869 E.75466 ; perimeter
G1 X116.116 Y105 E.02585 ; perimeter
G1 X116.155 Y104.19 E.02407 ; perimeter
G1 X115.802 Y104.095 F12000 ; move to first perimeter point
G1 F2400
G1 X119.613 Y78.93 E.75571 ; perimeter
G1 X119.744 Y78.406 E.01604 ; perimeter
G1 X119.926 Y77.898 E.016 ; perimeter
G1 X120.156 Y77.411 E.016 ; perimeter
G1 X120.434 Y76.949 E.016 ; perimeter
G1 X120.755 Y76.516 E.016 ; perimeter
G1 X121.117 Y76.117 E.016 ; perimeter
G1 X121.516 Y75.755 E.016 ; perimeter
G1 X121.949 Y75.434 E.016 ; perimeter
G1 X122.411 Y75.157 E.016 ; perimeter
G1 X122.898 Y74.926 E.016 ; perimeter
G1 X123.406 Y74.744 E.016 ; perimeter
G1 X123.929 Y74.614 E.016 ; perimeter
G1 X124.461 Y74.535 E.01599 ; perimeter
G1 X125.01 Y74.508 E.01632 ; perimeter
G1 X125.538 Y74.534 E.0157 ; perimeter
G1 X126.071 Y74.614 E.016 ; perimeter
G1 X126.594 Y74.744 E.016 ; perimeter
G1 X127.102 Y74.926 E.016 ; perimeter
G1 X127.589 Y75.157 E.016 ; perimeter
G1 X128.051 Y75.434 E.016 ; perimeter
G1 X128.484 Y75.755 E.016 ; perimeter
G1 X128.883 Y76.117 E.016 ; perimeter
G1 X129.245 Y76.516 E.016 ; perimeter
G1 X129.566 Y76.949 E.016 ; perimeter
G1 X129.844 Y77.411 E.016 ; perimeter
G1 X130.07 Y77.889 E.0157 ; perimeter
G1 X130.256 Y78.406 E.01632 ; perimeter
G1 X130.387 Y78.93 E.01602 ; perimeter
G1 X134.198 Y104.095 E.75571 ; perimeter
G1 X134.242 Y105 E.0269 ; perimeter
G1 X134.198 Y105.905 E.0269 ; perimeter
G1 X130.387 Y131.07 E.75571 ; perimeter
G1 X130.256 Y131.594 E.01604 ; perimeter
G1 X130.074 Y132.102 E.016 ; perimeter
G1 X129.844 Y132.589 E.016 ; perimeter
G1 X129.566 Y133.051 E.016 ; perimeter
G1 X129.245 Y133.484 E.016 ; perimeter
G1 X128.883 Y133.883 E.016 ; perimeter
G1 X128.484 Y134.245 E.016 ; perimeter
G1 X128.051 Y134.566 E.016 ; perimeter
G1 X127.589 Y134.843 E.016 ; perimeter
G1 X127.102 Y135.074 E.016 ; perimeter
G1 X126.594 Y135.256 E.016 ; perimeter
G1 X126.071 Y135.386 E.016 ; perimeter
G1 X125.538 Y135.466 E.016 ; perimeter
G1 X125 Y135.492 E.01599 ; perimeter
G1 X124.452 Y135.464 E.01632 ; perimeter
G1 X123.929 Y135.386 E.0157 ; perimeter
G1 X123.406 Y135.256 E.016 ; perimeter
G1 X122.898 Y135.074 E.016 ; perimeter
G1 X122.411 Y134.843 E.016 ; perimeter
G1 X121.949 Y134.566 E.016 ; perimeter
G1 X121.516 Y134.245 E.016 ; perimeter
G1 X121.117 Y133.883 E.016 ; perimeter
G1 X120.755 Y133.484 E.016 ; perimeter
G1 X120.434 Y133.051 E.016 ; perimeter
G1 X120.156 Y132.589 E.016 ; perimeter
G1 X119.926 Y132.102 E.016 ; perimeter
G1 X119.744 Y131.594 E.016 ; perimeter
G1 X119.613 Y131.07 E.01604 ; perimeter
G1 X115.802 Y105.905 E.75571 ; perimeter
G1 X115.758 Y105 E.0269 ; perimeter
G1 X115.8 Y104.155 E.02512 ; perimeter
G1 X115.447 Y104.059 F12000 ; move to first perimeter point
;TYPE:External perimeter
G1 F2400
G1 X119.263 Y78.859 E.75675 ; perimeter
G1 X119.402 Y78.302 E.01706 ; perimeter
G1 X119.596 Y77.761 E.01704 ; perimeter
G1 X119.841 Y77.243 E.01704 ; perimeter
G1 X120.136 Y76.75 E.01705 ; perimeter
G1 X120.478 Y76.289 E.01704 ; perimeter
G1 X120.864 Y75.864 E.01704 ; perimeter
G1 X121.289 Y75.478 E.01704 ; perimeter
G1 X121.75 Y75.136 E.01704 ; perimeter
G1 X122.243 Y74.841 E.01704 ; perimeter
G1 X122.761 Y74.596 E.01704 ; perimeter
G1 X123.302 Y74.402 E.01704 ; perimeter
G1 X123.859 Y74.263 E.01704 ; perimeter
G1 X124.426 Y74.179 E.01704 ; perimeter
G1 X125.01 Y74.151 E.01736 ; perimeter
G1 X125.573 Y74.179 E.01673 ; perimeter
G1 X126.141 Y74.263 E.01704 ; perimeter
G1 X126.698 Y74.402 E.01704 ; perimeter
G1 X127.239 Y74.596 E.01704 ; perimeter
G1 X127.757 Y74.841 E.01704 ; perimeter
G1 X128.25 Y75.136 E.01704 ; perimeter
G1 X128.711 Y75.478 E.01704 ; perimeter
G1 X129.136 Y75.864 E.01704 ; perimeter
G1 X129.522 Y76.289 E.01704 ; perimeter
G1 X129.864 Y76.75 E.01705 ; perimeter
G1 X130.159 Y77.243 E.01705 ; perimeter
G1 X130.4 Y77.752 E.01673 ; perimeter
G1 X130.598 Y78.302 E.01736 ; perimeter
G1 X130.737 Y78.859 E.01706 ; perimeter
G1 X134.553 Y104.059 E.75675 ; perimeter
G1 X134.6 Y105 E.02796 ; perimeter
G1 X134.553 Y105.941 E.02796 ; perimeter
G1 X130.737 Y131.141 E.75675 ; perimeter
G1 X130.598 Y131.698 E.01706 ; perimeter
M73 Q1 S27
G1 X130.404 Y132.239 E.01704 ; perimeter
G1 X130.159 Y132.757 E.01704 ; perimeter
M73 P1 R27
G1 X129.864 Y133.25 E.01705 ; perimeter
G1 X129.522 Y133.711 E.01704 ; perimeter
G1 X129.136 Y134.136 E.01704 ; perimeter
G1 X128.711 Y134.522 E.01704 ; perimeter
G1 X128.25 Y134.864 E.01704 ; perimeter
G1 X127.757 Y135.159 E.01704 ; perimeter
G1 X127.239 Y135.404 E.01704 ; perimeter
G1 X126.698 Y135.598 E.01704 ; perimeter
G1 X126.141 Y135.737 E.01704 ; perimeter
G1 X125.573 Y135.821 E.01704 ; perimeter
G1 X125 Y135.85 E.01704 ; perimeter
G1 X124.416 Y135.82 E.01736 ; perimeter
G1 X123.859 Y135.737 E.01673 ; perimeter
G1 X123.302 Y135.598 E.01704 ; perimeter
G1 X122.761 Y135.404 E.01704 ; perimeter
G1 X122.243 Y135.159 E.01704 ; perimeter
G1 X121.75 Y134.864 E.01704 ; perimeter
G1 X121.289 Y134.522 E.01704 ; perimeter
G1 X120.864 Y134.136 E.01704 ; perimeter
G1 X120.478 Y133.711 E.01704 ; perimeter
G1 X120.136 Y133.25 E.01704 ; perimeter
G1 X119.841 Y132.757 E.01705 ; perimeter
G1 X119.596 Y132.239 E.01704 ; perimeter
G1 X119.402 Y131.698 E.01704 ; perimeter
G1 X119.263 Y131.141 E.01706 ; perimeter
G1 X115.447 Y105.941 E.75675 ; perimeter
G1 X115.4 Y105 E.02796 ; perimeter
G1 X115.444 Y104.119 E.02618 ; perimeter
G1 X115.811 Y103.895 F12000 ; move inwards before travel
G1 E-.8 F2100 ; retract
G1 Z.6 F12000 ; lift Z
G1 X127.565 Y75.683 ; move to first infill point
G1 Z.2 ; restore layer Z
M73 P1 R26
G1 E.8 F2100 ;  ; unretract
;TYPE:Solid infill
;WIDTH:0.400759
G1 F2400
G1 X128.444 Y76.562 E.03698 ; infill
G1 X128.762 Y76.913 E.01408 ; infill
G1 X129.046 Y77.296 E.01421 ; infill
G1 X129.292 Y77.706 E.01421 ; infill
G1 X129.48 Y78.105 E.01312 ; infill
G1 X126.896 Y75.52 E.10876 ; infill
G1 X126.413 Y75.343 E.0153 ; infill
G1 X126.146 Y75.276 E.00818 ; infill
G1 X129.724 Y78.854 E.15054 ; infill
G1 X129.773 Y79.053 E.0061 ; infill
G1 X129.837 Y79.474 E.01266 ; infill
G1 X125.528 Y75.165 E.18131 ; infill
G1 X124.992 Y75.135 E.01597 ; infill
G1 X129.927 Y80.07 E.20766 ; infill
G1 X130.018 Y80.666 E.01795 ; infill
G1 X124.51 Y75.159 E.23174 ; infill
G1 X124.07 Y75.224 E.01326 ; infill
G1 X130.108 Y81.263 E.25409 ; infill
G1 X130.198 Y81.859 E.01795 ; infill
G1 X123.663 Y75.324 E.27498 ; infill
G1 X123.285 Y75.451 E.01189 ; infill
G1 X130.289 Y82.455 E.29472 ; infill
G1 X130.379 Y83.052 E.01795 ; infill
G1 X122.93 Y75.602 E.31346 ; infill
G1 X122.596 Y75.774 E.01118 ; infill
G1 X130.469 Y83.648 E.33132 ; infill
G1 X130.56 Y84.244 E.01795 ; infill
G1 X122.281 Y75.965 E.34837 ; infill
G1 X121.99 Y76.181 E.01076 ; infill
G1 X130.65 Y84.841 E.3644 ; infill
G1 X130.74 Y85.437 E.01795 ; infill
G1 X121.718 Y76.415 E.37965 ; infill
G1 X121.462 Y76.665 E.01065 ; infill
G1 X130.831 Y86.034 E.3942 ; infill
G1 X130.921 Y86.63 E.01795 ; infill
G1 X121.224 Y76.933 E.40805 ; infill
G1 X121.008 Y77.223 E.01076 ; infill
G1 X131.011 Y87.226 E.42092 ; infill
G1 X131.101 Y87.823 E.01795 ; infill
G1 X120.812 Y77.533 E.43298 ; infill
G1 X120.635 Y77.862 E.01111 ; infill
M73 Q1 S26
G1 X131.192 Y88.419 E.44424 ; infill
G1 X131.282 Y89.015 E.01795 ; infill
G1 X120.478 Y78.211 E.45463 ; infill
G1 X120.344 Y78.584 E.01178 ; infill
G1 X131.372 Y89.612 E.46405 ; infill
G1 X131.463 Y90.208 E.01795 ; infill
G1 X120.243 Y78.988 E.47212 ; infill
G1 X120.171 Y79.422 E.01309 ; infill
G1 X131.553 Y90.805 E.47896 ; infill
G1 X131.643 Y91.401 E.01795 ; infill
G1 X120.104 Y79.862 E.48556 ; infill
G1 X120.038 Y80.301 E.01323 ; infill
G1 X131.734 Y91.997 E.49216 ; infill
G1 X131.824 Y92.594 E.01795 ; infill
G1 X119.971 Y80.741 E.49876 ; infill
G1 X119.904 Y81.18 E.01323 ; infill
G1 X131.914 Y93.19 E.50536 ; infill
G1 X132.005 Y93.786 E.01795 ; infill
G1 X119.838 Y81.62 E.51196 ; infill
G1 X119.771 Y82.059 E.01323 ; infill
G1 X132.095 Y94.383 E.51856 ; infill
G1 X132.185 Y94.979 E.01795 ; infill
G1 X119.705 Y82.499 E.52516 ; infill
G1 X119.638 Y82.938 E.01323 ; infill
G1 X132.275 Y95.575 E.53176 ; infill
G1 X132.366 Y96.172 E.01795 ; infill
G1 X119.572 Y83.378 E.53836 ; infill
G1 X119.505 Y83.817 E.01323 ; infill
G1 X132.456 Y96.768 E.54496 ; infill
G1 X132.546 Y97.365 E.01795 ; infill
G1 X119.439 Y84.257 E.55157 ; infill
G1 X119.372 Y84.696 E.01323 ; infill
G1 X132.637 Y97.961 E.55817 ; infill
G1 X132.727 Y98.557 E.01795 ; infill
G1 X119.305 Y85.136 E.56477 ; infill
G1 X119.239 Y85.575 E.01323 ; infill
G1 X132.817 Y99.154 E.57137 ; infill
G1 X132.908 Y99.75 E.01795 ; infill
G1 X119.172 Y86.015 E.57797 ; infill
G1 X119.106 Y86.454 E.01323 ; infill
M73 P2 R26
M73 Q2 S26
G1 X132.998 Y100.346 E.58457 ; infill
G1 X133.088 Y100.943 E.01795 ; infill
G1 X119.039 Y86.894 E.59117 ; infill
G1 X118.973 Y87.333 E.01323 ; infill
G1 X133.179 Y101.539 E.59777 ; infill
G1 X133.269 Y102.136 E.01795 ; infill
G1 X118.906 Y87.773 E.60437 ; infill
G1 X118.84 Y88.212 E.01323 ; infill
G1 X133.359 Y102.732 E.61097 ; infill
G1 X133.449 Y103.328 E.01795 ; infill
G1 X118.773 Y88.652 E.61757 ; infill
G1 X118.706 Y89.091 E.01323 ; infill
G1 X133.54 Y103.925 E.62417 ; infill
G1 X133.575 Y104.157 E.007 ; infill
G1 X133.591 Y104.482 E.00967 ; infill
G1 X118.64 Y89.531 E.62913 ; infill
G1 X118.573 Y89.97 E.01323 ; infill
G1 X133.616 Y105.013 E.63297 ; infill
G1 X133.592 Y105.495 E.01437 ; infill
G1 X118.507 Y90.41 E.63477 ; infill
G1 X118.44 Y90.849 E.01323 ; infill
G1 X133.556 Y105.966 E.63607 ; infill
G1 X133.49 Y106.405 E.01323 ; infill
G1 X118.374 Y91.289 E.63607 ; infill
G1 X118.307 Y91.728 E.01323 ; infill
G1 X133.423 Y106.845 E.63607 ; infill
G1 X133.357 Y107.284 E.01323 ; infill
G1 X118.241 Y92.168 E.63607 ; infill
G1 X118.174 Y92.607 E.01323 ; infill
G1 X133.29 Y107.724 E.63607 ; infill
G1 X133.224 Y108.163 E.01323 ; infill
G1 X118.107 Y93.047 E.63607 ; infill
G1 X118.041 Y93.486 E.01323 ; infill
G1 X133.157 Y108.603 E.63607 ; infill
G1 X133.091 Y109.042 E.01323 ; infill
G1 X117.974 Y93.926 E.63607 ; infill
G1 X117.908 Y94.365 E.01323 ; infill
G1 X133.024 Y109.482 E.63607 ; infill
G1 X132.957 Y109.921 E.01323 ; infill
G1 X117.841 Y94.805 E.63607 ; infill
G1 X117.775 Y95.244 E.01323 ; infill
G1 X132.891 Y110.361 E.63607 ; infill
G1 X132.824 Y110.8 E.01323 ; infill
G1 X117.708 Y95.684 E.63607 ; infill
G1 X117.642 Y96.123 E.01323 ; infill
G1 X132.758 Y111.24 E.63607 ; infill
G1 X132.691 Y111.679 E.01323 ; infill
G1 X117.575 Y96.563 E.63607 ; infill
G1 X117.508 Y97.002 E.01323 ; infill
G1 X132.625 Y112.119 E.63607 ; infill
G1 X132.558 Y112.558 E.01323 ; infill
G1 X117.442 Y97.442 E.63607 ; infill
G1 X117.375 Y97.881 E.01323 ; infill
G1 X132.492 Y112.998 E.63607 ; infill
G1 X132.425 Y113.437 E.01323 ; infill
G1 X117.309 Y98.321 E.63607 ; infill
G1 X117.242 Y98.76 E.01323 ; infill
M73 Q3 S26
G1 X132.358 Y113.877 E.63607 ; infill
G1 X132.292 Y114.316 E.01323 ; infill
M73 P3 R26
G1 X117.176 Y99.2 E.63607 ; infill
G1 X117.109 Y99.639 E.01323 ; infill
G1 X132.225 Y114.756 E.63607 ; infill
G1 X132.159 Y115.195 E.01323 ; infill
G1 X117.043 Y100.079 E.63607 ; infill
G1 X116.976 Y100.519 E.01323 ; infill
G1 X132.092 Y115.635 E.63607 ; infill
G1 X132.026 Y116.074 E.01323 ; infill
G1 X116.909 Y100.958 E.63607 ; infill
G1 X116.843 Y101.398 E.01323 ; infill
G1 X131.959 Y116.514 E.63607 ; infill
G1 X131.893 Y116.953 E.01323 ; infill
G1 X116.776 Y101.837 E.63607 ; infill
G1 X116.71 Y102.277 E.01323 ; infill
G1 X131.826 Y117.393 E.63607 ; infill
G1 X131.759 Y117.832 E.01323 ; infill
G1 X116.643 Y102.716 E.63607 ; infill
G1 X116.577 Y103.156 E.01323 ; infill
G1 X131.693 Y118.272 E.63607 ; infill
G1 X131.626 Y118.711 E.01323 ; infill
G1 X116.51 Y103.595 E.63607 ; infill
G1 X116.444 Y104.035 E.01323 ; infill
G1 X131.56 Y119.151 E.63607 ; infill
