; G-Code generated by Simplify3D(R) Version 4.0.0
; Aug 17, 2017 at 4:42:59 PM
; Settings Summary
;   processName,Process1
;   applyToModels,smilie1
;   profileName,Default (modified)
;   profileVersion,2015-09-04 08:00:00
;   baseProfile,
;   printMaterial,PLA
;   printQuality,High
;   printExtruders,
;   extruderName,Primary Extruder
;   extruderToolheadNumber,0
;   extruderDiameter,0.4
;   extruderAutoWidth,0
;   extruderWidth,0.4
;   extrusionMultiplier,0.9
;   extruderUseRetract,1
;   extruderRetractionDistance,1
;   extruderExtraRestartDistance,0
;   extruderRetractionZLift,0
;   extruderRetractionSpeed,1800
;   extruderUseCoasting,0
;   extruderCoastingDistance,0.2
;   extruderUseWipe,0
;   extruderWipeDistance,5
;   primaryExtruder,0
;   layerHeight,0.1
;   topSolidLayers,4
;   bottomSolidLayers,4
;   perimeterOutlines,2
;   printPerimetersInsideOut,1
;   startPointOption,2
;   startPointOriginX,0
;   startPointOriginY,0
;   sequentialIslands,0
;   spiralVaseMode,0
;   firstLayerHeightPercentage,90
;   firstLayerWidthPercentage,100
;   firstLayerUnderspeed,0.5
;   useRaft,0
;   raftExtruder,0
;   raftTopLayers,3
;   raftBaseLayers,2
;   raftOffset,3
;   raftSeparationDistance,0.14
;   raftTopInfill,100
;   aboveRaftSpeedMultiplier,0.3
;   useSkirt,1
;   skirtExtruder,0
;   skirtLayers,2
;   skirtOutlines,2
;   skirtOffset,4
;   usePrimePillar,0
;   primePillarExtruder,999
;   primePillarWidth,12
;   primePillarLocation,7
;   primePillarSpeedMultiplier,1
;   useOozeShield,0
;   oozeShieldExtruder,999
;   oozeShieldOffset,2
;   oozeShieldOutlines,1
;   oozeShieldSidewallShape,1
;   oozeShieldSidewallAngle,30
;   oozeShieldSpeedMultiplier,1
;   infillExtruder,0
;   internalInfillPattern,Rectilinear
;   externalInfillPattern,Rectilinear
;   infillPercentage,30
;   outlineOverlapPercentage,25
;   infillExtrusionWidthPercentage,125
;   minInfillLength,5
;   infillLayerInterval,1
;   internalInfillAngles,45,-45
;   overlapInternalInfillAngles,0
;   externalInfillAngles,45,-45
;   generateSupport,0
;   supportExtruder,0
;   supportInfillPercentage,40
;   supportExtraInflation,0
;   supportBaseLayers,0
;   denseSupportExtruder,0
;   denseSupportLayers,0
;   denseSupportInfillPercentage,70
;   supportLayerInterval,1
;   supportHorizontalPartOffset,0.3
;   supportUpperSeparationLayers,1
;   supportLowerSeparationLayers,1
;   supportType,0
;   supportGridSpacing,4
;   maxOverhangAngle,45
;   supportAngles,0
;   temperatureName,Primary Extruder,Heated Bed
;   temperatureNumber,0,0
;   temperatureSetpointCount,1,1
;   temperatureSetpointLayers,1,1
;   temperatureSetpointTemperatures,210,60
;   temperatureStabilizeAtStartup,1,1
;   temperatureHeatedBed,0,1
;   temperatureRelayBetweenLayers,0,0
;   temperatureRelayBetweenLoops,0,0
;   fanLayers,1,2
;   fanSpeeds,0,100
;   blipFanToFullPower,0
;   adjustSpeedForCooling,1
;   minSpeedLayerTime,15
;   minCoolingSpeedSlowdown,20
;   increaseFanForCooling,0
;   minFanLayerTime,45
;   maxCoolingFanSpeed,100
;   increaseFanForBridging,0
;   bridgingFanSpeed,100
;   use5D,1
;   relativeEdistances,0
;   allowEaxisZeroing,1
;   independentExtruderAxes,0
;   includeM10123,0
;   stickySupport,1
;   applyToolheadOffsets,0
;   gcodeXoffset,0
;   gcodeYoffset,0
;   gcodeZoffset,0
;   overrideMachineDefinition,1
;   machineTypeOverride,0
;   strokeXoverride,200
;   strokeYoverride,200
;   strokeZoverride,180
;   originOffsetXoverride,0
;   originOffsetYoverride,0
;   originOffsetZoverride,0
;   homeXdirOverride,-1
;   homeYdirOverride,-1
;   homeZdirOverride,-1
;   flipXoverride,1
;   flipYoverride,-1
;   flipZoverride,1
;   toolheadOffsets,0,0|0,0|0,0|0,0|0,0|0,0
;   overrideFirmwareConfiguration,1
;   firmwareTypeOverride,RepRap (Marlin/Repetier/Sprinter)
;   GPXconfigOverride,r2
;   baudRateOverride,115200
;   overridePrinterModels,1
;   printerModelsOverride
;   startingGcode,G28 ; home all axes
;   layerChangeGcode,
;   retractionGcode,
;   toolChangeGcode,
;   endingGcode,G28 X0 ; home X-axis,M104 S0 ; turn off extruder,M140 S0 ; turn off bed,M84 ; disable motors
;   exportFileFormat,gcode
;   celebration,0
;   celebrationSong,Random Song
;   postProcessing,
;   defaultSpeed,3600
;   outlineUnderspeed,0.5
;   solidInfillUnderspeed,0.8
;   supportUnderspeed,0.8
;   rapidXYspeed,4800
;   rapidZspeed,1000
;   minBridgingArea,50
;   bridgingExtraInflation,0
;   bridgingExtrusionMultiplier,1
;   bridgingSpeedMultiplier,1
;   useFixedBridgingAngle,0
;   fixedBridgingAngle,0
;   applyBridgingToPerimeters,0
;   filamentDiameters,1.75|1.75|1.75|1.75|1.75|1.75
;   filamentPricesPerKg,46|46|46|46|46|46
;   filamentDensities,1.25|1.25|1.25|1.25|1.25|1.25
;   useMinPrintHeight,0
;   minPrintHeight,0
;   useMaxPrintHeight,0
;   maxPrintHeight,0
;   useDiaphragm,0
;   diaphragmLayerInterval,20
;   robustSlicing,1
;   mergeAllIntoSolid,0
;   onlyRetractWhenCrossingOutline,1
;   retractBetweenLayers,1
;   useRetractionMinTravel,0
;   retractionMinTravel,3
;   retractWhileWiping,0
;   onlyWipeOutlines,1
;   avoidCrossingOutline,0
;   maxMovementDetourFactor,3
;   toolChangeRetractionDistance,12
;   toolChangeExtraRestartDistance,-0.5
;   toolChangeRetractionSpeed,600
;   externalThinWallType,0
;   internalThinWallType,2
;   thinWallAllowedOverlapPercentage,10
;   singleExtrusionMinLength,1
;   singleExtrusionMinPrintingWidthPercentage,50
;   singleExtrusionMaxPrintingWidthPercentage,200
;   singleExtrusionEndpointExtension,0.2
;   horizontalSizeCompensation,0
G90
M82
M106 S0
M140 S60
M190 S60
M104 S210 T0
M109 S210 T0
G28 ; home all axes
G92 E0
G1 E-1.0000 F1800
G1 Z0.090 F1000
; process Process1
; layer 1, Z = 0.090
T0
; tool H0.100 W0.400
; skirt
G1 X88.187 Y88.337 F4800
G1 E0.0000 F540
G92 E0
G1 X88.337 Y88.187 E0.0032 F1800
G1 X88.347 Y88.177 E0.0034
G1 X89.376 Y87.245 E0.0242
G1 X89.387 Y87.235 E0.0244
G1 X89.551 Y87.101 E0.0275
G1 X89.562 Y87.092 E0.0278
G1 X90.678 Y86.265 E0.0486
G1 X90.690 Y86.256 E0.0488
G1 X90.865 Y86.139 E0.0519
G1 X90.878 Y86.131 E0.0522
G1 X92.069 Y85.417 E0.0729
G1 X92.082 Y85.410 E0.0732
G1 X92.268 Y85.310 E0.0763
G1 X92.281 Y85.304 E0.0765
G1 X93.536 Y84.710 E0.0973
G1 X93.550 Y84.704 E0.0975
G1 X93.745 Y84.623 E0.1007
G1 X93.759 Y84.618 E0.1009
G1 X95.066 Y84.150 E0.1217
G1 X95.080 Y84.145 E0.1219
G1 X95.282 Y84.084 E0.1251
G1 X95.297 Y84.080 E0.1253
G1 X96.644 Y83.743 E0.1461
G1 X96.658 Y83.740 E0.1463
G1 X96.865 Y83.698 E0.1495
G1 X96.880 Y83.696 E0.1497
G1 X98.253 Y83.492 E0.1705
G1 X98.268 Y83.490 E0.1707
G1 X98.478 Y83.470 E0.1739
G1 X98.493 Y83.469 E0.1741
G1 X99.880 Y83.400 E0.1949
G1 X99.894 Y83.400 E0.1951
G1 X100.106 Y83.400 E0.1982
G1 X100.120 Y83.400 E0.1985
G1 X101.507 Y83.469 E0.2193
G1 X101.522 Y83.470 E0.2195
G1 X101.732 Y83.490 E0.2226
G1 X101.747 Y83.492 E0.2229
G1 X103.120 Y83.696 E0.2436
G1 X103.135 Y83.698 E0.2439
G1 X103.342 Y83.740 E0.2470
G1 X103.356 Y83.743 E0.2472
G1 X104.703 Y84.080 E0.2680
G1 X104.718 Y84.084 E0.2682
G1 X104.920 Y84.145 E0.2714
G1 X104.934 Y84.150 E0.2716
G1 X106.241 Y84.618 E0.2924
G1 X106.255 Y84.623 E0.2926
G1 X106.450 Y84.704 E0.2958
G1 X106.464 Y84.710 E0.2960
G1 X107.719 Y85.304 E0.3168
G1 X107.732 Y85.310 E0.3170
G1 X107.918 Y85.410 E0.3202
G1 X107.931 Y85.417 E0.3204
G1 X109.122 Y86.131 E0.3412
G1 X109.135 Y86.139 E0.3414
G1 X109.310 Y86.256 E0.3446
G1 X109.322 Y86.265 E0.3448
G1 X110.438 Y87.092 E0.3656
G1 X110.449 Y87.101 E0.3658
G1 X110.612 Y87.235 E0.3689
G1 X110.624 Y87.245 E0.3692
G1 X111.653 Y88.177 E0.3900
G1 X111.663 Y88.187 E0.3902
G1 X111.813 Y88.337 E0.3933
G1 X111.823 Y88.347 E0.3936
G1 X112.755 Y89.376 E0.4143
G1 X112.765 Y89.387 E0.4146
G1 X112.899 Y89.551 E0.4177
G1 X112.908 Y89.562 E0.4179
G1 X113.735 Y90.678 E0.4387
G1 X113.744 Y90.690 E0.4389
G1 X113.861 Y90.865 E0.4421
G1 X113.869 Y90.878 E0.4423
G1 X114.583 Y92.069 E0.4631
G1 X114.590 Y92.082 E0.4633
G1 X114.690 Y92.268 E0.4665
G1 X114.696 Y92.281 E0.4667
G1 X115.290 Y93.536 E0.4875
G1 X115.296 Y93.550 E0.4877
G1 X115.377 Y93.745 E0.4909
G1 X115.382 Y93.759 E0.4911
G1 X115.850 Y95.066 E0.5119
G1 X115.855 Y95.080 E0.5121
G1 X115.916 Y95.282 E0.5153
G1 X115.920 Y95.297 E0.5155
G1 X116.257 Y96.644 E0.5363
G1 X116.260 Y96.658 E0.5365
G1 X116.302 Y96.865 E0.5397
G1 X116.304 Y96.880 E0.5399
G1 X116.508 Y98.253 E0.5607
G1 X116.510 Y98.268 E0.5609
G1 X116.530 Y98.478 E0.5640
G1 X116.531 Y98.493 E0.5643
G1 X116.600 Y99.880 E0.5850
G1 X116.600 Y99.894 E0.5853
G1 X116.600 Y100.106 E0.5884
G1 X116.600 Y100.120 E0.5886
G1 X116.531 Y101.507 E0.6094
G1 X116.530 Y101.522 E0.6097
G1 X116.510 Y101.732 E0.6128
G1 X116.508 Y101.747 E0.6130
G1 X116.304 Y103.120 E0.6338
G1 X116.302 Y103.135 E0.6340
G1 X116.260 Y103.342 E0.6372
G1 X116.257 Y103.356 E0.6374
G1 X115.920 Y104.703 E0.6582
G1 X115.916 Y104.718 E0.6584
G1 X115.855 Y104.920 E0.6616
G1 X115.850 Y104.934 E0.6618
G1 X115.382 Y106.241 E0.6826
G1 X115.377 Y106.255 E0.6828
G1 X115.296 Y106.450 E0.6860
G1 X115.290 Y106.464 E0.6862
G1 X114.696 Y107.719 E0.7070
G1 X114.690 Y107.732 E0.7072
G1 X114.590 Y107.918 E0.7104
G1 X114.583 Y107.931 E0.7106
G1 X113.869 Y109.122 E0.7314
G1 X113.861 Y109.135 E0.7316
G1 X113.744 Y109.310 E0.7347
G1 X113.735 Y109.322 E0.7350
G1 X112.908 Y110.438 E0.7557
G1 X112.899 Y110.449 E0.7560
G1 X112.765 Y110.612 E0.7591
G1 X112.755 Y110.624 E0.7593
G1 X111.823 Y111.653 E0.7801
G1 X111.813 Y111.663 E0.7804
G1 X111.663 Y111.813 E0.7835
G1 X111.653 Y111.823 E0.7837
G1 X110.624 Y112.755 E0.8045
G1 X110.612 Y112.765 E0.8047
G1 X110.449 Y112.899 E0.8079
G1 X110.438 Y112.908 E0.8081
G1 X109.322 Y113.735 E0.8289
G1 X109.310 Y113.744 E0.8291
G1 X109.135 Y113.861 E0.8323
G1 X109.122 Y113.869 E0.8325
G1 X107.931 Y114.583 E0.8533
G1 X107.918 Y114.590 E0.8535
G1 X107.732 Y114.690 E0.8567
G1 X107.719 Y114.696 E0.8569
G1 X106.464 Y115.290 E0.8777
G1 X106.450 Y115.296 E0.8779
G1 X106.255 Y115.377 E0.8811
G1 X106.241 Y115.382 E0.8813
G1 X104.934 Y115.850 E0.9021
G1 X104.920 Y115.855 E0.9023
G1 X104.718 Y115.916 E0.9054
G1 X104.703 Y115.920 E0.9057
G1 X103.356 Y116.257 E0.9264
G1 X103.342 Y116.260 E0.9267
G1 X103.135 Y116.302 E0.9298
G1 X103.120 Y116.304 E0.9300
G1 X101.747 Y116.508 E0.9508
G1 X101.732 Y116.510 E0.9511
G1 X101.522 Y116.530 E0.9542
G1 X101.507 Y116.531 E0.9544
G1 X100.120 Y116.600 E0.9752
G1 X100.106 Y116.600 E0.9754
G1 X99.894 Y116.600 E0.9786
G1 X99.880 Y116.600 E0.9788
G1 X98.493 Y116.531 E0.9996
G1 X98.478 Y116.530 E0.9998
G1 X98.268 Y116.510 E1.0030
G1 X98.253 Y116.508 E1.0032
G1 X96.880 Y116.304 E1.0240
G1 X96.865 Y116.302 E1.0242
G1 X96.658 Y116.260 E1.0274
G1 X96.644 Y116.257 E1.0276
G1 X95.297 Y115.920 E1.0484
G1 X95.282 Y115.916 E1.0486
G1 X95.080 Y115.855 E1.0518
G1 X95.066 Y115.850 E1.0520
G1 X93.759 Y115.382 E1.0728
G1 X93.745 Y115.377 E1.0730
G1 X93.550 Y115.296 E1.0761
G1 X93.536 Y115.290 E1.0764
G1 X92.281 Y114.696 E1.0972
G1 X92.268 Y114.690 E1.0974
G1 X92.082 Y114.590 E1.1005
G1 X92.069 Y114.583 E1.1008
G1 X90.878 Y113.869 E1.1215
G1 X90.865 Y113.861 E1.1218
G1 X90.690 Y113.744 E1.1249
G1 X90.678 Y113.735 E1.1251
G1 X89.562 Y112.908 E1.1459
G1 X89.551 Y112.899 E1.1461
G1 X89.387 Y112.765 E1.1493
G1 X89.376 Y112.755 E1.1495
G1 X88.347 Y111.823 E1.1703
G1 X88.337 Y111.813 E1.1705
G1 X88.187 Y111.663 E1.1737
G1 X88.177 Y111.653 E1.1739
G1 X87.245 Y110.624 E1.1947
G1 X87.235 Y110.612 E1.1949
G1 X87.101 Y110.449 E1.1981
G1 X87.092 Y110.438 E1.1983
G1 X86.265 Y109.322 E1.2191
G1 X86.256 Y109.310 E1.2193
G1 X86.139 Y109.135 E1.2225
G1 X86.131 Y109.122 E1.2227
G1 X85.417 Y107.931 E1.2435
G1 X85.410 Y107.918 E1.2437
G1 X85.310 Y107.732 E1.2468
G1 X85.304 Y107.719 E1.2471
G1 X84.710 Y106.464 E1.2679
G1 X84.704 Y106.450 E1.2681
G1 X84.623 Y106.255 E1.2712
G1 X84.618 Y106.241 E1.2715
G1 X84.150 Y104.934 E1.2922
G1 X84.145 Y104.920 E1.2925
G1 X84.084 Y104.718 E1.2956
G1 X84.080 Y104.703 E1.2958
G1 X83.743 Y103.356 E1.3166
G1 X83.740 Y103.342 E1.3168
G1 X83.698 Y103.135 E1.3200
G1 X83.696 Y103.120 E1.3202
G1 X83.492 Y101.747 E1.3410
G1 X83.490 Y101.732 E1.3412
G1 X83.470 Y101.522 E1.3444
G1 X83.469 Y101.507 E1.3446
G1 X83.400 Y100.120 E1.3654
G1 X83.400 Y100.106 E1.3656
G1 X83.400 Y99.894 E1.3688
G1 X83.400 Y99.880 E1.3690
G1 X83.469 Y98.493 E1.3898
G1 X83.470 Y98.478 E1.3900
G1 X83.490 Y98.268 E1.3932
G1 X83.492 Y98.253 E1.3934
G1 X83.696 Y96.880 E1.4142
G1 X83.698 Y96.865 E1.4144
G1 X83.740 Y96.658 E1.4175
G1 X83.743 Y96.644 E1.4178
G1 X84.080 Y95.297 E1.4386
G1 X84.084 Y95.282 E1.4388
G1 X84.145 Y95.080 E1.4419
G1 X84.150 Y95.066 E1.4422
G1 X84.618 Y93.759 E1.4629
G1 X84.623 Y93.745 E1.4632
G1 X84.704 Y93.550 E1.4663
G1 X84.710 Y93.536 E1.4665
G1 X85.304 Y92.281 E1.4873
G1 X85.310 Y92.268 E1.4875
G1 X85.410 Y92.082 E1.4907
G1 X85.417 Y92.069 E1.4909
G1 X86.131 Y90.878 E1.5117
G1 X86.139 Y90.865 E1.5119
G1 X86.256 Y90.690 E1.5151
G1 X86.265 Y90.678 E1.5153
G1 X87.092 Y89.562 E1.5361
G1 X87.101 Y89.551 E1.5363
G1 X87.235 Y89.387 E1.5395
G1 X87.245 Y89.376 E1.5397
G1 X88.177 Y88.347 E1.5605
G1 X88.187 Y88.337 E1.5607
G1 X88.474 Y88.616 F4800
G92 E0
G1 X88.616 Y88.474 E0.0030 F1800
G1 X88.620 Y88.470 E0.0031
G1 X89.641 Y87.544 E0.0237
G1 X89.645 Y87.541 E0.0238
G1 X89.801 Y87.413 E0.0268
G1 X89.805 Y87.410 E0.0269
G1 X90.912 Y86.589 E0.0475
G1 X90.916 Y86.586 E0.0476
G1 X91.083 Y86.474 E0.0506
G1 X91.088 Y86.472 E0.0507
G1 X92.270 Y85.763 E0.0713
G1 X92.275 Y85.760 E0.0714
G1 X92.452 Y85.665 E0.0744
G1 X92.456 Y85.663 E0.0745
G1 X93.703 Y85.074 E0.0951
G1 X93.708 Y85.072 E0.0952
G1 X93.894 Y84.995 E0.0982
G1 X93.898 Y84.993 E0.0983
G1 X95.197 Y84.528 E0.1189
G1 X95.201 Y84.527 E0.1190
G1 X95.394 Y84.468 E0.1220
G1 X95.399 Y84.467 E0.1221
G1 X96.736 Y84.132 E0.1427
G1 X96.741 Y84.131 E0.1428
G1 X96.938 Y84.092 E0.1458
G1 X96.943 Y84.091 E0.1459
G1 X98.307 Y83.888 E0.1665
G1 X98.312 Y83.888 E0.1666
G1 X98.512 Y83.868 E0.1696
G1 X98.517 Y83.868 E0.1697
G1 X99.894 Y83.800 E0.1903
G1 X99.899 Y83.800 E0.1904
G1 X100.101 Y83.800 E0.1934
G1 X100.106 Y83.800 E0.1935
G1 X101.483 Y83.868 E0.2141
G1 X101.488 Y83.868 E0.2142
G1 X101.688 Y83.888 E0.2172
G1 X101.693 Y83.888 E0.2173
G1 X103.057 Y84.091 E0.2379
G1 X103.062 Y84.092 E0.2380
G1 X103.259 Y84.131 E0.2410
G1 X103.264 Y84.132 E0.2411
G1 X104.601 Y84.467 E0.2617
G1 X104.606 Y84.468 E0.2618
G1 X104.799 Y84.527 E0.2648
G1 X104.803 Y84.528 E0.2649
G1 X106.102 Y84.993 E0.2855
G1 X106.106 Y84.995 E0.2856
G1 X106.292 Y85.072 E0.2886
G1 X106.297 Y85.074 E0.2887
G1 X107.544 Y85.663 E0.3093
G1 X107.548 Y85.665 E0.3094
G1 X107.725 Y85.760 E0.3124
G1 X107.730 Y85.763 E0.3125
G1 X108.912 Y86.472 E0.3331
G1 X108.917 Y86.474 E0.3332
G1 X109.084 Y86.586 E0.3362
G1 X109.088 Y86.589 E0.3363
G1 X110.195 Y87.410 E0.3569
G1 X110.199 Y87.413 E0.3570
G1 X110.355 Y87.541 E0.3600
G1 X110.359 Y87.544 E0.3601
G1 X111.380 Y88.470 E0.3807
G1 X111.384 Y88.474 E0.3808
G1 X111.526 Y88.616 E0.3838
G1 X111.530 Y88.620 E0.3839
G1 X112.456 Y89.641 E0.4045
G1 X112.459 Y89.645 E0.4046
G1 X112.587 Y89.801 E0.4076
G1 X112.590 Y89.805 E0.4077
G1 X113.411 Y90.912 E0.4283
G1 X113.414 Y90.916 E0.4284
G1 X113.526 Y91.083 E0.4314
G1 X113.528 Y91.088 E0.4315
G1 X114.237 Y92.270 E0.4521
G1 X114.240 Y92.275 E0.4522
G1 X114.335 Y92.452 E0.4552
G1 X114.337 Y92.456 E0.4553
G1 X114.926 Y93.703 E0.4759
G1 X114.928 Y93.708 E0.4760
G1 X115.005 Y93.894 E0.4790
G1 X115.007 Y93.898 E0.4791
G1 X115.472 Y95.197 E0.4997
G1 X115.473 Y95.201 E0.4998
G1 X115.532 Y95.394 E0.5028
G1 X115.533 Y95.399 E0.5029
G1 X115.868 Y96.736 E0.5235
G1 X115.869 Y96.741 E0.5236
G1 X115.908 Y96.938 E0.5266
G1 X115.909 Y96.943 E0.5266
G1 X116.112 Y98.307 E0.5473
G1 X116.112 Y98.312 E0.5474
G1 X116.132 Y98.512 E0.5504
G1 X116.132 Y98.517 E0.5504
G1 X116.200 Y99.894 E0.5711
G1 X116.200 Y99.899 E0.5712
G1 X116.200 Y100.101 E0.5742
G1 X116.200 Y100.106 E0.5742
G1 X116.132 Y101.483 E0.5949
G1 X116.132 Y101.488 E0.5950
G1 X116.112 Y101.688 E0.5980
G1 X116.112 Y101.693 E0.5980
G1 X115.909 Y103.057 E0.6187
G1 X115.908 Y103.062 E0.6188
G1 X115.869 Y103.259 E0.6218
G1 X115.868 Y103.264 E0.6218
G1 X115.533 Y104.601 E0.6425
G1 X115.532 Y104.606 E0.6426
G1 X115.473 Y104.799 E0.6456
G1 X115.472 Y104.803 E0.6456
