;FLAVOR:UltiGCode
;TIME:8075
;MATERIAL:39934
;MATERIAL2:0
;NOZZLE_DIAMETER:0.4
;MINX:71.367
;MINY:56.114
;MINZ:0.35
;MAXX:173.173
;MAXY:168.131
;MAXZ:15.05
;Generated with Cura_SteamEngine 5.3.0
M82 ;absolute extrusion mode
G0 F3000 Y50 ;avoid prime blob
G92 E0
G92 E0
G10
;LAYER_COUNT:50
;LAYER:0
M107
G0 F9000 X87.483 Y60.762 Z0.35
;TYPE:SKIRT
G11
G1 F1800 X89.435 Y58.415 E0.47011
G1 X91.305 Y57.131 E0.81944
G1 X93.684 Y56.172 E1.21445
G1 X96.293 Y56.148 E1.61626
G1 X97.835 Y56.275 E1.85453
G1 X99.919 Y56.831 E2.18669
G1 X101.829 Y57.724 E2.51139
G1 X103.579 Y58.963 E2.8416
G1 X105.037 Y60.421 E3.15913
G1 X106.232 Y62.129 E3.48015
G1 X107.13 Y64.061 E3.80825
G1 X107.673 Y66.062 E4.12755
G1 X107.802 Y67.662 E4.37475
G1 X107.81 Y99.988 E9.35295
G1 X108.681 Y99.988 E9.48709
G1 X108.682 Y63.361 E15.12764
G1 X109.393 Y60.743 E15.54542
G1 X111.329 Y58.412 E16.01206
G1 X113.205 Y57.126 E16.36233
G1 X115.6 Y56.161 E16.75997
G1 X118.202 Y56.137 E17.16069
G1 X119.746 Y56.264 E17.39927
G1 X121.825 Y56.819 E17.73065
G1 X123.704 Y57.697 E18.05005
G1 X124.151 Y58.005 E18.13365
G1 X125.464 Y57.59 E18.34571
G1 X126.654 Y57.442 E18.53038
G1 X144.04 Y57.391 E21.20784
G1 X144.488 Y57.478 E21.27812
G1 X145.275 Y56.98 E21.42154
G1 X147.449 Y56.297 E21.77247
G1 X148.933 Y56.139 E22.0023
G1 X166.075 Y56.114 E24.64217
G1 X168.608 Y56.727 E25.04351
G1 X170.973 Y58.598 E25.50791
G1 X172.651 Y61.035 E25.96357
G1 X173.173 Y63.49 E26.3501
G1 X173.173 Y115.906 E34.42216
G1 X172.56 Y118.439 E34.8235
G1 X170.689 Y120.804 E35.28791
G1 X168.252 Y122.482 E35.74356
G1 X165.797 Y123.004 E36.13009
G1 X157.767 Y123.004 E37.36671
G1 X157.766 Y159.632 E43.00742
G1 X157.056 Y162.241 E43.42382
G1 X155.108 Y164.584 E43.89306
G1 X153.067 Y165.981 E44.27395
G1 X150.759 Y166.821 E44.65219
G1 X148.254 Y166.855 E45.03799
G1 X146.709 Y166.728 E45.27673
G1 X144.62 Y166.17 E45.60971
G1 X142.71 Y165.279 E45.93428
G1 X140.96 Y164.04 E46.26449
G1 X139.553 Y162.633 E46.57092
G1 X138.319 Y160.891 E46.89968
G1 X137.415 Y158.96 E47.22802
G1 X136.866 Y156.916 E47.55396
G1 X136.737 Y155.343 E47.79701
G1 X136.724 Y124.28 E52.58071
G1 X135.842 Y124.28 E52.71654
G1 X135.841 Y161.317 E58.42024
G1 X134.573 Y164.081 E58.88855
G1 X133.475 Y165.611 E59.17857
G1 X131.232 Y167.256 E59.60693
G1 X128.644 Y168.112 E60.02671
G1 X126.321 Y168.131 E60.38447
G1 X124.777 Y168.004 E60.62305
G1 X122.698 Y167.449 E60.95442
G1 X120.819 Y166.571 E61.27382
G1 X120.373 Y166.263 E61.35729
G1 X118.999 Y166.695 E61.5791
G1 X117.515 Y166.853 E61.80893
G1 X100.042 Y166.878 E64.49977
G1 X98.436 Y166.283 E64.76353
G1 X97.09 Y166.705 E64.98076
G1 X95.607 Y166.863 E65.21043
G1 X78.074 Y166.887 E67.91052
G1 X75.817 Y166.098 E68.27872
G1 X73.744 Y164.649 E68.66822
G1 X71.886 Y161.949 E69.17296
G1 X71.367 Y159.515 E69.55622
G1 X71.367 Y107.097 E77.62859
G1 X71.98 Y104.564 E78.02994
G1 X73.851 Y102.199 E78.49434
G1 X76.288 Y100.521 E78.95
G1 X78.743 Y99.999 E79.33652
G1 X86.772 Y99.999 E80.57299
G1 X86.773 Y63.371 E86.2137
G1 X87.483 Y60.762 E86.6301
G0 F9000 X87.883 Y60.968
G1 F1800 X89.732 Y58.745 E87.07538
G1 X91.515 Y57.521 E87.40844
G1 X93.772 Y56.611 E87.7832
G1 X96.257 Y56.587 E88.16591
G1 X97.764 Y56.711 E88.39877
G1 X99.765 Y57.245 E88.71771
G1 X101.609 Y58.107 E89.03118
G1 X103.294 Y59.3 E89.34913
G1 X104.697 Y60.703 E89.65468
G1 X105.849 Y62.35 E89.96421
G1 X106.715 Y64.212 E90.28045
G1 X107.237 Y66.137 E90.58761
G1 X107.363 Y67.697 E90.82863
G1 X107.37 Y100.428 E95.86921
G1 X109.121 Y100.428 E96.13886
G1 X109.122 Y63.421 E101.83794
G1 X109.793 Y60.951 E102.2321
G1 X111.629 Y58.74 E102.67469
G1 X113.416 Y57.515 E103.00834
G1 X115.686 Y56.6 E103.38525
G1 X118.166 Y56.576 E103.76719
G1 X119.673 Y56.7 E104.00005
G1 X121.673 Y57.234 E104.31884
G1 X123.518 Y58.096 E104.63245
G1 X124.075 Y58.49 E104.73752
G1 X125.554 Y58.022 E104.97642
G1 X126.708 Y57.879 E105.15549
G1 X144.041 Y57.831 E107.82478
G1 X144.571 Y57.946 E107.9083
G1 X145.461 Y57.383 E108.07048
G1 X147.538 Y56.73 E108.40578
G1 X148.979 Y56.577 E108.62894
G1 X166.022 Y56.554 E111.25356
G1 X168.411 Y57.132 E111.63208
G1 X170.648 Y58.902 E112.07138
G1 X172.239 Y61.213 E112.50346
G1 X172.733 Y63.535 E112.86905
G1 X172.733 Y115.853 E120.92602
G1 X172.155 Y118.242 E121.30454
G1 X170.385 Y120.479 E121.74383
G1 X168.074 Y122.07 E122.17591
G1 X165.752 Y122.564 E122.5415
G1 X157.327 Y122.564 E123.83895
G1 X157.326 Y159.572 E129.53819
G1 X156.656 Y162.035 E129.93127
G1 X154.811 Y164.254 E130.37569
G1 X152.862 Y165.588 E130.73941
G1 X150.68 Y166.382 E131.09699
G1 X148.29 Y166.416 E131.46509
G1 X146.782 Y166.292 E131.6981
G1 X144.772 Y165.755 E132.0185
G1 X142.93 Y164.896 E132.3315
G1 X141.245 Y163.703 E132.64944
G1 X139.89 Y162.348 E132.94455
G1 X138.701 Y160.669 E133.26138
G1 X137.83 Y158.81 E133.57753
G1 X137.302 Y156.843 E133.89117
G1 X137.176 Y155.307 E134.12851
G1 X137.164 Y123.84 E138.97443
G1 X135.402 Y123.84 E139.24578
G1 X135.401 Y161.221 E145.00245
G1 X134.191 Y163.859 E145.4494
G1 X133.159 Y165.297 E145.72198
G1 X131.028 Y166.86 E146.12896
G1 X128.571 Y167.673 E146.52752
G1 X126.357 Y167.692 E146.86849
G1 X124.85 Y167.568 E147.10135
G1 X122.85 Y167.034 E147.42014
G1 X121.005 Y166.172 E147.73375
G1 X120.448 Y165.778 E147.83882
G1 X118.91 Y166.262 E148.08712
G1 X117.469 Y166.415 E148.31028
G1 X100.122 Y166.438 E150.98172
G1 X98.448 Y165.818 E151.25663
G1 X97.001 Y166.272 E151.49018
G1 X95.561 Y166.425 E151.71319
G1 X78.147 Y166.447 E154.39495
G1 X76.021 Y165.704 E154.74177
G1 X74.061 Y164.334 E155.11004
G1 X72.298 Y161.771 E155.5891
G1 X71.807 Y159.47 E155.95143
G1 X71.807 Y107.15 E164.00871
G1 X72.385 Y104.761 E164.38723
G1 X74.155 Y102.524 E164.82653
G1 X76.466 Y100.933 E165.25861
G1 X78.788 Y100.439 E165.6242
G1 X87.212 Y100.439 E166.92149
G1 X87.213 Y63.431 E172.62072
G1 X87.883 Y60.968 E173.01381
G0 F9000 X88.283 Y61.174
G1 F1800 X90.029 Y59.075 E173.43427
G1 X91.725 Y57.911 E173.75105
G1 X93.86 Y57.05 E174.10557
G1 X96.221 Y57.026 E174.46918
G1 X97.693 Y57.147 E174.69664
G1 X99.611 Y57.659 E175.00235
G1 X101.389 Y58.49 E175.30459
G1 X103.009 Y59.637 E175.61027
G1 X104.357 Y60.985 E175.90385
G1 X105.468 Y62.573 E176.20231
G1 X106.299 Y64.361 E176.50595
G1 X106.801 Y66.212 E176.8013
G1 X106.924 Y67.732 E177.03615
G1 X106.93 Y100.868 E182.13909
G1 X109.561 Y100.868 E182.54427
G1 X109.562 Y63.481 E188.30186
G1 X110.193 Y61.159 E188.67242
G1 X111.929 Y59.068 E189.09095
G1 X113.627 Y57.904 E189.40798
G1 X115.773 Y57.039 E189.7643
G1 X118.13 Y57.015 E190.1273
G1 X119.6 Y57.136 E190.35445
G1 X121.521 Y57.649 E190.66065
G1 X123.298 Y58.479 E190.96269
G1 X124 Y58.976 E191.09514
G1 X125.65 Y58.454 E191.36166
G1 X126.762 Y58.316 E191.53422
G1 X144.042 Y58.271 E194.19535
G1 X144.649 Y58.417 E194.29149
G1 X145.647 Y57.786 E194.47333
G1 X147.627 Y57.164 E194.79294
G1 X149.026 Y57.015 E195.0096
G1 X165.969 Y56.994 E197.61883
G1 X168.214 Y57.537 E197.97453
G1 X170.323 Y59.206 E198.38871
G1 X171.828 Y61.391 E198.7973
G1 X172.293 Y63.579 E199.14177
G1 X172.293 Y115.8 E207.18381
G1 X171.75 Y118.045 E207.53951
G1 X170.081 Y120.154 E207.95369
G1 X167.896 Y121.659 E208.36228
G1 X165.708 Y122.124 E208.70675
G1 X156.887 Y122.124 E210.06519
G1 X156.886 Y159.512 E215.82294
G1 X156.256 Y161.829 E216.19271
G1 X154.514 Y163.924 E216.61231
G1 X152.657 Y165.195 E216.95885
G1 X150.601 Y165.943 E217.29578
G1 X148.326 Y165.977 E217.64617
G1 X146.854 Y165.856 E217.87362
G1 X144.925 Y165.341 E218.18109
G1 X143.15 Y164.513 E218.48272
G1 X141.53 Y163.366 E218.7884
G1 X140.227 Y162.063 E219.07218
G1 X139.082 Y160.447 E219.37718
G1 X138.245 Y158.66 E219.68107
G1 X137.738 Y156.77 E219.98242
G1 X137.615 Y155.271 E220.21404
G1 X137.604 Y123.4 E225.12218
G1 X134.962 Y123.4 E225.52905
G1 X134.961 Y161.125 E231.3387
G1 X133.809 Y163.637 E231.76428
G1 X132.843 Y164.983 E232.01943
G1 X130.824 Y166.464 E232.40503
G1 X128.498 Y167.234 E232.78235
G1 X126.393 Y167.253 E233.10654
G1 X124.923 Y167.132 E233.33368
G1 X123.002 Y166.619 E233.63988
G1 X121.225 Y165.789 E233.94192
G1 X120.524 Y165.293 E234.07417
G1 X118.821 Y165.828 E234.34907
G1 X117.422 Y165.977 E234.56573
G1 X100.202 Y165.998 E237.21761
G1 X98.46 Y165.353 E237.50368
G1 X96.912 Y165.838 E237.7535
G1 X95.514 Y165.987 E237.97001
G1 X78.22 Y166.007 E240.63329
G1 X76.225 Y165.31 E240.95873
G1 X74.378 Y164.019 E241.30576
G1 X72.71 Y161.593 E241.75915
G1 X72.247 Y159.425 E242.10055
G1 X72.247 Y107.203 E250.14274
G1 X72.79 Y104.958 E250.49844
G1 X74.459 Y102.849 E250.91262
G1 X76.644 Y101.344 E251.32121
G1 X78.832 Y100.879 E251.66569
G1 X87.652 Y100.879 E253.02397
G1 X87.653 Y63.491 E258.78172
G1 X88.283 Y61.174 E259.15149
G0 F9000 X88.684 Y61.38
G1 F1800 X90.326 Y59.405 E259.54703
G1 X91.935 Y58.301 E259.84753
G1 X93.948 Y57.489 E260.18181
G1 X96.185 Y57.465 E260.52632
G1 X97.62 Y57.583 E260.74806
G1 X99.459 Y58.074 E261.04119
G1 X101.169 Y58.873 E261.33185
G1 X102.724 Y59.974 E261.62527
G1 X104.017 Y61.267 E261.90687
G1 X105.085 Y62.794 E262.19384
G1 X105.884 Y64.512 E262.48563
G1 X106.365 Y66.287 E262.76884
G1 X106.485 Y67.768 E262.99766
G1 X106.49 Y101.308 E268.16282
G1 X110.001 Y101.308 E268.70351
G1 X110.002 Y63.541 E274.51963
G1 X110.593 Y61.367 E274.86658
G1 X112.229 Y59.396 E275.26105
G1 X113.838 Y58.293 E275.56147
G1 X115.86 Y57.478 E275.8972
G1 X118.094 Y57.454 E276.24125
G1 X119.527 Y57.572 E276.46268
G1 X121.369 Y58.064 E276.75629
G1 X123.078 Y58.862 E277.04676
G1 X123.959 Y59.486 E277.21302
G1 X124.16 Y59.385 E277.24766
G1 X125.744 Y58.886 E277.50341
G1 X126.816 Y58.753 E277.66977
G1 X143.989 Y58.711 E280.31442
G1 X144.727 Y58.888 E280.43129
G1 X145.833 Y58.189 E280.63278
G1 X147.716 Y57.597 E280.93676
G1 X149.072 Y57.453 E281.14676
G1 X165.915 Y57.434 E283.74058
G1 X168.018 Y57.943 E284.07379
G1 X169.998 Y59.51 E284.46265
G1 X171.416 Y61.569 E284.84766
G1 X171.853 Y63.624 E285.1712
G1 X171.853 Y115.746 E293.19799
G1 X171.344 Y117.849 E293.5312
G1 X169.777 Y119.829 E293.92006
G1 X167.718 Y121.247 E294.30507
G1 X165.663 Y121.684 E294.62861
G1 X156.447 Y121.684 E296.04788
G1 X156.446 Y159.451 E301.864
G1 X155.855 Y161.623 E302.21065
G1 X154.217 Y163.594 E302.60532
G1 X152.455 Y164.8 E302.93414
G1 X150.519 Y165.504 E303.25138
G1 X148.362 Y165.538 E303.5836
G1 X146.927 Y165.42 E303.80534
G1 X145.077 Y164.926 E304.10022
G1 X143.37 Y164.13 E304.39027
G1 X141.815 Y163.029 E304.68369
G1 X140.564 Y161.778 E304.95614
G1 X139.466 Y160.229 E305.24854
G1 X138.659 Y158.505 E305.54169
G1 X138.174 Y156.697 E305.82996
G1 X138.054 Y155.235 E306.05587
G1 X138.044 Y122.96 E311.02622
G1 X134.522 Y122.96 E311.56861
G1 X134.521 Y161.029 E317.43123
G1 X133.427 Y163.415 E317.83546
G1 X132.527 Y164.669 E318.07316
G1 X130.62 Y166.068 E318.43739
G1 X128.425 Y166.795 E318.79348
G1 X126.429 Y166.814 E319.10088
G1 X124.996 Y166.696 E319.32231
G1 X123.154 Y166.204 E319.61592
G1 X121.445 Y165.406 E319.90639
G1 X120.6 Y164.808 E320.06581
G1 X118.732 Y165.395 E320.36735
G1 X117.376 Y165.539 E320.57734
G1 X100.282 Y165.558 E323.20982
G1 X98.472 Y164.888 E323.50705
G1 X96.823 Y165.405 E323.77318
G1 X95.468 Y165.549 E323.98303
G1 X78.293 Y165.567 E326.62798
G1 X76.43 Y164.916 E326.93189
G1 X74.694 Y163.702 E327.25812
G1 X73.122 Y161.417 E327.68524
G1 X72.687 Y159.38 E328.00601
G1 X72.687 Y107.257 E336.03295
G1 X73.196 Y105.154 E336.36617
G1 X74.763 Y103.174 E336.75503
G1 X76.822 Y101.756 E337.14003
G1 X78.877 Y101.319 E337.46358
G1 X88.092 Y101.319 E338.88269
G1 X88.093 Y63.552 E344.69881
G1 X88.684 Y61.38 E345.04546
G0 F9000 X89.084 Y61.586
G1 F1800 X90.623 Y59.735 E345.41617
G1 X92.145 Y58.691 E345.7004
G1 X94.036 Y57.928 E346.01442
G1 X96.149 Y57.904 E346.33985
G1 X97.547 Y58.019 E346.55587
G1 X99.307 Y58.489 E346.8364
G1 X100.949 Y59.256 E347.1155
G1 X102.439 Y60.311 E347.39666
G1 X103.677 Y61.549 E347.66628
G1 X104.704 Y63.017 E347.94218
G1 X105.468 Y64.661 E348.22136
G1 X105.929 Y66.362 E348.49276
G1 X106.046 Y67.804 E348.71556
G1 X106.05 Y101.748 E353.94294
G1 X110.441 Y101.748 E354.61915
G1 X110.442 Y63.601 E360.49379
G1 X110.993 Y61.573 E360.81742
G1 X112.527 Y59.726 E361.18717
G1 X114.049 Y58.682 E361.4714
G1 X115.947 Y57.917 E361.78654
G1 X118.058 Y57.893 E362.11166
G1 X119.454 Y58.008 E362.32737
G1 X121.217 Y58.479 E362.60839
G1 X122.858 Y59.245 E362.88728
G1 X123.93 Y60.004 E363.08956
G1 X124.292 Y59.805 E363.15318
G1 X125.838 Y59.318 E363.40279
G1 X126.87 Y59.19 E363.56294
G1 X143.937 Y59.151 E366.19126
G1 X144.805 Y59.36 E366.32876
G1 X146.019 Y58.592 E366.54998
G1 X147.805 Y58.031 E366.83828
G1 X149.119 Y57.891 E367.04178
G1 X165.862 Y57.874 E369.6202
G1 X167.821 Y58.348 E369.93059
G1 X169.673 Y59.814 E370.29434
G1 X171.004 Y61.747 E370.65577
G1 X171.413 Y63.669 E370.95838
G1 X171.413 Y115.693 E378.97008
G1 X170.939 Y117.652 E379.28047
G1 X169.473 Y119.504 E379.64422
G1 X167.54 Y120.835 E380.00564
G1 X165.618 Y121.244 E380.30826
G1 X156.007 Y121.244 E381.78835
G1 X156.006 Y159.391 E387.66299
G1 X155.455 Y161.417 E387.98633
G1 X153.92 Y163.264 E388.35617
G1 X152.253 Y164.405 E388.66727
G1 X150.437 Y165.065 E388.96483
G1 X148.398 Y165.099 E389.27888
G1 X146.998 Y164.984 E389.4952
G1 X145.23 Y164.512 E389.77701
G1 X143.59 Y163.747 E390.0557
G1 X142.1 Y162.692 E390.33685
G1 X140.901 Y161.493 E390.59798
G1 X139.849 Y160.009 E390.87812
G1 X139.074 Y158.352 E391.15983
G1 X138.61 Y156.624 E391.43537
G1 X138.493 Y155.199 E391.65555
G1 X138.484 Y122.52 E396.68812
G1 X134.082 Y122.52 E397.36603
G1 X134.081 Y160.933 E403.28163
G1 X133.045 Y163.193 E403.6645
G1 X132.211 Y164.355 E403.88476
G1 X130.416 Y165.672 E404.22762
G1 X128.351 Y166.356 E404.56262
G1 X126.465 Y166.375 E404.85308
G1 X125.069 Y166.26 E405.06879
G1 X123.306 Y165.789 E405.34981
G1 X121.665 Y165.023 E405.6287
G1 X120.61 Y164.276 E405.82778
G1 X120.319 Y164.435 E405.87885
G1 X118.643 Y164.961 E406.14936
G1 X117.329 Y165.101 E406.35286
G1 X100.362 Y165.118 E408.96578
G1 X98.434 Y164.404 E409.2824
G1 X98.234 Y164.501 E409.31663
G1 X96.734 Y164.972 E409.55875
G1 X95.422 Y165.111 E409.76193
G1 X78.366 Y165.127 E412.38856
G1 X76.635 Y164.522 E412.67094
G1 X75.009 Y163.385 E412.97649
G1 X73.534 Y161.241 E413.37726
G1 X73.127 Y159.335 E413.6774
G1 X73.127 Y107.31 E421.68925
G1 X73.601 Y105.351 E421.99964
G1 X75.067 Y103.499 E422.36339
G1 X77 Y102.168 E422.72482
G1 X78.922 Y101.759 E423.02743
G1 X88.532 Y101.759 E424.50737
G1 X88.533 Y63.612 E430.38201
G1 X89.084 Y61.586 E430.70535
G0 F9000 X89.484 Y61.792
G1 F1800 X90.92 Y60.065 E431.05124
G1 X92.355 Y59.081 E431.31919
G1 X94.124 Y58.367 E431.61297
G1 X96.113 Y58.343 E431.9193
G1 X97.476 Y58.455 E432.12991
G1 X99.154 Y58.903 E432.39737
G1 X100.729 Y59.639 E432.6651
G1 X102.154 Y60.648 E432.93399
G1 X103.337 Y61.831 E433.19163
G1 X104.321 Y63.238 E433.45604
G1 X105.053 Y64.812 E433.72337
G1 X105.493 Y66.437 E433.98263
G1 X105.607 Y67.84 E434.19941
G1 X105.61 Y102.188 E439.489
G1 X110.881 Y102.188 E440.30073
G1 X110.882 Y63.661 E446.23389
G1 X111.393 Y61.781 E446.53391
G1 X112.827 Y60.054 E446.8796
G1 X114.26 Y59.071 E447.14722
G1 X116.034 Y58.356 E447.44177
G1 X118.022 Y58.332 E447.74794
G1 X119.382 Y58.444 E447.95809
G1 X121.064 Y58.893 E448.22619
G1 X122.638 Y59.628 E448.49371
G1 X123.906 Y60.526 E448.73299
G1 X124.424 Y60.225 E448.82526
G1 X125.932 Y59.75 E449.06874
G1 X126.924 Y59.627 E449.22267
G1 X143.884 Y59.591 E451.83452
G1 X144.883 Y59.832 E451.99278
G1 X146.205 Y58.995 E452.23374
G1 X147.894 Y58.464 E452.5064
G1 X149.165 Y58.329 E452.70323
G1 X165.809 Y58.314 E455.26641
G1 X167.624 Y58.753 E455.55398
G1 X169.348 Y60.118 E455.89262
G1 X170.592 Y61.925 E456.23047
G1 X170.973 Y63.714 E456.51215
G1 X170.973 Y115.64 E464.50876
G1 X170.534 Y117.455 E464.79632
G1 X169.169 Y119.179 E465.13496
G1 X167.362 Y120.423 E465.47281
G1 X165.573 Y120.804 E465.75449
G1 X155.567 Y120.804 E467.29542
G1 X155.566 Y159.331 E473.22858
G1 X155.055 Y161.211 E473.5286
G1 X153.623 Y162.934 E473.87362
G1 X152.051 Y164.01 E474.16699
G1 X150.355 Y164.626 E474.44487
G1 X148.434 Y164.66 E474.74075
G1 X147.071 Y164.548 E474.95136
G1 X145.382 Y164.097 E475.22058
G1 X143.81 Y163.364 E475.48769
G1 X142.385 Y162.355 E475.75658
