; generated by PrusaSlicer 2.2.0-rc+ on 2020-03-08 at 18:23:45 UTC

; 

; external perimeters extrusion width = 0.65mm
; perimeters extrusion width = 0.65mm
; infill extrusion width = 0.65mm
; solid infill extrusion width = 0.65mm
; top infill extrusion width = 0.60mm
; first layer extrusion width = 0.65mm

M73 P0 R4
M73 Q0 S4
M201 X1000 Y1000 Z1000 E5000 ; sets maximum accelerations, mm/sec^2
M203 X200 Y200 Z12 E120 ; sets maximum feedrates, mm/sec
M204 P1250 R1250 T1250 ; sets acceleration (P, T) and retract acceleration (R), mm/sec^2
M205 X8.00 Y8.00 Z0.40 E1.50 ; sets the jerk limits, mm/sec
M205 S0 T0 ; sets the minimum extruding and travel feed rate, mm/sec
M107
M862.3 P "MK3S" ; printer model check
M862.1 P0.6 ; nozzle diameter check
M115 U3.8.1 ; tell printer latest fw version
G90 ; use absolute coordinates
M83 ; extruder relative mode
M104 S240 ; set extruder temp
M140 S75 ; set bed temp
M190 S75 ; wait for bed temp
M109 S240 ; wait for extruder temp
G28 W ; home all without mesh bed level
G80 ; mesh bed leveling
G1 Y-3.0 F1000.0 ; go outside print area
G92 E0.0
G1 X60.0 E9.0 F1000.0 ; intro line
M73 Q1 S4
M73 P1 R4
G1 X100.0 E12.5 F1000.0 ; intro line
G92 E0.0
M221 S95
G21 ; set units to millimeters
G90 ; use absolute coordinates
M83 ; use relative distances for extrusion
M900 K24 ; Filament gcode
;BEFORE_LAYER_CHANGE
G92 E0.0
;0.2


G1 E-1.40000 F2100.00000
G1 Z0.200 F10800.000
;AFTER_LAYER_CHANGE
;0.2
G1 Z0.400
G1 X95.026 Y98.341
G1 Z0.200
G1 E1.40000 F2100.00000
M204 S1000
G1 F1200.000
G1 X95.916 Y97.579 E0.05917
G1 X97.081 Y96.862 E0.06908
G1 X98.345 Y96.352 E0.06875
G1 X99.757 Y96.021 E0.07321
G1 X101.455 Y95.893 E0.08598
G1 X154.859 Y96.206 E2.69581
G1 X155.559 Y96.308 E0.03573
G1 X156.254 Y96.624 E0.03852
G1 X156.828 Y97.127 E0.03852
G1 X157.232 Y97.779 E0.03872
G1 X157.430 Y98.516 E0.03852
G1 X157.447 Y111.203 E0.64041
G1 X157.346 Y111.903 E0.03573
G1 X157.001 Y112.645 E0.04131
G1 X156.439 Y113.245 E0.04151
G1 X155.722 Y113.640 E0.04131
G1 X154.918 Y113.792 E0.04131
G1 X101.453 Y114.107 E2.69891
G1 X99.846 Y113.986 E0.08132
G1 X98.487 Y113.671 E0.07044
G1 X97.179 Y113.153 E0.07099
G1 X95.926 Y112.381 E0.07432
G1 X94.873 Y111.435 E0.07143
G1 X94.189 Y110.595 E0.05467
G1 X93.580 Y109.575 E0.05997
G1 X93.024 Y108.208 E0.07451
G1 X92.672 Y106.662 E0.08001
G1 X92.556 Y104.729 E0.09780
G1 X92.736 Y102.862 E0.09464
G1 X93.087 Y101.517 E0.07019
G1 X93.526 Y100.449 E0.05831
G1 X94.066 Y99.521 E0.05417
G1 X94.969 Y98.411 E0.07223
G1 F8640.000
G1 X95.916 Y97.579 E-0.29115
G1 X97.081 Y96.862 E-0.31598
G1 X98.345 Y96.352 E-0.31447
G1 X99.757 Y96.021 E-0.33490
G1 X100.074 Y95.997 E-0.07350
G1 E-0.07000 F2100.00000
G1 Z0.400 F10800.000
G1 X104.704 Y100.321
G1 Z0.200
G1 E1.40000 F2100.00000
G1 F1200.000
G1 X104.725 Y100.554 E0.01183
G1 X104.288 Y100.300 E0.02548
G1 X103.561 Y99.987 E0.03995
G1 X102.792 Y99.787 E0.04014
G1 X101.975 Y99.715 E0.04140
G1 X101.387 Y99.747 E0.02973
G1 X100.591 Y99.905 E0.04097
G1 X99.953 Y100.134 E0.03420
G1 X99.385 Y100.449 E0.03278
G1 X98.841 Y100.877 E0.03495
G1 X98.631 Y101.094 E0.01523
G1 X98.235 Y101.587 E0.03196
G1 X97.852 Y102.262 E0.03915
G1 X97.557 Y103.037 E0.04186
G1 X97.381 Y103.907 E0.04480
G1 X97.315 Y104.969 E0.05374
G1 X97.356 Y105.829 E0.04341
G1 X97.528 Y106.828 E0.05120
G1 X97.810 Y107.623 E0.04255
G1 X98.196 Y108.345 E0.04132
G1 X98.727 Y109.005 E0.04279
G1 X99.252 Y109.454 E0.03487
G1 X99.827 Y109.807 E0.03406
G1 X100.430 Y110.054 E0.03287
G1 X101.121 Y110.220 E0.03589
G1 X101.912 Y110.284 E0.04004
G1 X102.314 Y110.270 E0.02033
G1 X102.959 Y110.175 E0.03288
G1 X103.648 Y109.959 E0.03644
G1 X104.640 Y109.466 E0.05593
G1 X104.716 Y109.413 E0.00469
G1 X104.696 Y109.724 E0.01573
G1 X104.506 Y109.811 E0.01054
G1 X103.718 Y110.087 E0.04212
G1 X102.607 Y110.301 E0.05716
G1 X101.468 Y110.366 E0.05757
G1 X100.399 Y110.285 E0.05411
G1 X99.548 Y110.082 E0.04417
G1 X98.852 Y109.806 E0.03779
G1 X98.258 Y109.456 E0.03482
G1 X97.681 Y108.963 E0.03828
G1 X97.259 Y108.454 E0.03339
G1 X96.900 Y107.849 E0.03549
G1 X96.595 Y107.090 E0.04130
G1 X96.382 Y106.167 E0.04781
G1 X96.294 Y104.834 E0.06743
G1 X96.427 Y103.484 E0.06850
G1 X96.588 Y102.832 E0.03390
G1 X96.885 Y102.099 E0.03993
G1 X97.226 Y101.523 E0.03376
G1 X97.714 Y100.946 E0.03818
G1 X98.200 Y100.542 E0.03188
G1 X98.762 Y100.206 E0.03306
G1 X99.449 Y99.928 E0.03742
G1 X100.312 Y99.722 E0.04480
G1 X101.463 Y99.634 E0.05827
G1 X102.603 Y99.695 E0.05762
G1 X103.720 Y99.949 E0.05779
G1 X104.622 Y100.284 E0.04860
G1 X105.291 Y99.918 F10800.000
G1 F1200.000
G1 X105.340 Y100.621 E0.03558
G1 X105.443 Y101.122 E0.02579
G1 X105.482 Y101.546 E0.02148
G1 X105.409 Y101.817 E0.01418
G1 X105.167 Y101.607 E0.01617
G1 X104.438 Y101.090 E0.04513
G1 X104.015 Y100.843 E0.02473
G1 X103.364 Y100.563 E0.03576
G1 X102.688 Y100.387 E0.03525
G1 X101.965 Y100.324 E0.03664
G1 X101.463 Y100.351 E0.02538
G1 X100.753 Y100.492 E0.03652
G1 X100.204 Y100.689 E0.02945
G1 X99.722 Y100.956 E0.02783
G1 X99.249 Y101.329 E0.03042
G1 X99.086 Y101.496 E0.01175
G1 X98.739 Y101.929 E0.02804
G1 X98.403 Y102.521 E0.03436
G1 X98.142 Y103.207 E0.03701
G1 X97.984 Y103.986 E0.04015
G1 X97.923 Y104.974 E0.04994
G1 X97.961 Y105.762 E0.03986
G1 X98.118 Y106.674 E0.04671
G1 X98.367 Y107.377 E0.03763
G1 X98.704 Y108.008 E0.03613
G1 X99.165 Y108.580 E0.03707
G1 X99.611 Y108.962 E0.02962
G1 X100.103 Y109.264 E0.02916
G1 X100.617 Y109.474 E0.02804
G1 X101.217 Y109.619 E0.03116
G1 X101.926 Y109.676 E0.03590
G1 X102.260 Y109.665 E0.01686
G1 X102.823 Y109.582 E0.02873
G1 X103.420 Y109.394 E0.03161
G1 X104.329 Y108.943 E0.05122
G1 X105.097 Y108.406 E0.04730
G1 X105.421 Y108.133 E0.02137
G1 X105.485 Y108.341 E0.01096
G1 X105.480 Y108.684 E0.01734
G1 X105.374 Y109.098 E0.02154
G1 X105.307 Y109.567 E0.02392
G1 X105.292 Y110.120 E0.02792
G1 X104.732 Y110.374 E0.03105
G1 X103.877 Y110.675 E0.04574
G1 X102.682 Y110.905 E0.06147
G1 X101.462 Y110.974 E0.06164
G1 X100.305 Y110.887 E0.05856
G1 X99.365 Y110.663 E0.04882
G1 X98.584 Y110.353 E0.04238
G1 X97.904 Y109.952 E0.03986
G1 X97.247 Y109.391 E0.04359
G1 X96.761 Y108.805 E0.03844
G1 X96.355 Y108.119 E0.04025
G1 X96.015 Y107.273 E0.04602
G1 X95.780 Y106.259 E0.05255
G1 X95.687 Y104.802 E0.07367
G1 X95.827 Y103.381 E0.07210
G1 X96.009 Y102.644 E0.03831
G1 X96.340 Y101.829 E0.04440
G1 X96.729 Y101.170 E0.03863
G1 X97.285 Y100.513 E0.04345
G1 X97.848 Y100.045 E0.03693
G1 X98.491 Y99.660 E0.03782
G1 X99.264 Y99.348 E0.04211
G1 X100.218 Y99.121 E0.04953
G1 X101.456 Y99.026 E0.06266
G1 X102.688 Y99.091 E0.06225
G1 X103.891 Y99.366 E0.06229
G1 X104.743 Y99.673 E0.04573
G1 X105.209 Y99.881 E0.02579
G1 X104.951 Y100.412 F10800.000
G1 F8640.000
G1 X105.340 Y100.621 E-0.17350
G1 X105.443 Y101.122 E-0.11799
G1 X105.482 Y101.546 E-0.09824
G1 X105.409 Y101.817 E-0.06488
G1 X105.167 Y101.607 E-0.07397
G1 X104.438 Y101.090 E-0.20644
G1 X104.015 Y100.843 E-0.11311
G1 X103.364 Y100.563 E-0.16358
G1 X102.688 Y100.387 E-0.16125
G1 X102.011 Y100.328 E-0.15703
G1 E-0.07000 F2100.00000
G1 Z0.400 F10800.000
G1 X98.473 Y100.772
G1 Z0.200
G1 E1.40000 F2100.00000
G1 F1200.000
G1 X98.122 Y101.110 E0.00371
G1 X97.903 Y101.352 E0.00547
G1 X97.745 Y101.577 E0.00459
G1 X97.598 Y101.788 E0.00649
G1 X97.431 Y102.077 E0.00842
G1 X97.318 Y102.313 E0.00659
G1 X97.061 Y102.985 E0.01816
G1 X96.930 Y103.570 E0.02048
G1 X96.891 Y103.829 E0.00893
G1 X96.806 Y104.977 E0.03677
G1 X96.886 Y106.091 E0.03566
G1 X97.056 Y106.936 E0.02752
G1 X97.321 Y107.642 E0.02259
G1 X97.392 Y107.795 E0.00460
G1 X97.620 Y108.200 E0.01137
G1 X97.739 Y108.378 E0.00487
G1 X97.859 Y108.557 E0.00409
G1 X98.102 Y108.828 E0.00562
G1 X98.241 Y108.971 E0.00244
G1 X98.380 Y109.114 E0.00186
G1 F8640.000
G1 X98.241 Y108.971 E-0.04600
G1 E-1.35400 F2100.00000
G1 Z0.400 F10800.000
G1 X110.162 Y100.029
G1 Z0.200
G1 E1.40000 F2100.00000
G1 F1200.000
G1 X110.162 Y110.054 E0.50605
G1 X109.293 Y110.054 E0.04390
G1 X109.293 Y99.946 E0.51029
G1 X115.958 Y99.946 E0.33645
G1 X115.958 Y100.029 E0.00424
G1 X110.252 Y100.029 E0.28801
G1 X110.769 Y100.636 F10800.000
G1 F1200.000
G1 X110.769 Y110.662 E0.50605
G1 X108.686 Y110.662 E0.10519
G1 X108.686 Y99.338 E0.57158
G1 X116.565 Y99.338 E0.39774
G1 X116.565 Y100.636 E0.06552
G1 X110.859 Y100.636 E0.28801
G1 X110.171 Y100.681 F10800.000
G1 F8640.000
G1 X110.808 Y106.396 E-1.33000
G1 E-0.07000 F2100.00000
G1 Z0.400 F10800.000
G1 X109.727 Y109.751
G1 Z0.200
G1 E1.40000 F2100.00000
G1 F1200.000
G1 X109.727 Y100.249 E0.20744
G1 F8640.000
G1 X109.727 Y106.009 E-1.33000
G1 E-0.07000 F2100.00000
G1 Z0.400 F10800.000
G1 X120.969 Y100.029
G1 Z0.200
G1 E1.40000 F2100.00000
G1 F1200.000
G1 X120.969 Y105.428 E0.27249
G1 X126.296 Y105.428 E0.26890
G1 X126.296 Y105.513 E0.00432
G1 X120.969 Y105.513 E0.26890
G1 X120.969 Y109.971 E0.22501
G1 X126.765 Y109.971 E0.29255
G1 X126.765 Y110.054 E0.00424
G1 X120.102 Y110.054 E0.33635
G1 X120.102 Y99.946 E0.51029
G1 X126.765 Y99.946 E0.33635
G1 X126.765 Y100.029 E0.00424
G1 X121.059 Y100.029 E0.28801
G1 X121.576 Y100.636 F10800.000
G1 F1200.000
G1 X121.576 Y104.820 E0.21120
G1 X126.903 Y104.820 E0.26890
G1 X126.903 Y106.120 E0.06561
G1 X121.576 Y106.120 E0.26890
G1 X121.576 Y109.364 E0.16372
G1 X127.372 Y109.364 E0.29255
G1 X127.372 Y110.662 E0.06552
G1 X119.494 Y110.662 E0.39764
G1 X119.494 Y99.338 E0.57158
G1 X127.372 Y99.338 E0.39764
G1 X127.372 Y100.636 E0.06552
G1 X121.666 Y100.636 E0.28801
G1 X120.978 Y100.681 F10800.000
G1 F8640.000
G1 X121.576 Y104.820 E-0.96632
G1 X123.151 Y104.820 E-0.36368
G1 E-0.07000 F2100.00000
G1 Z0.400 F10800.000
G1 X120.535 Y109.751
G1 Z0.200
G1 E1.40000 F2100.00000
G1 F1200.000
G1 X120.535 Y100.249 E0.20597
G1 F8640.000
G1 X120.535 Y106.009 E-1.33000
G1 E-0.07000 F2100.00000
G1 Z0.400 F10800.000
G1 X130.777 Y99.946
G1 Z0.200
G1 E1.40000 F2100.00000
G1 F1200.000
G1 X131.519 Y99.946 E0.03742
G1 X134.648 Y109.058 E0.48637
G1 X136.332 Y109.058 E0.08501
G1 X139.461 Y99.946 E0.48634
G1 X140.368 Y99.946 E0.04579
G1 X136.625 Y110.054 E0.54415
G1 X134.520 Y110.054 E0.10624
G1 X130.809 Y100.030 E0.53960
G1 F8640.000
G1 X131.519 Y99.946 E-0.16509
G1 X133.157 Y104.717 E-1.16491
G1 E-0.07000 F2100.00000
G1 Z0.400 F10800.000
G1 X133.197 Y102.986
G1 Z0.200
G1 E1.40000 F2100.00000
G1 F1200.000
G1 X137.783 Y102.986 E0.23152
G1 X135.899 Y108.451 E0.29177
G1 X135.081 Y108.451 E0.04131
G1 X133.226 Y103.072 E0.28724
G1 X133.105 Y102.393 F10800.000
G1 F8640.000
G1 X137.783 Y102.986 E-1.05244
G1 X137.391 Y104.123 E-0.27756
G1 E-0.07000 F2100.00000
G1 Z0.400 F10800.000
G1 X132.817 Y101.843
G1 Z0.200
G1 E1.40000 F2100.00000
G1 F1200.000
G1 X138.163 Y101.843 E0.26986
G1 X139.028 Y99.338 E0.13378
G1 X141.240 Y99.338 E0.11164
G1 X137.048 Y110.662 E0.60950
G1 X134.098 Y110.662 E0.14890
G1 X129.905 Y99.338 E0.60950
G1 X131.951 Y99.338 E0.10327
G1 X132.787 Y101.758 E0.12924
G1 X132.987 Y102.419 F10800.000
G1 X132.693 Y102.415
G1 F1200.000
G1 X138.286 Y102.415 E0.24930
G1 F8640.000
G1 X132.693 Y102.415 E-1.29148
G1 E-0.10852 F2100.00000
G1 Z0.400 F10800.000
G1 X139.804 Y100.249
G1 Z0.200
G1 E1.40000 F2100.00000
G1 F1200.000
G1 X139.157 Y102.056 E0.03784
G1 X137.568 Y106.522 E0.04455
G1 F8640.000
G1 X139.157 Y102.056 E-1.09464
G1 E-0.30536 F2100.00000
G1 Z0.400 F10800.000
G1 X136.486 Y109.556
G1 Z0.200
G1 E1.40000 F2100.00000
G1 F1200.000
G1 X134.660 Y109.556 E0.05917
G1 F8640.000
G1 X136.486 Y109.556 E-0.42167
G1 E-0.97833 F2100.00000
G1 Z0.400 F10800.000
G1 X131.359 Y100.531
G1 Z0.200
G1 E1.40000 F2100.00000
G1 F1200.000
G1 X131.258 Y100.249 E0.00206
G1 F8640.000
G1 X131.359 Y100.531 E-0.06915
G1 E-1.33085 F2100.00000
G1 Z0.400 F10800.000
G1 X145.405 Y108.024
G1 Z0.200
G1 E1.40000 F2100.00000
G1 F1200.000
G1 X147.114 Y108.516 E0.08976
G1 X152.494 Y99.946 E0.51081
G1 X153.707 Y99.946 E0.06125
G1 X153.707 Y110.054 E0.51029
G1 X153.151 Y110.054 E0.02807
G1 X153.151 Y103.382 E0.33684
G1 X151.457 Y102.882 E0.08916
G1 X146.825 Y110.054 E0.43100
G1 X144.851 Y110.054 E0.09965
G1 X144.851 Y99.946 E0.51029
G1 X145.405 Y99.946 E0.02797
G1 X145.405 Y107.934 E0.40326
G1 X146.012 Y107.567 F10800.000
G1 F1200.000
G1 X146.843 Y107.806 E0.04362
G1 X152.158 Y99.338 E0.50468
G1 X154.315 Y99.338 E0.10884
G1 X154.315 Y110.662 E0.57158
G1 X152.544 Y110.662 E0.08936
G1 X152.544 Y103.836 E0.34457
G1 X151.721 Y103.593 E0.04333
G1 X147.156 Y110.662 E0.42477
G1 X144.244 Y110.662 E0.14698
G1 X144.244 Y99.338 E0.57158
G1 X146.012 Y99.338 E0.08926
G1 X146.012 Y107.477 E0.41083
G1 X145.943 Y108.163 F10800.000
G1 F8640.000
G1 X146.843 Y107.806 E-0.20625
G1 X149.430 Y103.684 E-1.12375
G1 E-0.07000 F2100.00000
G1 Z0.400 F10800.000
G1 X146.919 Y109.573
G1 Z0.200
G1 E1.40000 F2100.00000
G1 F1200.000
G1 X146.021 Y108.675 E0.06708
G1 X145.306 Y108.469 E0.03928
G1 X145.306 Y108.859 E0.02057
G1 X146.320 Y109.872 E0.07571
G1 F8640.000
G1 X145.306 Y108.859 E-0.33097
G1 X145.306 Y108.469 E-0.08991
G1 X146.021 Y108.675 E-0.17173
G1 X146.919 Y109.573 E-0.29325
G1 E-0.51414 F2100.00000
G1 Z0.400 F10800.000
G1 X152.565 Y103.019
G1 Z0.200
G1 E1.40000 F2100.00000
G1 F1200.000
G1 X151.666 Y102.120 E0.06495
G1 X152.002 Y101.586 E0.03224
G1 X153.252 Y102.837 E0.09040
G1 X153.252 Y101.967 E0.04444
G1 X152.337 Y101.052 E0.06616
G1 X152.672 Y100.518 E0.03224
G1 X153.525 Y101.371 E0.06167
;BEFORE_LAYER_CHANGE
G92 E0.0
;0.35


G1 F8640.000
G1 X152.672 Y100.518 E-0.27859
G1 X152.337 Y101.052 E-0.14561
G1 X153.252 Y101.967 E-0.29887
G1 X153.252 Y102.837 E-0.20075
G1 X152.008 Y101.593 E-0.40618
G1 E-0.07000 F2100.00000
G1 Z0.400 F10800.000
;AFTER_LAYER_CHANGE
;0.35
G1 X156.254 Y96.624
G1 Z0.350
G1 E1.40000 F2100.00000
G1 F3000.000
G1 X156.828 Y97.127 E0.02940
G1 X157.232 Y97.779 E0.02955
G1 X157.430 Y98.516 E0.02940
G1 X157.447 Y111.203 E0.48880
G1 X157.346 Y111.903 E0.02727
G1 X157.001 Y112.645 E0.03153
G1 X156.439 Y113.245 E0.03168
G1 X155.722 Y113.640 E0.03153
G1 X154.918 Y113.792 E0.03153
G1 X101.453 Y114.107 E2.05996
G1 X99.846 Y113.986 E0.06207
G1 X98.487 Y113.671 E0.05377
G1 X97.179 Y113.153 E0.05418
G1 X95.926 Y112.381 E0.05673
G1 X94.873 Y111.435 E0.05452
G1 X94.189 Y110.595 E0.04173
G1 X93.580 Y109.575 E0.04578
G1 X93.024 Y108.208 E0.05687
G1 X92.672 Y106.662 E0.06107
G1 X92.556 Y104.729 E0.07464
G1 X92.736 Y102.862 E0.07223
G1 X93.087 Y101.517 E0.05357
G1 X93.526 Y100.449 E0.04451
G1 X94.066 Y99.521 E0.04134
G1 X95.026 Y98.341 E0.05860
G1 X95.916 Y97.579 E0.04516
G1 X97.081 Y96.862 E0.05272
G1 X98.345 Y96.352 E0.05247
G1 X99.757 Y96.021 E0.05588
G1 X101.455 Y95.893 E0.06562
G1 X154.859 Y96.206 E2.05759
G1 X155.559 Y96.308 E0.02727
G1 X156.172 Y96.586 E0.02594
G1 F8640.000
G1 X156.828 Y97.127 E-0.19620
G1 X157.232 Y97.779 E-0.17712
G1 X157.430 Y98.516 E-0.17621
G1 X157.434 Y101.896 E-0.78047
G1 E-0.07000 F2100.00000
G1 Z0.550 F10800.000
G1 X153.897 Y99.756
G1 Z0.350
G1 E1.40000 F2100.00000
M204 S800
G1 F2700.000
G1 X153.897 Y110.244 E0.40407
G1 X152.962 Y110.244 E0.03601
G1 X152.962 Y103.523 E0.25893
G1 X151.540 Y103.104 E0.05714
G1 X146.928 Y110.244 E0.32748
G1 X144.662 Y110.244 E0.08732
G1 X144.662 Y99.756 E0.40407
G1 X145.595 Y99.756 E0.03593
G1 X145.595 Y107.882 E0.31306
G1 X147.029 Y108.295 E0.05753
G1 X152.389 Y99.756 E0.38842
G1 X153.807 Y99.756 E0.05461
M204 S1000
G1 F8640.000
G1 X153.856 Y105.516 E-1.33000
G1 E-0.07000 F2100.00000
G1 Z0.550 F10800.000
G1 X146.212 Y107.417
G1 Z0.350
G1 E1.40000 F2100.00000
M204 S800
G1 X146.753 Y107.572 E0.02169
G1 X152.048 Y99.138 E0.38366
G1 X154.515 Y99.138 E0.09504
G1 X154.515 Y110.862 E0.45167
G1 X152.344 Y110.862 E0.08361
G1 X152.344 Y103.985 E0.26494
G1 X151.808 Y103.827 E0.02155
G1 X147.265 Y110.862 E0.32265
G1 X144.044 Y110.862 E0.12408
G1 X144.044 Y99.138 E0.45167
G1 X146.212 Y99.138 E0.08354
G1 X146.212 Y107.327 E0.31548
M204 S1000
G1 X146.155 Y107.977 F10800.000
G1 X146.240 Y108.260
G1 F4200.000
G1 X145.125 Y109.374 E0.06765
G1 X145.125 Y109.780 E0.01742
G1 X145.693 Y109.780 E0.02436
G1 X146.655 Y108.818 E0.05844
G1 X147.110 Y109.108 E0.02316
G1 X146.694 Y109.753 E0.03299
G1 X146.388 Y110.058 E0.01853
G1 F8640.000
G1 X146.694 Y109.753 E-0.09970
G1 X147.110 Y109.108 E-0.17746
G1 X146.655 Y108.818 E-0.12457
