; generated by PrusaSlicer 2.4.0-beta4+x64 on 2021-12-21 at 17:27:01 UTC

; 

; external perimeters extrusion width = 0.45mm
; perimeters extrusion width = 0.45mm
; infill extrusion width = 0.45mm
; solid infill extrusion width = 0.45mm
; top infill extrusion width = 0.40mm
; first layer extrusion width = 0.50mm

M201 X500 Y500 Z100 E5000 ; sets maximum accelerations, mm/sec^2
M203 X500 Y500 Z10 E60 ; sets maximum feedrates, mm/sec
M204 P500 R1000 T500 ; sets acceleration (P, T) and retract acceleration (R), mm/sec^2
M205 X8.00 Y8.00 Z0.40 E5.00 ; sets the jerk limits, mm/sec
M205 S0 T0 ; sets the minimum extruding and travel feed rate, mm/sec
M107 ; disable fan
;TYPE:Custom
G90 ; use absolute coordinates
M83 ; extruder relative mode
M104 S215 ; set extruder temp
M140 S60 ; set bed temp
M190 S60 ; wait for bed temp
M109 S215 ; wait for extruder temp
G28 ; home all
G1 Z2 F240
G1 X2 Y10 F3000
G1 Z0.28 F240
G92 E0
G1 Y190 E15 F1500 ; intro line
G1 X2.3 F5000
G92 E0
G1 Y10 E15 F1200 ; intro line
G92 E0
G21 ; set units to millimeters
G90 ; use absolute coordinates
M83 ; use relative distances for extrusion
M900 K0.05 ; Filament gcode LA 1.5
M900 K200 ; Filament gcode LA 1.0
M107 ; disable fan
;LAYER_CHANGE
;Z:0.25
;HEIGHT:0.25
;BEFORE_LAYER_CHANGE
G92 E0
;0.25


G1 E-1 F3600 ; retract
G1 Z.25 F12000 ; move to next layer (0)
;AFTER_LAYER_CHANGE
;0.25
G1 X149.618 Y149.464 ; move to first brim point
G1 E1 F2400 ;  ; unretract
;TYPE:Skirt/Brim
;WIDTH:0.5
G1 F1669
G1 X150.785 Y148.615 E.06695 ; brim
G1 X152.11 Y148.001 E.06777 ; brim
G1 X153.326 Y147.689 E.05824 ; brim
G1 X154.146 Y147.601 E.03825 ; brim
G1 X154.962 Y147.601 E.03786 ; brim
G1 X156.372 Y147.82 E.06621 ; brim
G1 X157.737 Y148.315 E.06734 ; brim
G1 X158.978 Y149.065 E.06729 ; brim
G1 X160.05 Y150.04 E.0672 ; brim
G1 X160.529 Y150.634 E.03545 ; brim
G1 X160.957 Y151.287 E.03622 ; brim
G1 X161.52 Y152.505 E.06221 ; brim
G1 X161.879 Y153.968 E.06989 ; brim
G1 X161.938 Y155.446 E.06865 ; brim
G1 X161.706 Y156.893 E.06798 ; brim
G1 X161.196 Y158.26 E.06767 ; brim
G1 X160.428 Y159.501 E.06774 ; brim
G1 X159.416 Y160.582 E.06868 ; brim
G1 X158.375 Y161.344 E.05986 ; brim
G1 X157.686 Y161.71 E.03617 ; brim
G1 X156.978 Y162.001 E.03555 ; brim
G1 X155.556 Y162.34 E.06779 ; brim
G1 X154.097 Y162.396 E.06772 ; brim
G1 X152.665 Y162.167 E.06732 ; brim
G1 X151.309 Y161.667 E.06703 ; brim
G1 X150.11 Y160.937 E.06513 ; brim
G1 X149.037 Y159.962 E.06727 ; brim
G1 X148.556 Y159.366 E.0355 ; brim
G1 X148.128 Y158.714 E.03622 ; brim
G1 X147.567 Y157.498 E.06212 ; brim
G1 X147.207 Y156.04 E.06968 ; brim
G1 X147.146 Y154.562 E.06859 ; brim
G1 X147.365 Y153.16 E.06587 ; brim
G1 X147.867 Y151.785 E.06787 ; brim
G1 X148.631 Y150.533 E.06808 ; brim
G1 X149.577 Y149.508 E.06469 ; brim
G1 X149.904 Y149.812 F12000 ; move to first brim point
G1 F1669
G1 X151.029 Y148.989 E.06463 ; brim
G1 X152.241 Y148.428 E.062 ; brim
G1 X153.391 Y148.131 E.05508 ; brim
G1 X154.158 Y148.047 E.03581 ; brim
G1 X154.944 Y148.047 E.03648 ; brim
G1 X156.281 Y148.258 E.06276 ; brim
G1 X157.562 Y148.726 E.06331 ; brim
G1 X158.727 Y149.435 E.06326 ; brim
G1 X159.713 Y150.333 E.06186 ; brim
G1 X160.175 Y150.906 E.03413 ; brim
G1 X160.574 Y151.517 E.03389 ; brim
G1 X161.105 Y152.671 E.05892 ; brim
G1 X161.44 Y154.05 E.06585 ; brim
G1 X161.491 Y155.44 E.0645 ; brim
G1 X161.269 Y156.799 E.06387 ; brim
G1 X160.786 Y158.081 E.06359 ; brim
G1 X160.061 Y159.246 E.06365 ; brim
G1 X159.105 Y160.261 E.06466 ; brim
G1 X158.151 Y160.957 E.05483 ; brim
G1 X157.506 Y161.301 E.03389 ; brim
G1 X156.824 Y161.581 E.03419 ; brim
G1 X155.475 Y161.9 E.06431 ; brim
G1 X154.103 Y161.949 E.06368 ; brim
G1 X152.797 Y161.741 E.06135 ; brim
G1 X151.521 Y161.273 E.06306 ; brim
G1 X150.393 Y160.591 E.06115 ; brim
G1 X149.373 Y159.668 E.06383 ; brim
G1 X148.911 Y159.095 E.03415 ; brim
G1 X148.511 Y158.484 E.03389 ; brim
G1 X147.981 Y157.332 E.05883 ; brim
G1 X147.646 Y155.956 E.06566 ; brim
G1 X147.593 Y154.568 E.06446 ; brim
G1 X147.803 Y153.252 E.06183 ; brim
G1 X148.278 Y151.961 E.06382 ; brim
G1 X149 Y150.786 E.06399 ; brim
G1 X149.863 Y149.856 E.05887 ; brim
G1 X150.189 Y150.16 F12000 ; move to first brim point
G1 F1669
G1 X150.241 Y150.105 E.00351 ; brim
G1 X151.237 Y149.384 E.05702 ; brim
G1 X152.374 Y148.854 E.05821 ; brim
G1 X153.456 Y148.573 E.05185 ; brim
G1 X154.194 Y148.492 E.03446 ; brim
G1 X154.926 Y148.494 E.03398 ; brim
G1 X156.149 Y148.685 E.05743 ; brim
G1 X157.351 Y149.12 E.05928 ; brim
G1 X158.444 Y149.78 E.05924 ; brim
G1 X159.377 Y150.627 E.05847 ; brim
G1 X159.807 Y151.159 E.03175 ; brim
G1 X160.192 Y151.748 E.03261 ; brim
G1 X160.677 Y152.799 E.05371 ; brim
G1 X160.995 Y154.09 E.06169 ; brim
G1 X161.045 Y155.433 E.06236 ; brim
G1 X160.833 Y156.703 E.0597 ; brim
G1 X160.377 Y157.902 E.05951 ; brim
G1 X159.695 Y158.99 E.05959 ; brim
G1 X158.825 Y159.913 E.05883 ; brim
G1 X157.927 Y160.571 E.05167 ; brim
G1 X157.306 Y160.902 E.03261 ; brim
G1 X156.672 Y161.161 E.03179 ; brim
G1 X155.396 Y161.46 E.06083 ; brim
G1 X154.111 Y161.502 E.05961 ; brim
G1 X152.891 Y161.304 E.05735 ; brim
G1 X151.697 Y160.862 E.05907 ; brim
G1 X150.644 Y160.221 E.05719 ; brim
G1 X149.709 Y159.374 E.05853 ; brim
G1 X149.278 Y158.841 E.03178 ; brim
G1 X148.894 Y158.253 E.03261 ; brim
G1 X148.409 Y157.203 E.05363 ; brim
G1 X148.091 Y155.916 E.0615 ; brim
G1 X148.04 Y154.574 E.06233 ; brim
G1 X148.24 Y153.346 E.05772 ; brim
G1 X148.688 Y152.138 E.05978 ; brim
G1 X149.367 Y151.04 E.0599 ; brim
G1 X150.148 Y150.204 E.05306 ; brim
G1 X150.473 Y150.505 F12000 ; move to first brim point
G1 F1669
G1 X150.522 Y150.453 E.00334 ; brim
G1 X151.446 Y149.779 E.05306 ; brim
G1 X152.507 Y149.281 E.05439 ; brim
G1 X153.521 Y149.015 E.04863 ; brim
G1 X154.206 Y148.939 E.03195 ; brim
G1 X154.908 Y148.94 E.03257 ; brim
G1 X156.058 Y149.122 E.054 ; brim
G1 X157.176 Y149.531 E.05526 ; brim
G1 X158.193 Y150.15 E.05522 ; brim
G1 X159.041 Y150.921 E.05315 ; brim
G1 X159.453 Y151.431 E.03042 ; brim
G1 X159.809 Y151.978 E.03027 ; brim
G1 X160.249 Y152.928 E.04859 ; brim
G1 X160.55 Y154.132 E.05755 ; brim
G1 X160.6 Y155.384 E.05816 ; brim
G1 X160.407 Y156.567 E.05559 ; brim
G1 X159.986 Y157.685 E.05542 ; brim
G1 X159.353 Y158.701 E.05554 ; brim
G1 X158.544 Y159.566 E.05496 ; brim
G1 X157.702 Y160.185 E.04849 ; brim
G1 X157.127 Y160.493 E.03026 ; brim
G1 X156.519 Y160.741 E.03044 ; brim
G1 X155.357 Y161.015 E.05538 ; brim
G1 X154.159 Y161.058 E.05561 ; brim
G1 X153.024 Y160.877 E.05336 ; brim
G1 X151.908 Y160.469 E.05509 ; brim
G1 X150.926 Y159.875 E.05323 ; brim
G1 X150.045 Y159.08 E.0551 ; brim
G1 X149.632 Y158.57 E.03042 ; brim
G1 X149.277 Y158.023 E.03027 ; brim
G1 X148.837 Y157.074 E.04853 ; brim
G1 X148.536 Y155.874 E.05737 ; brim
G1 X148.484 Y154.621 E.05819 ; brim
G1 X148.666 Y153.479 E.05367 ; brim
G1 X149.081 Y152.352 E.0557 ; brim
G1 X149.71 Y151.327 E.05581 ; brim
G1 X150.432 Y150.549 E.04921 ; brim
G1 X150.757 Y150.849 F12000 ; move to first brim point
G1 F1669
G1 X151.657 Y150.173 E.05222 ; brim
G1 X152.642 Y149.707 E.05056 ; brim
G1 X153.588 Y149.456 E.0454 ; brim
G1 X154.22 Y149.385 E.02949 ; brim
G1 X154.858 Y149.384 E.0296 ; brim
G1 X155.927 Y149.549 E.0502 ; brim
G1 X156.965 Y149.925 E.05121 ; brim
G1 X157.91 Y150.496 E.05122 ; brim
G1 X158.705 Y151.216 E.04978 ; brim
G1 X159.085 Y151.684 E.02798 ; brim
G1 X159.426 Y152.207 E.02896 ; brim
G1 X159.835 Y153.095 E.04534 ; brim
G1 X160.111 Y154.216 E.05357 ; brim
G1 X160.156 Y155.336 E.05199 ; brim
G1 X159.981 Y156.433 E.05152 ; brim
G1 X159.595 Y157.47 E.05134 ; brim
G1 X159.011 Y158.414 E.05148 ; brim
G1 X158.261 Y159.22 E.05108 ; brim
G1 X157.477 Y159.8 E.04527 ; brim
G1 X156.927 Y160.094 E.02894 ; brim
G1 X156.367 Y160.322 E.02802 ; brim
G1 X155.318 Y160.57 E.05003 ; brim
G1 X154.206 Y160.614 E.05162 ; brim
G1 X153.155 Y160.45 E.04936 ; brim
G1 X152.119 Y160.075 E.0511 ; brim
G1 X151.208 Y159.529 E.04925 ; brim
G1 X150.38 Y158.784 E.05166 ; brim
G1 X150 Y158.316 E.02797 ; brim
G1 X149.66 Y157.793 E.02895 ; brim
G1 X149.251 Y156.907 E.04528 ; brim
G1 X148.975 Y155.789 E.0534 ; brim
G1 X148.929 Y154.668 E.05208 ; brim
G1 X149.093 Y153.61 E.04967 ; brim
G1 X149.474 Y152.564 E.05163 ; brim
G1 X150.054 Y151.612 E.05171 ; brim
G1 X150.717 Y150.894 E.04537 ; brim
G1 X151.043 Y151.197 F12000 ; move to first brim point
G1 F1669
G1 X151.115 Y151.119 E.00492 ; brim
G1 X151.902 Y150.546 E.04517 ; brim
G1 X152.777 Y150.133 E.04489 ; brim
G1 X153.655 Y149.898 E.04215 ; brim
G1 X154.257 Y149.83 E.02811 ; brim
G1 X154.84 Y149.83 E.02703 ; brim
G1 X155.836 Y149.987 E.04681 ; brim
G1 X156.754 Y150.319 E.04529 ; brim
G1 X157.628 Y150.842 E.04724 ; brim
G1 X158.37 Y151.511 E.04634 ; brim
G1 X158.731 Y151.956 E.0266 ; brim
G1 X159.042 Y152.436 E.02653 ; brim
G1 X159.42 Y153.261 E.04208 ; brim
G1 X159.672 Y154.299 E.04956 ; brim
G1 X159.709 Y155.329 E.04783 ; brim
G1 X159.544 Y156.338 E.04742 ; brim
G1 X159.185 Y157.292 E.0473 ; brim
G1 X158.669 Y158.127 E.04552 ; brim
G1 X157.978 Y158.874 E.04722 ; brim
G1 X157.251 Y159.414 E.04204 ; brim
G1 X156.747 Y159.685 E.02652 ; brim
G1 X156.215 Y159.901 E.02664 ; brim
G1 X155.238 Y160.13 E.04658 ; brim
G1 X154.213 Y160.167 E.04759 ; brim
G1 X153.247 Y160.013 E.04536 ; brim
G1 X152.293 Y159.663 E.04712 ; brim
G1 X151.458 Y159.158 E.0453 ; brim
G1 X150.716 Y158.49 E.04633 ; brim
G1 X150.354 Y158.044 E.0266 ; brim
G1 X150.043 Y157.565 E.02653 ; brim
G1 X149.666 Y156.741 E.04203 ; brim
G1 X149.414 Y155.706 E.0494 ; brim
G1 X149.376 Y154.674 E.04793 ; brim
G1 X149.53 Y153.703 E.04564 ; brim
G1 X149.885 Y152.74 E.04759 ; brim
G1 X150.422 Y151.865 E.04761 ; brim
G1 X151.002 Y151.241 E.03956 ; brim
G1 X151.326 Y151.542 F12000 ; move to first brim point
G1 F1669
G1 X151.397 Y151.466 E.0048 ; brim
G1 X152.114 Y150.94 E.0413 ; brim
G1 X152.914 Y150.558 E.04109 ; brim
G1 X153.723 Y150.339 E.03889 ; brim
G1 X154.27 Y150.276 E.02555 ; brim
G1 X154.822 Y150.277 E.02559 ; brim
G1 X155.744 Y150.424 E.04333 ; brim
G1 X156.581 Y150.731 E.04135 ; brim
G1 X157.346 Y151.189 E.04139 ; brim
G1 X158.035 Y151.807 E.04294 ; brim
G1 X158.363 Y152.209 E.02409 ; brim
G1 X158.658 Y152.665 E.02517 ; brim
G1 X159.004 Y153.425 E.03877 ; brim
G1 X159.232 Y154.38 E.04553 ; brim
G1 X159.263 Y155.321 E.0437 ; brim
G1 X159.118 Y156.203 E.04145 ; brim
G1 X158.793 Y157.078 E.04331 ; brim
G1 X158.325 Y157.841 E.04153 ; brim
G1 X157.694 Y158.529 E.04332 ; brim
G1 X157.024 Y159.029 E.03875 ; brim
G1 X156.547 Y159.286 E.02516 ; brim
G1 X156.065 Y159.481 E.02412 ; brim
G1 X155.159 Y159.691 E.04312 ; brim
G1 X154.221 Y159.72 E.04354 ; brim
G1 X153.34 Y159.576 E.0414 ; brim
G1 X152.504 Y159.269 E.04131 ; brim
G1 X151.739 Y158.811 E.04138 ; brim
G1 X151.05 Y158.194 E.04292 ; brim
G1 X150.722 Y157.791 E.02409 ; brim
G1 X150.427 Y157.336 E.02517 ; brim
G1 X150.082 Y156.576 E.03872 ; brim
G1 X149.853 Y155.625 E.04538 ; brim
G1 X149.822 Y154.682 E.04377 ; brim
G1 X149.967 Y153.797 E.04161 ; brim
G1 X150.295 Y152.917 E.04355 ; brim
G1 X150.789 Y152.119 E.04355 ; brim
G1 X151.285 Y151.586 E.03379 ; brim
G1 X151.611 Y151.887 F12000 ; move to first brim point
G1 F1669
G1 X151.68 Y151.812 E.00471 ; brim
G1 X152.328 Y151.332 E.03741 ; brim
G1 X153.052 Y150.983 E.03728 ; brim
G1 X153.791 Y150.781 E.03556 ; brim
G1 X154.308 Y150.721 E.02412 ; brim
G1 X154.803 Y150.723 E.02298 ; brim
G1 X155.613 Y150.851 E.03803 ; brim
G1 X156.372 Y151.126 E.03746 ; brim
G1 X157.066 Y151.537 E.03742 ; brim
G1 X157.701 Y152.103 E.03946 ; brim
G1 X158.009 Y152.482 E.02266 ; brim
G1 X158.274 Y152.892 E.02266 ; brim
G1 X158.589 Y153.59 E.0355 ; brim
G1 X158.787 Y154.419 E.03956 ; brim
G1 X158.818 Y155.273 E.03967 ; brim
G1 X158.691 Y156.071 E.03745 ; brim
G1 X158.399 Y156.866 E.03931 ; brim
G1 X157.98 Y157.558 E.03753 ; brim
G1 X157.408 Y158.186 E.0394 ; brim
G1 X156.797 Y158.645 E.03546 ; brim
G1 X156.368 Y158.877 E.02264 ; brim
G1 X155.913 Y159.061 E.02273 ; brim
G1 X155.121 Y159.245 E.03774 ; brim
G1 X154.269 Y159.276 E.03955 ; brim
G1 X153.471 Y159.149 E.03747 ; brim
G1 X152.713 Y158.874 E.03741 ; brim
G1 X152.019 Y158.463 E.03742 ; brim
G1 X151.385 Y157.897 E.03943 ; brim
G1 X151.076 Y157.519 E.02266 ; brim
G1 X150.811 Y157.109 E.02265 ; brim
G1 X150.497 Y156.412 E.03545 ; brim
G1 X150.298 Y155.586 E.03942 ; brim
G1 X150.267 Y154.73 E.03974 ; brim
G1 X150.394 Y153.93 E.03759 ; brim
G1 X150.687 Y153.131 E.03946 ; brim
G1 X151.133 Y152.405 E.03951 ; brim
G1 X151.57 Y151.931 E.02995 ; brim
G1 X151.898 Y152.23 F12000 ; move to first brim point
G1 F1669
G1 X151.965 Y152.156 E.00462 ; brim
G1 X152.543 Y151.723 E.03351 ; brim
G1 X153.192 Y151.407 E.03346 ; brim
G1 X153.861 Y151.222 E.03223 ; brim
G1 X154.32 Y151.168 E.02145 ; brim
G1 X154.784 Y151.169 E.02151 ; brim
G1 X155.519 Y151.288 E.03457 ; brim
G1 X156.198 Y151.537 E.03351 ; brim
G1 X156.818 Y151.909 E.03354 ; brim
G1 X157.367 Y152.399 E.03417 ; brim
G1 X157.641 Y152.734 E.02009 ; brim
G1 X157.889 Y153.119 E.02125 ; brim
G1 X158.172 Y153.752 E.03214 ; brim
G1 X158.348 Y154.498 E.03558 ; brim
G1 X158.372 Y155.265 E.03557 ; brim
G1 X158.254 Y155.977 E.03349 ; brim
G1 X158.006 Y156.655 E.03351 ; brim
G1 X157.633 Y157.276 E.03357 ; brim
G1 X157.121 Y157.843 E.03545 ; brim
G1 X156.569 Y158.26 E.03211 ; brim
G1 X156.167 Y158.478 E.02123 ; brim
G1 X155.764 Y158.64 E.02014 ; brim
G1 X155.043 Y158.805 E.03431 ; brim
G1 X154.278 Y158.829 E.03552 ; brim
G1 X153.566 Y158.712 E.03349 ; brim
G1 X152.887 Y158.463 E.03351 ; brim
G1 X152.268 Y158.091 E.03353 ; brim
G1 X151.72 Y157.602 E.03409 ; brim
G1 X151.43 Y157.247 E.02124 ; brim
G1 X151.197 Y156.882 E.02009 ; brim
G1 X150.913 Y156.25 E.03215 ; brim
G1 X150.738 Y155.506 E.03545 ; brim
G1 X150.713 Y154.738 E.03564 ; brim
G1 X150.831 Y154.023 E.03362 ; brim
G1 X151.08 Y153.344 E.03357 ; brim
G1 X151.478 Y152.689 E.03552 ; brim
G1 X151.857 Y152.274 E.02611 ; brim
G1 X152.186 Y152.571 F12000 ; move to first brim point
G1 F1669
G1 X152.252 Y152.499 E.00454 ; brim
G1 X152.761 Y152.114 E.02962 ; brim
G1 X153.333 Y151.831 E.0296 ; brim
G1 X153.931 Y151.663 E.02882 ; brim
G1 X154.358 Y151.613 E.01996 ; brim
G1 X154.764 Y151.615 E.01881 ; brim
G1 X155.388 Y151.715 E.02934 ; brim
G1 X155.989 Y151.932 E.02964 ; brim
G1 X156.538 Y152.257 E.0296 ; brim
G1 X157.033 Y152.696 E.0307 ; brim
G1 X157.288 Y153.007 E.01863 ; brim
G1 X157.504 Y153.345 E.01862 ; brim
G1 X157.755 Y153.912 E.02877 ; brim
G1 X157.908 Y154.576 E.03162 ; brim
G1 X157.927 Y155.216 E.02969 ; brim
G1 X157.827 Y155.846 E.02962 ; brim
G1 X157.61 Y156.447 E.02962 ; brim
G1 X157.285 Y156.995 E.02959 ; brim
G1 X156.833 Y157.501 E.03148 ; brim
G1 X156.34 Y157.877 E.02875 ; brim
G1 X155.988 Y158.069 E.0186 ; brim
G1 X155.615 Y158.219 E.01867 ; brim
G1 X154.966 Y158.365 E.03085 ; brim
G1 X154.327 Y158.385 E.02967 ; brim
G1 X153.696 Y158.285 E.02962 ; brim
G1 X153.096 Y158.068 E.02962 ; brim
G1 X152.547 Y157.743 E.0296 ; brim
G1 X152.053 Y157.305 E.03064 ; brim
G1 X151.799 Y156.995 E.01858 ; brim
G1 X151.582 Y156.656 E.01866 ; brim
G1 X151.33 Y156.088 E.02883 ; brim
G1 X151.183 Y155.467 E.02961 ; brim
G1 X151.158 Y154.786 E.03163 ; brim
G1 X151.258 Y154.154 E.02968 ; brim
G1 X151.474 Y153.554 E.02959 ; brim
G1 X151.824 Y152.972 E.0315 ; brim
G1 X152.146 Y152.616 E.02227 ; brim
G1 X152.477 Y152.911 F12000 ; move to first brim point
G1 F1669
G1 X152.541 Y152.84 E.00446 ; brim
G1 X152.981 Y152.503 E.02572 ; brim
G1 X153.477 Y152.254 E.02573 ; brim
G1 X154.003 Y152.104 E.02541 ; brim
G1 X154.37 Y152.059 E.01715 ; brim
G1 X154.743 Y152.061 E.0173 ; brim
G1 X155.294 Y152.152 E.0259 ; brim
G1 X155.814 Y152.343 E.02572 ; brim
G1 X156.29 Y152.629 E.02573 ; brim
G1 X156.699 Y152.993 E.02541 ; brim
G1 X156.934 Y153.279 E.01718 ; brim
G1 X157.118 Y153.569 E.01592 ; brim
G1 X157.337 Y154.07 E.0254 ; brim
G1 X157.467 Y154.651 E.0276 ; brim
G1 X157.481 Y155.204 E.02568 ; brim
G1 X157.39 Y155.751 E.02572 ; brim
G1 X157.199 Y156.272 E.02572 ; brim
G1 X156.914 Y156.747 E.02572 ; brim
G1 X156.544 Y157.161 E.02572 ; brim
G1 X156.11 Y157.495 E.02544 ; brim
G1 X155.809 Y157.66 E.01591 ; brim
G1 X155.466 Y157.797 E.01715 ; brim
